server/luts/cinematic.cube
TITLE "Cinematic"
LUT_3D_SIZE 5
0.000000 0.000000 0.000000
0.172259 0.008634 0.008634
0.429528 0.021528 0.021528
0.686797 0.034422 0.034422
0.876953 0.043953 0.043953
0.016950 0.180575 0.016950
0.189208 0.189208 0.025583
0.446478 0.202103 0.038478
0.703747 0.214997 0.051372
0.893903 0.224528 0.060903
0.042264 0.450264 0.042264
0.214523 0.458898 0.050898
0.471792 0.471792 0.063792
0.729061 0.484686 0.076686
0.919217 0.494217 0.086217
0.067578 0.719953 0.067578
0.239837 0.728587 0.076212
0.497106 0.741481 0.089106
0.754376 0.754376 0.102001
0.944531 0.763906 0.111531
0.086289 0.919289 0.086289
0.258548 0.927923 0.094923
0.515817 0.940817 0.107817
0.773086 0.953711 0.120711
0.963242 0.963242 0.130242
0.003292 0.003292 0.166917
0.175550 0.011925 0.175550
0.432820 0.024820 0.188445
0.690089 0.037714 0.201339
0.880245 0.047245 0.210870
0.020241 0.183866 0.183866
0.192500 0.192500 0.192500
0.449769 0.205394 0.205394
0.707039 0.218289 0.218289
0.897194 0.227819 0.227819
0.045556 0.453556 0.209181
0.217814 0.462189 0.217814
0.475084 0.475084 0.230709
0.732353 0.487978 0.243603
0.922509 0.497509 0.253134
0.070870 0.723245 0.234495
0.243129 0.731879 0.243129
0.500398 0.744773 0.256023
0.757667 0.757667 0.268918
0.947823 0.767198 0.278448
0.089581 0.922581 0.253206
0.261839 0.931214 0.261839
0.519109 0.944109 0.274734
0.776378 0.957003 0.287628
0.966534 0.966534 0.297159
0.008208 0.008208 0.416208
0.180467 0.016842 0.424842
0.437736 0.029736 0.437736
0.695005 0.042630 0.450630
0.885161 0.052161 0.460161
0.025158 0.188783 0.433158
0.197416 0.197416 0.441791
0.454686 0.210311 0.454686
0.711955 0.223205 0.467580
0.902111 0.232736 0.477111
0.050472 0.458472 0.458472
0.222731 0.467106 0.467106
0.480000 0.480000 0.480000
0.737269 0.492894 0.492894
0.927425 0.502425 0.502425
0.075786 0.728161 0.483786
0.248045 0.736795 0.492420
0.505314 0.749689 0.505314
0.762584 0.762584 0.518209
0.952739 0.772114 0.527739
0.094497 0.927497 0.502497
0.266756 0.936131 0.511131
0.524025 0.949025 0.524025
0.781294 0.961919 0.536919
0.971450 0.971450 0.546450
0.013124 0.013124 0.665499
0.185383 0.021758 0.674133
0.442652 0.034652 0.687027
0.699922 0.047547 0.699922
0.890077 0.057077 0.709452
0.030074 0.193699 0.682449
0.202333 0.202333 0.691082
0.459602 0.215227 0.703977
0.716871 0.228121 0.716871
0.907027 0.237652 0.726402
0.055388 0.463388 0.707763
0.227647 0.472022 0.716397
0.484916 0.484916 0.729291
0.742186 0.497811 0.742186
0.932341 0.507341 0.751716
0.080703 0.733078 0.733078
0.252961 0.741711 0.741711
0.510231 0.754606 0.754606
0.767500 0.767500 0.767500
0.957656 0.777031 0.777031
0.099413 0.932413 0.751788
0.271672 0.941047 0.760422
0.528941 0.953941 0.773316
0.786211 0.966836 0.786211
0.976366 0.976366 0.795741
0.016758 0.016758 0.849758
0.189017 0.025392 0.858392
0.446286 0.038286 0.871286
0.703555 0.051180 0.884180
0.893711 0.060711 0.893711
0.033708 0.197333 0.866708
0.205966 0.205966 0.875341
0.463236 0.218861 0.888236
0.720505 0.231755 0.901130
0.910661 0.241286 0.910661
0.059022 0.467022 0.892022
0.231281 0.475656 0.900656
0.488550 0.488550 0.913550
0.745819 0.501444 0.926444
0.935975 0.510975 0.935975
0.084336 0.736711 0.917336
0.256595 0.745345 0.925970
0.513864 0.758239 0.938864
0.771134 0.771134 0.951759
0.961289 0.780664 0.961289
0.103047 0.936047 0.936047
0.275306 0.944681 0.944681
0.532575 0.957575 0.957575
0.789844 0.970469 0.970469
0.980000 0.980000 0.980000
