server/luts/cinematic.cube
TITLE "Cinematic"
LUT_3D_SIZE 17
0.000000 0.000000 0.000000
0.000000 0.000000 0.000000
0.043624 0.002186 0.002186
0.107941 0.005410 0.005410
0.172259 0.008634 0.008634
0.236576 0.011857 0.011857
0.300893 0.015081 0.015081
0.365211 0.018304 0.018304
0.429528 0.021528 0.021528
0.493845 0.024752 0.024752
0.558163 0.027975 0.027975
0.622480 0.031199 0.031199
0.686797 0.034422 0.034422
0.751115 0.037646 0.037646
0.815432 0.040870 0.040870
0.876953 0.043953 0.043953
0.876953 0.043953 0.043953
0.000000 0.000000 0.000000
0.000000 0.000000 0.000000
0.043624 0.002186 0.002186
0.107941 0.005410 0.005410
0.172259 0.008634 0.008634
0.236576 0.011857 0.011857
0.300893 0.015081 0.015081
0.365211 0.018304 0.018304
0.429528 0.021528 0.021528
0.493845 0.024752 0.024752
0.558163 0.027975 0.027975
0.622480 0.031199 0.031199
0.686797 0.034422 0.034422
0.751115 0.037646 0.037646
0.815432 0.040870 0.040870
0.876953 0.043953 0.043953
0.876953 0.043953 0.043953
0.004292 0.045730 0.004292
0.004292 0.045730 0.004292
0.047916 0.047916 0.006479
0.112234 0.051140 0.009702
0.176551 0.054364 0.012926
0.240868 0.057587 0.016150
0.305186 0.060811 0.019373
0.369503 0.064034 0.022597
0.433820 0.067258 0.025820
0.498138 0.070482 0.029044
0.562455 0.073705 0.032268
0.626772 0.076929 0.035491
0.691090 0.080152 0.038715
0.755407 0.083376 0.041938
0.819724 0.086600 0.045162
0.881245 0.089683 0.048245
0.881245 0.089683 0.048245
0.010621 0.113152 0.010621
0.010621 0.113152 0.010621
0.054245 0.115339 0.012807
0.118562 0.118562 0.016031
0.182880 0.121786 0.019255
0.247197 0.125009 0.022478
0.311514 0.128233 0.025702
0.375832 0.131457 0.028925
0.440149 0.134680 0.032149
0.504466 0.137904 0.035373
0.568784 0.141127 0.038596
0.633101 0.144351 0.041820
0.697418 0.147575 0.045043
0.761736 0.150798 0.048267
0.826053 0.154022 0.051491
0.887574 0.157105 0.054574
0.887574 0.157105 0.054574
0.016950 0.180575 0.016950
0.016950 0.180575 0.016950
0.060574 0.182761 0.019136
0.124891 0.185985 0.022360
0.189208 0.189208 0.025583
0.253526 0.192432 0.028807
0.317843 0.195655 0.032030
0.382160 0.198879 0.035254
0.446478 0.202103 0.038478
0.510795 0.205326 0.041701
0.575112 0.208550 0.044925
0.639430 0.211773 0.048148
0.703747 0.214997 0.051372
0.768064 0.218221 0.054596
0.832382 0.221444 0.057819
0.893903 0.224528 0.060903
0.893903 0.224528 0.060903
0.023278 0.247997 0.023278
0.023278 0.247997 0.023278
0.066902 0.250183 0.025465
0.131219 0.253407 0.028688
0.195537 0.256631 0.031912
0.259854 0.259854 0.035135
0.324172 0.263078 0.038359
0.388489 0.266301 0.041583
0.452806 0.269525 0.044806
0.517124 0.272749 0.048030
0.581441 0.275972 0.051253
0.645758 0.279196 0.054477
0.710076 0.282419 0.057701
0.774393 0.285643 0.060924
0.838710 0.288867 0.064148
0.900231 0.291950 0.067231
0.900231 0.291950 0.067231
0.029607 0.315419 0.029607
0.029607 0.315419 0.029607
0.073231 0.317606 0.031793
0.137548 0.320829 0.035017
0.201865 0.324053 0.038240
0.266183 0.327277 0.041464
0.330500 0.330500 0.044688
0.394817 0.333724 0.047911
0.459135 0.336947 0.051135
0.523452 0.340171 0.054358
0.587770 0.343394 0.057582
0.652087 0.346618 0.060806
0.716404 0.349842 0.064029
0.780722 0.353065 0.067253
0.845039 0.356289 0.070476
0.906560 0.359372 0.073560
0.906560 0.359372 0.073560
0.035935 0.382842 0.035935
0.035935 0.382842 0.035935
0.079559 0.385028 0.038122
0.143877 0.388252 0.041345
0.208194 0.391475 0.044569
0.272511 0.394699 0.047793
0.336829 0.397922 0.051016
0.401146 0.401146 0.054240
0.465463 0.404370 0.057463
0.529781 0.407593 0.060687
0.594098 0.410817 0.063911
0.658415 0.414040 0.067134
0.722733 0.417264 0.070358
0.787050 0.420488 0.073581
0.851367 0.423711 0.076805
0.912888 0.426795 0.079888
0.912888 0.426795 0.079888
0.042264 0.450264 0.042264
0.042264 0.450264 0.042264
0.085888 0.452450 0.044450
0.150205 0.455674 0.047674
0.214523 0.458898 0.050898
0.278840 0.462121 0.054121
0.343157 0.465345 0.057345
0.407475 0.468568 0.060568
0.471792 0.471792 0.063792
0.536109 0.475016 0.067016
0.600427 0.478239 0.070239
0.664744 0.481463 0.073463
0.729061 0.484686 0.076686
0.793379 0.487910 0.079910
0.857696 0.491134 0.083134
0.919217 0.494217 0.086217
0.919217 0.494217 0.086217
0.048593 0.517686 0.048593
0.048593 0.517686 0.048593
0.092217 0.519873 0.050779
0.156534 0.523096 0.054003
0.220851 0.526320 0.057226
0.285169 0.529544 0.060450
0.349486 0.532767 0.063673
0.413803 0.535991 0.066897
0.478121 0.539214 0.070121
0.542438 0.542438 0.073344
0.606755 0.545662 0.076568
0.671073 0.548885 0.079791
0.735390 0.552109 0.083015
0.799707 0.555332 0.086239
0.864025 0.558556 0.089462
0.925546 0.561639 0.092546
0.925546 0.561639 0.092546
0.054921 0.585109 0.054921
0.054921 0.585109 0.054921
0.098545 0.587295 0.057108
0.162862 0.590519 0.060331
0.227180 0.593742 0.063555
0.291497 0.596966 0.066778
0.355814 0.600190 0.070002
0.420132 0.603413 0.073226
0.484449 0.606637 0.076449
0.548767 0.609860 0.079673
0.613084 0.613084 0.082896
0.677401 0.616307 0.086120
0.741719 0.619531 0.089344
0.806036 0.622755 0.092567
0.870353 0.625978 0.095791
0.931874 0.629062 0.098874
0.931874 0.629062 0.098874
0.061250 0.652531 0.061250
0.061250 0.652531 0.061250
0.104874 0.654717 0.063436
0.169191 0.657941 0.066660
0.233508 0.661165 0.069883
0.297826 0.664388 0.073107
0.362143 0.667612 0.076331
0.426460 0.670835 0.079554
0.490778 0.674059 0.082778
0.555095 0.677283 0.086001
0.619412 0.680506 0.089225
0.683730 0.683730 0.092449
0.748047 0.686953 0.095672
0.812364 0.690177 0.098896
0.876682 0.693401 0.102119
0.938203 0.696484 0.105203
0.938203 0.696484 0.105203
0.067578 0.719953 0.067578
0.067578 0.719953 0.067578
0.111202 0.722140 0.069765
0.175520 0.725363 0.072988
0.239837 0.728587 0.076212
0.304154 0.731811 0.079436
0.368472 0.735034 0.082659
0.432789 0.738258 0.085883
0.497106 0.741481 0.089106
0.561424 0.744705 0.092330
0.625741 0.747929 0.095554
0.690058 0.751152 0.098777
0.754376 0.754376 0.102001
0.818693 0.757599 0.105224
0.883010 0.760823 0.108448
0.944531 0.763906 0.111531
0.944531 0.763906 0.111531
0.073907 0.787376 0.073907
0.073907 0.787376 0.073907
0.117531 0.789562 0.076093
0.181848 0.792786 0.079317
0.246166 0.796009 0.082541
0.310483 0.799233 0.085764
0.374800 0.802457 0.088988
0.439118 0.805680 0.092211
0.503435 0.808904 0.095435
0.567752 0.812127 0.098659
0.632070 0.815351 0.101882
0.696387 0.818574 0.105106
0.760704 0.821798 0.108329
0.825022 0.825022 0.111553
0.889339 0.828245 0.114777
0.950860 0.831329 0.117860
0.950860 0.831329 0.117860
0.080236 0.854798 0.080236
0.080236 0.854798 0.080236
0.123860 0.856984 0.082422
0.188177 0.860208 0.085646
0.252494 0.863432 0.088869
0.316812 0.866655 0.092093
0.381129 0.869879 0.095316
0.445446 0.873102 0.098540
0.509764 0.876326 0.101764
0.574081 0.879550 0.104987
0.638398 0.882773 0.108211
0.702716 0.885997 0.111434
0.767033 0.889220 0.114658
0.831350 0.892444 0.117882
0.895668 0.895668 0.121105
0.957189 0.898751 0.124189
0.957189 0.898751 0.124189
0.086289 0.919289 0.086289
0.086289 0.919289 0.086289
0.129913 0.921475 0.088475
0.194230 0.924699 0.091699
0.258548 0.927923 0.094923
0.322865 0.931146 0.098146
0.387182 0.934370 0.101370
0.451500 0.937593 0.104593
0.515817 0.940817 0.107817
0.580134 0.944041 0.111041
0.644452 0.947264 0.114264
0.708769 0.950488 0.117488
0.773086 0.953711 0.120711
0.837404 0.956935 0.123935
0.901721 0.960159 0.127159
0.963242 0.963242 0.130242
0.963242 0.963242 0.130242
0.086289 0.919289 0.086289
0.086289 0.919289 0.086289
0.129913 0.921475 0.088475
0.194230 0.924699 0.091699
0.258548 0.927923 0.094923
0.322865 0.931146 0.098146
0.387182 0.934370 0.101370
0.451500 0.937593 0.104593
0.515817 0.940817 0.107817
0.580134 0.944041 0.111041
0.644452 0.947264 0.114264
0.708769 0.950488 0.117488
0.773086 0.953711 0.120711
0.837404 0.956935 0.123935
0.901721 0.960159 0.127159
0.963242 0.963242 0.130242
0.963242 0.963242 0.130242
0.000000 0.000000 0.000000
0.000000 0.000000 0.000000
0.043624 0.002186 0.002186
0.107941 0.005410 0.005410
0.172259 0.008634 0.008634
0.236576 0.011857 0.011857
0.300893 0.015081 0.015081
0.365211 0.018304 0.018304
0.429528 0.021528 0.021528
0.493845 0.024752 0.024752
0.558163 0.027975 0.027975
0.622480 0.031199 0.031199
0.686797 0.034422 0.034422
0.751115 0.037646 0.037646
0.815432 0.040870 0.040870
0.876953 0.043953 0.043953
0.876953 0.043953 0.043953
0.000000 0.000000 0.000000
0.000000 0.000000 0.000000
0.043624 0.002186 0.002186
0.107941 0.005410 0.005410
0.172259 0.008634 0.008634
0.236576 0.011857 0.011857
0.300893 0.015081 0.015081
0.365211 0.018304 0.018304
0.429528 0.021528 0.021528
0.493845 0.024752 0.024752
0.558163 0.027975 0.027975
0.622480 0.031199 0.031199
0.686797 0.034422 0.034422
0.751115 0.037646 0.037646
0.815432 0.040870 0.040870
0.876953 0.043953 0.043953
0.876953 0.043953 0.043953
0.004292 0.045730 0.004292
0.004292 0.045730 0.004292
0.047916 0.047916 0.006479
0.112234 0.051140 0.009702
0.176551 0.054364 0.012926
0.240868 0.057587 0.016150
0.305186 0.060811 0.019373
0.369503 0.064034 0.022597
0.433820 0.067258 0.025820
0.498138 0.070482 0.029044
0.562455 0.073705 0.032268
0.626772 0.076929 0.035491
0.691090 0.080152 0.038715
0.755407 0.083376 0.041938
0.819724 0.086600 0.045162
0.881245 0.089683 0.048245
0.881245 0.089683 0.048245
0.010621 0.113152 0.010621
0.010621 0.113152 0.010621
0.054245 0.115339 0.012807
0.118562 0.118562 0.016031
0.182880 0.121786 0.019255
0.247197 0.125009 0.022478
0.311514 0.128233 0.025702
0.375832 0.131457 0.028925
0.440149 0.134680 0.032149
0.504466 0.137904 0.035373
0.568784 0.141127 0.038596
0.633101 0.144351 0.041820
0.697418 0.147575 0.045043
0.761736 0.150798 0.048267
0.826053 0.154022 0.051491
0.887574 0.157105 0.054574
0.887574 0.157105 0.054574
0.016950 0.180575 0.016950
0.016950 0.180575 0.016950
0.060574 0.182761 0.019136
0.124891 0.185985 0.022360
0.189208 0.189208 0.025583
0.253526 0.192432 0.028807
0.317843 0.195655 0.032030
0.382160 0.198879 0.035254
0.446478 0.202103 0.038478
0.510795 0.205326 0.041701
0.575112 0.208550 0.044925
0.639430 0.211773 0.048148
0.703747 0.214997 0.051372
0.768064 0.218221 0.054596
0.832382 0.221444 0.057819
0.893903 0.224528 0.060903
0.893903 0.224528 0.060903
0.023278 0.247997 0.023278
0.023278 0.247997 0.023278
0.066902 0.250183 0.025465
0.131219 0.253407 0.028688
0.195537 0.256631 0.031912
0.259854 0.259854 0.035135
0.324172 0.263078 0.038359
0.388489 0.266301 0.041583
0.452806 0.269525 0.044806
0.517124 0.272749 0.048030
0.581441 0.275972 0.051253
0.645758 0.279196 0.054477
0.710076 0.282419 0.057701
0.774393 0.285643 0.060924
0.838710 0.288867 0.064148
0.900231 0.291950 0.067231
0.900231 0.291950 0.067231
0.029607 0.315419 0.029607
0.029607 0.315419 0.029607
0.073231 0.317606 0.031793
0.137548 0.320829 0.035017
0.201865 0.324053 0.038240
0.266183 0.327277 0.041464
0.330500 0.330500 0.044688
0.394817 0.333724 0.047911
0.459135 0.336947 0.051135
0.523452 0.340171 0.054358
0.587770 0.343394 0.057582
0.652087 0.346618 0.060806
0.716404 0.349842 0.064029
0.780722 0.353065 0.067253
0.845039 0.356289 0.070476
0.906560 0.359372 0.073560
0.906560 0.359372 0.073560
0.035935 0.382842 0.035935
0.035935 0.382842 0.035935
0.079559 0.385028 0.038122
0.143877 0.388252 0.041345
0.208194 0.391475 0.044569
0.272511 0.394699 0.047793
0.336829 0.397922 0.051016
0.401146 0.401146 0.054240
0.465463 0.404370 0.057463
0.529781 0.407593 0.060687
0.594098 0.410817 0.063911
0.658415 0.414040 0.067134
0.722733 0.417264 0.070358
0.787050 0.420488 0.073581
0.851367 0.423711 0.076805
0.912888 0.426795 0.079888
0.912888 0.426795 0.079888
0.042264 0.450264 0.042264
0.042264 0.450264 0.042264
0.085888 0.452450 0.044450
0.150205 0.455674 0.047674
0.214523 0.458898 0.050898
0.278840 0.462121 0.054121
0.343157 0.465345 0.057345
0.407475 0.468568 0.060568
0.471792 0.471792 0.063792
0.536109 0.475016 0.067016
0.600427 0.478239 0.070239
0.664744 0.481463 0.073463
0.729061 0.484686 0.076686
0.793379 0.487910 0.079910
0.857696 0.491134 0.083134
0.919217 0.494217 0.086217
0.919217 0.494217 0.086217
0.048593 0.517686 0.048593
0.048593 0.517686 0.048593
0.092217 0.519873 0.050779
0.156534 0.523096 0.054003
0.220851 0.526320 0.057226
0.285169 0.529544 0.060450
0.349486 0.532767 0.063673
0.413803 0.535991 0.066897
0.478121 0.539214 0.070121
0.542438 0.542438 0.073344
0.606755 0.545662 0.076568
0.671073 0.548885 0.079791
0.735390 0.552109 0.083015
0.799707 0.555332 0.086239
0.864025 0.558556 0.089462
0.925546 0.561639 0.092546
0.925546 0.561639 0.092546
0.054921 0.585109 0.054921
0.054921 0.585109 0.054921
0.098545 0.587295 0.057108
0.162862 0.590519 0.060331
0.227180 0.593742 0.063555
0.291497 0.596966 0.066778
0.355814 0.600190 0.070002
0.420132 0.603413 0.073226
0.484449 0.606637 0.076449
0.548767 0.609860 0.079673
0.613084 0.613084 0.082896
0.677401 0.616307 0.086120
0.741719 0.619531 0.089344
0.806036 0.622755 0.092567
0.870353 0.625978 0.095791
0.931874 0.629062 0.098874
0.931874 0.629062 0.098874
0.061250 0.652531 0.061250
0.061250 0.652531 0.061250
0.104874 0.654717 0.063436
0.169191 0.657941 0.066660
0.233508 0.661165 0.069883
0.297826 0.664388 0.073107
0.362143 0.667612 0.076331
0.426460 0.670835 0.079554
0.490778 0.674059 0.082778
0.555095 0.677283 0.086001
0.619412 0.680506 0.089225
0.683730 0.683730 0.092449
0.748047 0.686953 0.095672
0.812364 0.690177 0.098896
0.876682 0.693401 0.102119
0.938203 0.696484 0.105203
0.938203 0.696484 0.105203
0.067578 0.719953 0.067578
0.067578 0.719953 0.067578
0.111202 0.722140 0.069765
0.175520 0.725363 0.072988
0.239837 0.728587 0.076212
0.304154 0.731811 0.079436
0.368472 0.735034 0.082659
0.432789 0.738258 0.085883
0.497106 0.741481 0.089106
0.561424 0.744705 0.092330
0.625741 0.747929 0.095554
0.690058 0.751152 0.098777
0.754376 0.754376 0.102001
0.818693 0.757599 0.105224
0.883010 0.760823 0.108448
0.944531 0.763906 0.111531
0.944531 0.763906 0.111531
0.073907 0.787376 0.073907
0.073907 0.787376 0.073907
0.117531 0.789562 0.076093
0.181848 0.792786 0.079317
0.246166 0.796009 0.082541
0.310483 0.799233 0.085764
0.374800 0.802457 0.088988
0.439118 0.805680 0.092211
0.503435 0.808904 0.095435
0.567752 0.812127 0.098659
0.632070 0.815351 0.101882
0.696387 0.818574 0.105106
0.760704 0.821798 0.108329
0.825022 0.825022 0.111553
0.889339 0.828245 0.114777
0.950860 0.831329 0.117860
0.950860 0.831329 0.117860
0.080236 0.854798 0.080236
0.080236 0.854798 0.080236
0.123860 0.856984 0.082422
0.188177 0.860208 0.085646
0.252494 0.863432 0.088869
0.316812 0.866655 0.092093
0.381129 0.869879 0.095316
0.445446 0.873102 0.098540
0.509764 0.876326 0.101764
0.574081 0.879550 0.104987
0.638398 0.882773 0.108211
0.702716 0.885997 0.111434
0.767033 0.889220 0.114658
0.831350 0.892444 0.117882
0.895668 0.895668 0.121105
0.957189 0.898751 0.124189
0.957189 0.898751 0.124189
0.086289 0.919289 0.086289
0.086289 0.919289 0.086289
0.129913 0.921475 0.088475
0.194230 0.924699 0.091699
0.258548 0.927923 0.094923
0.322865 0.931146 0.098146
0.387182 0.934370 0.101370
0.451500 0.937593 0.104593
0.515817 0.940817 0.107817
0.580134 0.944041 0.111041
0.644452 0.947264 0.114264
0.708769 0.950488 0.117488
0.773086 0.953711 0.120711
0.837404 0.956935 0.123935
0.901721 0.960159 0.127159
0.963242 0.963242 0.130242
0.963242 0.963242 0.130242
0.086289 0.919289 0.086289
0.086289 0.919289 0.086289
0.129913 0.921475 0.088475
0.194230 0.924699 0.091699
0.258548 0.927923 0.094923
0.322865 0.931146 0.098146
0.387182 0.934370 0.101370
0.451500 0.937593 0.104593
0.515817 0.940817 0.107817
0.580134 0.944041 0.111041
0.644452 0.947264 0.114264
0.708769 0.950488 0.117488
0.773086 0.953711 0.120711
0.837404 0.956935 0.123935
0.901721 0.960159 0.127159
0.963242 0.963242 0.130242
0.963242 0.963242 0.130242
0.000834 0.000834 0.042271
0.000834 0.000834 0.042271
0.044458 0.003020 0.044458
0.108775 0.006244 0.047681
0.173092 0.009467 0.050905
0.237410 0.012691 0.054128
0.301727 0.015914 0.057352
0.366044 0.019138 0.060576
0.430362 0.022362 0.063799
0.494679 0.025585 0.067023
0.558996 0.028809 0.070246
0.623314 0.032032 0.073470
0.687631 0.035256 0.076694
0.751948 0.038480 0.079917
0.816266 0.041703 0.083141
0.877787 0.044787 0.086224
0.877787 0.044787 0.086224
0.000834 0.000834 0.042271
0.000834 0.000834 0.042271
0.044458 0.003020 0.044458
0.108775 0.006244 0.047681
0.173092 0.009467 0.050905
0.237410 0.012691 0.054128
0.301727 0.015914 0.057352
0.366044 0.019138 0.060576
0.430362 0.022362 0.063799
0.494679 0.025585 0.067023
0.558996 0.028809 0.070246
0.623314 0.032032 0.073470
0.687631 0.035256 0.076694
0.751948 0.038480 0.079917
0.816266 0.041703 0.083141
0.877787 0.044787 0.086224
0.877787 0.044787 0.086224
0.005126 0.046564 0.046564
0.005126 0.046564 0.046564
0.048750 0.048750 0.048750
0.113067 0.051974 0.051974
0.177385 0.055197 0.055197
0.241702 0.058421 0.058421
0.306019 0.061644 0.061644
0.370337 0.064868 0.064868
0.434654 0.068092 0.068092
0.498971 0.071315 0.071315
0.563289 0.074539 0.074539
0.627606 0.077762 0.077762
0.691923 0.080986 0.080986
0.756241 0.084210 0.084210
0.820558 0.087433 0.087433
0.882079 0.090517 0.090517
0.882079 0.090517 0.090517
0.011455 0.113986 0.052892
0.011455 0.113986 0.052892
0.055079 0.116172 0.055079
0.119396 0.119396 0.058302
0.183713 0.122620 0.061526
0.248031 0.125843 0.064749
0.312348 0.129067 0.067973
0.376665 0.132290 0.071197
0.440983 0.135514 0.074420
0.505300 0.138738 0.077644
0.569617 0.141961 0.080867
0.633935 0.145185 0.084091
0.698252 0.148408 0.087315
0.762569 0.151632 0.090538
0.826887 0.154855 0.093762
0.888408 0.157939 0.096845
0.888408 0.157939 0.096845
0.017783 0.181408 0.059221
0.017783 0.181408 0.059221
0.061407 0.183595 0.061407
0.125725 0.186818 0.064631
0.190042 0.190042 0.067854
0.254359 0.193265 0.071078
0.318677 0.196489 0.074302
0.382994 0.199713 0.077525
0.447311 0.202936 0.080749
0.511629 0.206160 0.083972
0.575946 0.209383 0.087196
0.640263 0.212607 0.090420
0.704581 0.215831 0.093643
0.768898 0.219054 0.096867
0.833215 0.222278 0.100090
0.894736 0.225361 0.103174
0.894736 0.225361 0.103174
0.024112 0.248831 0.065549
0.024112 0.248831 0.065549
0.067736 0.251017 0.067736
0.132053 0.254241 0.070959
0.196370 0.257464 0.074183
0.260688 0.260688 0.077407
0.325005 0.263911 0.080630
0.389322 0.267135 0.083854
0.453640 0.270359 0.087077
0.517957 0.273582 0.090301
0.582275 0.276806 0.093525
0.646592 0.280029 0.096748
0.710909 0.283253 0.099972
0.775227 0.286477 0.103195
0.839544 0.289700 0.106419
0.901065 0.292784 0.109502
0.901065 0.292784 0.109502
0.030440 0.316253 0.071878
0.030440 0.316253 0.071878
0.074064 0.318439 0.074064
0.138382 0.321663 0.077288
0.202699 0.324887 0.080512
0.267016 0.328110 0.083735
0.331334 0.331334 0.086959
0.395651 0.334557 0.090182
0.459968 0.337781 0.093406
0.524286 0.341005 0.096630
0.588603 0.344228 0.099853
0.652920 0.347452 0.103077
0.717238 0.350675 0.106300
0.781555 0.353899 0.109524
0.845872 0.357123 0.112748
0.907393 0.360206 0.115831
0.907393 0.360206 0.115831
0.036769 0.383675 0.078207
0.036769 0.383675 0.078207
0.080393 0.385862 0.080393
0.144710 0.389085 0.083617
0.209028 0.392309 0.086840
0.273345 0.395532 0.090064
0.337662 0.398756 0.093287
0.401980 0.401980 0.096511
0.466297 0.405203 0.099735
0.530614 0.408427 0.102958
0.594932 0.411650 0.106182
0.659249 0.414874 0.109405
0.723566 0.418098 0.112629
0.787884 0.421321 0.115853
0.852201 0.424545 0.119076
0.913722 0.427628 0.122160
0.913722 0.427628 0.122160
0.043098 0.451098 0.084535
0.043098 0.451098 0.084535
0.086722 0.453284 0.086722
0.151039 0.456508 0.089945
0.215356 0.459731 0.093169
0.279674 0.462955 0.096392
0.343991 0.466178 0.099616
0.408308 0.469402 0.102840
0.472626 0.472626 0.106063
0.536943 0.475849 0.109287
0.601260 0.479073 0.112510
0.665578 0.482296 0.115734
0.729895 0.485520 0.118957
0.794212 0.488744 0.122181
0.858530 0.491967 0.125405
0.920051 0.495051 0.128488
0.920051 0.495051 0.128488
0.049426 0.518520 0.090864
0.049426 0.518520 0.090864
0.093050 0.520706 0.093050
0.157367 0.523930 0.096274
0.221685 0.527154 0.099497
0.286002 0.530377 0.102721
0.350320 0.533601 0.105945
0.414637 0.536824 0.109168
0.478954 0.540048 0.112392
0.543272 0.543272 0.115615
0.607589 0.546495 0.118839
0.671906 0.549719 0.122063
0.736224 0.552942 0.125286
0.800541 0.556166 0.128510
0.864858 0.559390 0.131733
0.926379 0.562473 0.134817
0.926379 0.562473 0.134817
0.055755 0.585942 0.097192
0.055755 0.585942 0.097192
0.099379 0.588129 0.099379
0.163696 0.591352 0.102602
0.228013 0.594576 0.105826
0.292331 0.597800 0.109050
0.356648 0.601023 0.112273
0.420965 0.604247 0.115497
0.485283 0.607470 0.118720
0.549600 0.610694 0.121944
0.613918 0.613918 0.125168
0.678235 0.617141 0.128391
0.742552 0.620365 0.131615
0.806870 0.623588 0.134838
0.871187 0.626812 0.138062
0.932708 0.629895 0.141145
0.932708 0.629895 0.141145
0.062083 0.653365 0.103521
0.062083 0.653365 0.103521
0.105707 0.655551 0.105707
0.170025 0.658775 0.108931
0.234342 0.661998 0.112155
0.298659 0.665222 0.115378
0.362977 0.668445 0.118602
0.427294 0.671669 0.121825
0.491611 0.674893 0.125049
0.555929 0.678116 0.128273
0.620246 0.681340 0.131496
0.684563 0.684563 0.134720
0.748881 0.687787 0.137943
0.813198 0.691011 0.141167
0.877515 0.694234 0.144390
0.939036 0.697318 0.147474
0.939036 0.697318 0.147474
0.068412 0.720787 0.109849
0.068412 0.720787 0.109849
0.112036 0.722973 0.112036
0.176353 0.726197 0.115260
0.240671 0.729421 0.118483
0.304988 0.732644 0.121707
0.369305 0.735868 0.124930
0.433623 0.739091 0.128154
0.497940 0.742315 0.131378
0.562257 0.745539 0.134601
0.626575 0.748762 0.137825
0.690892 0.751986 0.141048
0.755209 0.755209 0.144272
0.819527 0.758433 0.147495
0.883844 0.761657 0.150719
0.945365 0.764740 0.153803
0.945365 0.764740 0.153803
0.074741 0.788209 0.116178
0.074741 0.788209 0.116178
0.118365 0.790396 0.118365
0.182682 0.793619 0.121588
0.246999 0.796843 0.124812
0.311317 0.800067 0.128035
0.375634 0.803290 0.131259
0.439951 0.806514 0.134483
0.504269 0.809737 0.137706
0.568586 0.812961 0.140930
0.632903 0.816185 0.144153
0.697221 0.819408 0.147377
0.761538 0.822632 0.150600
0.825855 0.825855 0.153824
0.890173 0.829079 0.157048
0.951694 0.832162 0.160131
0.951694 0.832162 0.160131
0.081069 0.855632 0.122507
0.081069 0.855632 0.122507
0.124693 0.857818 0.124693
0.189010 0.861042 0.127917
0.253328 0.864265 0.131140
0.317645 0.867489 0.134364
0.381962 0.870712 0.137588
0.446280 0.873936 0.140811
0.510597 0.877160 0.144035
0.574915 0.880383 0.147258
0.639232 0.883607 0.150482
0.703549 0.886830 0.153705
0.767867 0.890054 0.156929
0.832184 0.893278 0.160153
0.896501 0.896501 0.163376
0.958022 0.899585 0.166460
0.958022 0.899585 0.166460
0.087123 0.920123 0.128560
0.087123 0.920123 0.128560
0.130747 0.922309 0.130747
0.195064 0.925533 0.133970
0.259381 0.928756 0.137194
0.323699 0.931980 0.140417
0.388016 0.935203 0.143641
0.452333 0.938427 0.146865
0.516651 0.941651 0.150088
0.580968 0.944874 0.153312
0.645285 0.948098 0.156535
0.709603 0.951321 0.159759
0.773920 0.954545 0.162983
0.838237 0.957769 0.166206
0.902555 0.960992 0.169430
0.964076 0.964076 0.172513
0.964076 0.964076 0.172513
0.087123 0.920123 0.128560
0.087123 0.920123 0.128560
0.130747 0.922309 0.130747
0.195064 0.925533 0.133970
0.259381 0.928756 0.137194
0.323699 0.931980 0.140417
0.388016 0.935203 0.143641
0.452333 0.938427 0.146865
0.516651 0.941651 0.150088
0.580968 0.944874 0.153312
0.645285 0.948098 0.156535
0.709603 0.951321 0.159759
0.773920 0.954545 0.162983
0.838237 0.957769 0.166206
0.902555 0.960992 0.169430
0.964076 0.964076 0.172513
0.964076 0.964076 0.172513
0.002063 0.002063 0.104594
0.002063 0.002063 0.104594
0.045687 0.004249 0.106780
0.110004 0.007473 0.110004
0.174321 0.010696 0.113228
0.238639 0.013920 0.116451
0.302956 0.017144 0.119675
0.367273 0.020367 0.122898
0.431591 0.023591 0.126122
0.495908 0.026814 0.129346
0.560225 0.030038 0.132569
0.624543 0.033261 0.135793
0.688860 0.036485 0.139016
0.753177 0.039709 0.142240
0.817495 0.042932 0.145463
0.879016 0.046016 0.148547
0.879016 0.046016 0.148547
0.002063 0.002063 0.104594
0.002063 0.002063 0.104594
0.045687 0.004249 0.106780
