server/luts/cinematic.cube
TITLE "Cinematic"
LUT_3D_SIZE 9
0.000000 0.000000 0.000000
0.043624 0.002186 0.002186
0.172259 0.008634 0.008634
0.300893 0.015081 0.015081
0.429528 0.021528 0.021528
0.558163 0.027975 0.027975
0.686797 0.034422 0.034422
0.815432 0.040870 0.040870
0.876953 0.043953 0.043953
0.004292 0.045730 0.004292
0.047916 0.047916 0.006479
0.176551 0.054364 0.012926
0.305186 0.060811 0.019373
0.433820 0.067258 0.025820
0.562455 0.073705 0.032268
0.691090 0.080152 0.038715
0.819724 0.086600 0.045162
0.881245 0.089683 0.048245
0.016950 0.180575 0.016950
0.060574 0.182761 0.019136
0.189208 0.189208 0.025583
0.317843 0.195655 0.032030
0.446478 0.202103 0.038478
0.575112 0.208550 0.044925
0.703747 0.214997 0.051372
0.832382 0.221444 0.057819
0.893903 0.224528 0.060903
0.029607 0.315419 0.029607
0.073231 0.317606 0.031793
0.201865 0.324053 0.038240
0.330500 0.330500 0.044688
0.459135 0.336947 0.051135
0.587770 0.343394 0.057582
0.716404 0.349842 0.064029
0.845039 0.356289 0.070476
0.906560 0.359372 0.073560
0.042264 0.450264 0.042264
0.085888 0.452450 0.044450
0.214523 0.458898 0.050898
0.343157 0.465345 0.057345
0.471792 0.471792 0.063792
0.600427 0.478239 0.070239
0.729061 0.484686 0.076686
0.857696 0.491134 0.083134
0.919217 0.494217 0.086217
0.054921 0.585109 0.054921
0.098545 0.587295 0.057108
0.227180 0.593742 0.063555
0.355814 0.600190 0.070002
0.484449 0.606637 0.076449
0.613084 0.613084 0.082896
0.741719 0.619531 0.089344
0.870353 0.625978 0.095791
0.931874 0.629062 0.098874
0.067578 0.719953 0.067578
0.111202 0.722140 0.069765
0.239837 0.728587 0.076212
0.368472 0.735034 0.082659
0.497106 0.741481 0.089106
0.625741 0.747929 0.095554
0.754376 0.754376 0.102001
0.883010 0.760823 0.108448
0.944531 0.763906 0.111531
0.080236 0.854798 0.080236
0.123860 0.856984 0.082422
0.252494 0.863432 0.088869
0.381129 0.869879 0.095316
0.509764 0.876326 0.101764
0.638398 0.882773 0.108211
0.767033 0.889220 0.114658
0.895668 0.895668 0.121105
0.957189 0.898751 0.124189
0.086289 0.919289 0.086289
0.129913 0.921475 0.088475
0.258548 0.927923 0.094923
0.387182 0.934370 0.101370
0.515817 0.940817 0.107817
0.644452 0.947264 0.114264
0.773086 0.953711 0.120711
0.901721 0.960159 0.127159
0.963242 0.963242 0.130242
0.000834 0.000834 0.042271
0.044458 0.003020 0.044458
0.173092 0.009467 0.050905
0.301727 0.015914 0.057352
0.430362 0.022362 0.063799
0.558996 0.028809 0.070246
0.687631 0.035256 0.076694
0.816266 0.041703 0.083141
0.877787 0.044787 0.086224
0.005126 0.046564 0.046564
0.048750 0.048750 0.048750
0.177385 0.055197 0.055197
0.306019 0.061644 0.061644
0.434654 0.068092 0.068092
0.563289 0.074539 0.074539
0.691923 0.080986 0.080986
0.820558 0.087433 0.087433
0.882079 0.090517 0.090517
0.017783 0.181408 0.059221
0.061407 0.183595 0.061407
0.190042 0.190042 0.067854
0.318677 0.196489 0.074302
0.447311 0.202936 0.080749
0.575946 0.209383 0.087196
0.704581 0.215831 0.093643
0.833215 0.222278 0.100090
0.894736 0.225361 0.103174
0.030440 0.316253 0.071878
0.074064 0.318439 0.074064
0.202699 0.324887 0.080512
0.331334 0.331334 0.086959
0.459968 0.337781 0.093406
0.588603 0.344228 0.099853
0.717238 0.350675 0.106300
0.845872 0.357123 0.112748
0.907393 0.360206 0.115831
0.043098 0.451098 0.084535
0.086722 0.453284 0.086722
0.215356 0.459731 0.093169
0.343991 0.466178 0.099616
0.472626 0.472626 0.106063
0.601260 0.479073 0.112510
0.729895 0.485520 0.118957
0.858530 0.491967 0.125405
0.920051 0.495051 0.128488
0.055755 0.585942 0.097192
0.099379 0.588129 0.099379
0.228013 0.594576 0.105826
0.356648 0.601023 0.112273
0.485283 0.607470 0.118720
0.613918 0.613918 0.125168
0.742552 0.620365 0.131615
0.871187 0.626812 0.138062
0.932708 0.629895 0.141145
0.068412 0.720787 0.109849
0.112036 0.722973 0.112036
0.240671 0.729421 0.118483
0.369305 0.735868 0.124930
0.497940 0.742315 0.131378
0.626575 0.748762 0.137825
0.755209 0.755209 0.144272
0.883844 0.761657 0.150719
0.945365 0.764740 0.153803
0.081069 0.855632 0.122507
0.124693 0.857818 0.124693
0.253328 0.864265 0.131140
0.381962 0.870712 0.137588
0.510597 0.877160 0.144035
0.639232 0.883607 0.150482
0.767867 0.890054 0.156929
0.896501 0.896501 0.163376
0.958022 0.899585 0.166460
0.087123 0.920123 0.128560
0.130747 0.922309 0.130747
0.259381 0.928756 0.137194
0.388016 0.935203 0.143641
0.516651 0.941651 0.150088
0.645285 0.948098 0.156535
0.773920 0.954545 0.162983
0.902555 0.960992 0.169430
0.964076 0.964076 0.172513
0.003292 0.003292 0.166917
0.046916 0.005478 0.169103
0.175550 0.011925 0.175550
0.304185 0.018373 0.181998
0.432820 0.024820 0.188445
0.561454 0.031267 0.194892
0.690089 0.037714 0.201339
0.818724 0.044161 0.207786
0.880245 0.047245 0.210870
0.007584 0.049022 0.171209
0.051208 0.051208 0.173396
0.179843 0.057655 0.179843
0.308477 0.064103 0.186290
0.437112 0.070550 0.192737
0.565747 0.076997 0.199184
0.694382 0.083444 0.205632
0.823016 0.089891 0.212079
0.884537 0.092975 0.215162
0.020241 0.183866 0.183866
0.063865 0.186053 0.186053
0.192500 0.192500 0.192500
0.321135 0.198947 0.198947
0.449769 0.205394 0.205394
0.578404 0.211842 0.211842
0.707039 0.218289 0.218289
0.835673 0.224736 0.224736
0.897194 0.227819 0.227819
0.032899 0.318711 0.196524
0.076523 0.320898 0.198710
0.205157 0.327345 0.205157
0.333792 0.333792 0.211604
0.462427 0.340239 0.218052
0.591061 0.346686 0.224499
0.719696 0.353133 0.230946
0.848331 0.359581 0.237393
0.909852 0.362664 0.240477
0.045556 0.453556 0.209181
0.089180 0.455742 0.211367
0.217814 0.462189 0.217814
0.346449 0.468637 0.224262
0.475084 0.475084 0.230709
0.603718 0.481531 0.237156
0.732353 0.487978 0.243603
0.860988 0.494425 0.250050
0.922509 0.497509 0.253134
0.058213 0.588400 0.221838
0.101837 0.590587 0.224024
0.230472 0.597034 0.230472
0.359106 0.603481 0.236919
0.487741 0.609928 0.243366
0.616376 0.616376 0.249813
0.745010 0.622823 0.256260
0.873645 0.629270 0.262707
0.935166 0.632353 0.265791
0.070870 0.723245 0.234495
0.114494 0.725432 0.236682
0.243129 0.731879 0.243129
0.371763 0.738326 0.249576
0.500398 0.744773 0.256023
0.629033 0.751220 0.262470
0.757667 0.757667 0.268918
0.886302 0.764115 0.275365
0.947823 0.767198 0.278448
0.083527 0.858090 0.247152
0.127151 0.860276 0.249339
0.255786 0.866723 0.255786
0.384421 0.873171 0.262233
0.513055 0.879618 0.268680
0.641690 0.886065 0.275127
0.770325 0.892512 0.281575
0.898959 0.898959 0.288022
0.960480 0.902043 0.291105
0.089581 0.922581 0.253206
0.133205 0.924767 0.255392
0.261839 0.931214 0.261839
0.390474 0.937662 0.268287
0.519109 0.944109 0.274734
0.647743 0.950556 0.281181
0.776378 0.957003 0.287628
0.905013 0.963450 0.294075
0.966534 0.966534 0.297159
0.005750 0.005750 0.291562
0.049374 0.007936 0.293749
0.178009 0.014384 0.300196
0.306643 0.020831 0.306643
0.435278 0.027278 0.313090
0.563913 0.033725 0.319538
0.692547 0.040172 0.325985
0.821182 0.046619 0.332432
0.882703 0.049703 0.335515
0.010042 0.051480 0.295855
0.053666 0.053666 0.298041
0.182301 0.060113 0.304488
0.310936 0.066561 0.310936
0.439570 0.073008 0.317383
0.568205 0.079455 0.323830
0.696840 0.085902 0.330277
0.825474 0.092349 0.336724
0.886995 0.095433 0.339808
0.022700 0.186325 0.308512
0.066323 0.188511 0.310698
0.194958 0.194958 0.317146
0.323593 0.201405 0.323593
0.452228 0.207853 0.330040
0.580862 0.214300 0.336487
0.709497 0.220747 0.342934
0.838132 0.227194 0.349382
0.899652 0.230278 0.352465
0.035357 0.321169 0.321169
0.078981 0.323356 0.323356
0.207615 0.329803 0.329803
0.336250 0.336250 0.336250
0.464885 0.342697 0.342697
0.593519 0.349144 0.349144
0.722154 0.355592 0.355592
0.850789 0.362039 0.362039
0.912310 0.365122 0.365122
0.048014 0.456014 0.333826
0.091638 0.458200 0.336013
0.220273 0.464647 0.342460
0.348907 0.471095 0.348907
0.477542 0.477542 0.355354
0.606177 0.483989 0.361802
0.734811 0.490436 0.368249
0.863446 0.496883 0.374696
0.924967 0.499967 0.377779
0.060671 0.590859 0.346484
0.104295 0.593045 0.348670
0.232930 0.599492 0.355117
0.361564 0.605939 0.361564
0.490199 0.612387 0.368012
0.618834 0.618834 0.374459
0.747468 0.625281 0.380906
0.876103 0.631728 0.387353
0.937624 0.634812 0.390437
0.073328 0.725703 0.359141
0.116952 0.727890 0.361327
0.245587 0.734337 0.367774
0.374222 0.740784 0.374222
0.502856 0.747231 0.380669
0.631491 0.753678 0.387116
0.760126 0.760126 0.393563
0.888760 0.766573 0.400010
0.950281 0.769656 0.403094
0.085985 0.860548 0.371798
0.129609 0.862734 0.373984
0.258244 0.869182 0.380432
0.386879 0.875629 0.386879
0.515513 0.882076 0.393326
0.644148 0.888523 0.399773
0.772783 0.894970 0.406220
0.901417 0.901417 0.412668
0.962938 0.904501 0.415751
0.092039 0.925039 0.377851
0.135663 0.927225 0.380038
0.264298 0.933672 0.386485
0.392932 0.940120 0.392932
0.521567 0.946567 0.399379
0.650202 0.953014 0.405827
0.778836 0.959461 0.412274
0.907471 0.965908 0.418721
0.968992 0.968992 0.421804
0.008208 0.008208 0.416208
0.051832 0.010394 0.418394
0.180467 0.016842 0.424842
0.309101 0.023289 0.431289
0.437736 0.029736 0.437736
0.566371 0.036183 0.444183
0.695005 0.042630 0.450630
0.823640 0.049078 0.457078
0.885161 0.052161 0.460161
0.012500 0.053938 0.420500
0.056124 0.056124 0.422687
0.184759 0.062572 0.429134
0.313394 0.069019 0.435581
0.442028 0.075466 0.442028
0.570663 0.081913 0.448476
0.699298 0.088360 0.454923
0.827932 0.094807 0.461370
0.889453 0.097891 0.464453
0.025158 0.188783 0.433158
0.068782 0.190969 0.435344
0.197416 0.197416 0.441791
0.326051 0.203863 0.448238
0.454686 0.210311 0.454686
0.583320 0.216758 0.461133
0.711955 0.223205 0.467580
0.840590 0.229652 0.474027
0.902111 0.232736 0.477111
0.037815 0.323627 0.445815
0.081439 0.325814 0.448001
0.210073 0.332261 0.454448
0.338708 0.338708 0.460896
0.467343 0.345155 0.467343
0.595978 0.351602 0.473790
0.724612 0.358050 0.480237
0.853247 0.364497 0.486684
0.914768 0.367580 0.489768
0.050472 0.458472 0.458472
0.094096 0.460658 0.460658
0.222731 0.467106 0.467106
0.351365 0.473553 0.473553
0.480000 0.480000 0.480000
0.608635 0.486447 0.486447
0.737269 0.492894 0.492894
0.865904 0.499342 0.499342
0.927425 0.502425 0.502425
0.063129 0.593317 0.471129
0.106753 0.595503 0.473316
0.235388 0.601950 0.479763
0.364023 0.608398 0.486210
0.492657 0.614845 0.492657
0.621292 0.621292 0.499104
0.749927 0.627739 0.505552
0.878561 0.634186 0.511999
0.940082 0.637270 0.515082
0.075786 0.728161 0.483786
0.119410 0.730348 0.485973
0.248045 0.736795 0.492420
0.376680 0.743242 0.498867
0.505314 0.749689 0.505314
0.633949 0.756137 0.511762
0.762584 0.762584 0.518209
0.891218 0.769031 0.524656
0.952739 0.772114 0.527739
0.088444 0.863006 0.496444
0.132068 0.865192 0.498630
0.260702 0.871640 0.505077
0.389337 0.878087 0.511524
0.517972 0.884534 0.517972
0.646606 0.890981 0.524419
0.775241 0.897428 0.530866
0.903876 0.903876 0.537313
0.965397 0.906959 0.540397
0.094497 0.927497 0.502497
0.138121 0.929683 0.504683
0.266756 0.936131 0.511131
0.395390 0.942578 0.517578
0.524025 0.949025 0.524025
0.652660 0.955472 0.530472
0.781294 0.961919 0.536919
0.909929 0.968367 0.543367
0.971450 0.971450 0.546450
0.010666 0.010666 0.540854
0.054290 0.012853 0.543040
0.182925 0.019300 0.549487
0.311559 0.025747 0.555934
0.440194 0.032194 0.562382
0.568829 0.038641 0.568829
0.697464 0.045088 0.575276
0.826098 0.051536 0.581723
0.887619 0.054619 0.584807
0.014959 0.056396 0.545146
0.058583 0.058583 0.547332
0.187217 0.065030 0.553780
0.315852 0.071477 0.560227
0.444487 0.077924 0.566674
0.573121 0.084371 0.573121
0.701756 0.090818 0.579568
0.830391 0.097266 0.586016
0.891912 0.100349 0.589099
0.027616 0.191241 0.557803
0.071240 0.193427 0.559990
0.199874 0.199874 0.566437
0.328509 0.206322 0.572884
0.457144 0.212769 0.579331
0.585778 0.219216 0.585778
0.714413 0.225663 0.592226
0.843048 0.232110 0.598673
0.904569 0.235194 0.601756
0.040273 0.326085 0.570460
0.083897 0.328272 0.572647
0.212532 0.334719 0.579094
0.341166 0.341166 0.585541
0.469801 0.347613 0.591988
0.598436 0.354061 0.598436
0.727070 0.360508 0.604883
0.855705 0.366955 0.611330
0.917226 0.370038 0.614413
0.052930 0.460930 0.583118
0.096554 0.463117 0.585304
0.225189 0.469564 0.591751
0.353823 0.476011 0.598198
0.482458 0.482458 0.604646
0.611093 0.488905 0.611093
0.739727 0.495352 0.617540
0.868362 0.501800 0.623987
0.929883 0.504883 0.627071
0.065587 0.595775 0.595775
0.109211 0.597961 0.597961
0.237846 0.604408 0.604408
0.366481 0.610856 0.610856
0.495115 0.617303 0.617303
0.623750 0.623750 0.623750
0.752385 0.630197 0.630197
0.881019 0.636644 0.636644
0.942540 0.639728 0.639728
0.078244 0.730619 0.608432
0.121868 0.732806 0.610618
0.250503 0.739253 0.617066
0.379138 0.745700 0.623513
0.507772 0.752147 0.629960
0.636407 0.758595 0.636407
0.765042 0.765042 0.642854
0.893677 0.771489 0.649302
0.955197 0.774572 0.652385
0.090902 0.865464 0.621089
0.134526 0.867651 0.623276
0.263160 0.874098 0.629723
0.391795 0.880545 0.636170
0.520430 0.886992 0.642617
0.649064 0.893439 0.649064
0.777699 0.899887 0.655512
0.906334 0.906334 0.661959
0.967855 0.909417 0.665042
0.096955 0.929955 0.627143
0.140579 0.932142 0.629329
0.269214 0.938589 0.635776
0.397848 0.945036 0.642223
0.526483 0.951483 0.648671
0.655118 0.957930 0.655118
0.783752 0.964377 0.661565
0.912387 0.970825 0.668012
0.973908 0.973908 0.671096
0.013124 0.013124 0.665499
0.056748 0.015311 0.667686
0.185383 0.021758 0.674133
0.314018 0.028205 0.680580
0.442652 0.034652 0.687027
0.571287 0.041099 0.693474
0.699922 0.047547 0.699922
0.828556 0.053994 0.706369
0.890077 0.057077 0.709452
0.017417 0.058854 0.669792
0.061041 0.061041 0.671978
0.189675 0.067488 0.678425
0.318310 0.073935 0.684872
0.446945 0.080382 0.691320
0.575579 0.086829 0.697767
0.704214 0.093277 0.704214
0.832849 0.099724 0.710661
0.894370 0.102807 0.713745
0.030074 0.193699 0.682449
0.073698 0.195885 0.684635
0.202333 0.202333 0.691082
0.330967 0.208780 0.697530
0.459602 0.215227 0.703977
0.588237 0.221674 0.710424
0.716871 0.228121 0.716871
0.845506 0.234568 0.723318
0.907027 0.237652 0.726402
0.042731 0.328544 0.695106
0.086355 0.330730 0.697292
0.214990 0.337177 0.703740
0.343624 0.343624 0.710187
0.472259 0.350072 0.716634
0.600894 0.356519 0.723081
0.729528 0.362966 0.729528
0.858163 0.369413 0.735976
0.919684 0.372497 0.739059
0.055388 0.463388 0.707763
0.099012 0.465575 0.709950
0.227647 0.472022 0.716397
0.356282 0.478469 0.722844
0.484916 0.484916 0.729291
0.613551 0.491363 0.735738
0.742186 0.497811 0.742186
0.870820 0.504258 0.748633
0.932341 0.507341 0.751716
0.068045 0.598233 0.720420
0.111669 0.600419 0.722607
0.240304 0.606867 0.729054
0.368939 0.613314 0.735501
0.497573 0.619761 0.741948
0.626208 0.626208 0.748396
0.754843 0.632655 0.754843
0.883477 0.639103 0.761290
0.944998 0.642186 0.764373
0.080703 0.733078 0.733078
0.124327 0.735264 0.735264
0.252961 0.741711 0.741711
0.381596 0.748158 0.748158
0.510231 0.754606 0.754606
0.638865 0.761053 0.761053
0.767500 0.767500 0.767500
0.896135 0.773947 0.773947
0.957656 0.777031 0.777031
0.093360 0.867922 0.745735
0.136984 0.870109 0.747921
0.265618 0.876556 0.754368
0.394253 0.883003 0.760816
0.522888 0.889450 0.767263
0.651523 0.895897 0.773710
0.780157 0.902345 0.780157
0.908792 0.908792 0.786604
0.970313 0.911875 0.789688
0.099413 0.932413 0.751788
0.143037 0.934600 0.753975
0.271672 0.941047 0.760422
0.400307 0.947494 0.766869
0.528941 0.953941 0.773316
0.657576 0.960388 0.779763
0.786211 0.966836 0.786211
0.914845 0.973283 0.792658
0.976366 0.976366 0.795741
0.015582 0.015582 0.790145
0.059206 0.017769 0.792331
0.187841 0.024216 0.798778
0.316476 0.030663 0.805226
0.445110 0.037110 0.811673
0.573745 0.043558 0.818120
0.702380 0.050005 0.824567
0.831014 0.056452 0.831014
0.892535 0.059535 0.834098
0.019875 0.061312 0.794437
0.063499 0.063499 0.796624
0.192133 0.069946 0.803071
0.320768 0.076393 0.809518
0.449403 0.082840 0.815965
0.578037 0.089288 0.822412
0.706672 0.095735 0.828860
0.835307 0.102182 0.835307
0.896828 0.105265 0.838390
0.032532 0.196157 0.807095
0.076156 0.198343 0.809281
0.204791 0.204791 0.815728
0.333425 0.211238 0.822175
0.462060 0.217685 0.828622
0.590695 0.224132 0.835070
0.719329 0.230579 0.841517
0.847964 0.237027 0.847964
0.909485 0.240110 0.851047
0.045189 0.331002 0.819752
0.088813 0.333188 0.821938
0.217448 0.339635 0.828385
0.346083 0.346083 0.834832
0.474717 0.352530 0.841280
0.603352 0.358977 0.847727
0.731987 0.365424 0.854174
0.860621 0.371871 0.860621
0.922142 0.374955 0.863705
0.057846 0.465846 0.832409
0.101470 0.468033 0.834595
0.230105 0.474480 0.841042
0.358740 0.480927 0.847490
0.487374 0.487374 0.853937
0.616009 0.493822 0.860384
0.744644 0.500269 0.866831
0.873278 0.506716 0.873278
0.934799 0.509799 0.876362
0.070504 0.600691 0.845066
0.114127 0.602877 0.847252
0.242762 0.609325 0.853700
0.371397 0.615772 0.860147
0.500032 0.622219 0.866594
0.628666 0.628666 0.873041
0.757301 0.635113 0.879488
0.885936 0.641561 0.885936
0.947457 0.644644 0.889019
0.083161 0.735536 0.857723
0.126785 0.737722 0.859910
0.255419 0.744169 0.866357
0.384054 0.750617 0.872804
0.512689 0.757064 0.879251
0.641323 0.763511 0.885698
0.769958 0.769958 0.892146
0.898593 0.776405 0.898593
0.960114 0.779489 0.901676
0.095818 0.870380 0.870380
0.139442 0.872567 0.872567
0.268077 0.879014 0.879014
0.396711 0.885461 0.885461
0.525346 0.891908 0.891908
0.653981 0.898356 0.898356
0.782615 0.904803 0.904803
0.911250 0.911250 0.911250
0.972771 0.914333 0.914333
0.101871 0.934871 0.876434
0.145495 0.937058 0.878620
0.274130 0.943505 0.885067
0.402765 0.949952 0.891515
0.531399 0.956399 0.897962
0.660034 0.962847 0.904409
0.788669 0.969294 0.910856
0.917303 0.975741 0.917303
0.978824 0.978824 0.920387
0.016758 0.016758 0.849758
0.060382 0.018944 0.851944
0.189017 0.025392 0.858392
0.317651 0.031839 0.864839
0.446286 0.038286 0.871286
0.574921 0.044733 0.877733
0.703555 0.051180 0.884180
0.832190 0.057628 0.890628
0.893711 0.060711 0.893711
0.021050 0.062488 0.854050
0.064674 0.064674 0.856237
0.193309 0.071122 0.862684
0.321944 0.077569 0.869131
0.450578 0.084016 0.875578
0.579213 0.090463 0.882026
0.707848 0.096910 0.888473
0.836482 0.103357 0.894920
0.898003 0.106441 0.898003
0.033708 0.197333 0.866708
0.077332 0.199519 0.868894
0.205966 0.205966 0.875341
0.334601 0.212413 0.881788
0.463236 0.218861 0.888236
0.591870 0.225308 0.894683
0.720505 0.231755 0.901130
0.849140 0.238202 0.907577
0.910661 0.241286 0.910661
0.046365 0.332177 0.879365
0.089989 0.334364 0.881551
0.218623 0.340811 0.887998
0.347258 0.347258 0.894446
0.475893 0.353705 0.900893
0.604527 0.360152 0.907340
0.733162 0.366600 0.913787
0.861797 0.373047 0.920234
0.923318 0.376130 0.923318
0.059022 0.467022 0.892022
0.102646 0.469208 0.894208
0.231281 0.475656 0.900656
0.359915 0.482103 0.907103
0.488550 0.488550 0.913550
0.617185 0.494997 0.919997
0.745819 0.501444 0.926444
0.874454 0.507892 0.932892
0.935975 0.510975 0.935975
0.071679 0.601867 0.904679
0.115303 0.604053 0.906866
0.243938 0.610500 0.913313
0.372572 0.616947 0.919760
0.501207 0.623395 0.926207
0.629842 0.629842 0.932654
0.758477 0.636289 0.939102
0.887111 0.642736 0.945549
0.948632 0.645820 0.948632
0.084336 0.736711 0.917336
0.127960 0.738898 0.919523
0.256595 0.745345 0.925970
0.385230 0.751792 0.932417
0.513864 0.758239 0.938864
0.642499 0.764687 0.945312
0.771134 0.771134 0.951759
0.899768 0.777581 0.958206
0.961289 0.780664 0.961289
0.096994 0.871556 0.929994
0.140618 0.873742 0.932180
0.269252 0.880190 0.938627
0.397887 0.886637 0.945074
0.526522 0.893084 0.951522
0.655156 0.899531 0.957969
0.783791 0.905978 0.964416
0.912426 0.912426 0.970863
0.973947 0.915509 0.973947
0.103047 0.936047 0.936047
0.146671 0.938233 0.938233
0.275306 0.944681 0.944681
0.403940 0.951128 0.951128
0.532575 0.957575 0.957575
0.661210 0.964022 0.964022
0.789844 0.970469 0.970469
0.918479 0.976917 0.976917
0.980000 0.980000 0.980000
