server/luts/corporate.cube
TITLE "Corporate"
LUT_3D_SIZE 9
0.000000 0.000000 0.000000
0.081366 0.002616 0.002616
0.209228 0.006727 0.006727
0.337089 0.010839 0.010839
0.464950 0.014950 0.014950
0.592811 0.019061 0.019061
0.720673 0.023172 0.023172
0.848534 0.027284 0.027284
0.929900 0.029900 0.029900
0.005136 0.083886 0.005136
0.086502 0.086502 0.007752
0.214364 0.090614 0.011864
0.342225 0.094725 0.015975
0.470086 0.098836 0.020086
0.597947 0.102947 0.024197
0.725809 0.107059 0.028309
0.853670 0.111170 0.032420
0.935036 0.113786 0.035036
0.013207 0.215707 0.013207
0.094574 0.218324 0.015824
0.222435 0.222435 0.019935
0.350296 0.226546 0.024046
0.478158 0.230657 0.028158
0.606019 0.234769 0.032269
0.733880 0.238880 0.036380
0.861741 0.242991 0.040491
0.943107 0.245607 0.043107
0.021279 0.347529 0.021279
0.102645 0.350145 0.023895
0.230506 0.354256 0.028006
0.358368 0.358368 0.032117
0.486229 0.362479 0.036229
0.614090 0.366590 0.040340
0.741951 0.370701 0.044451
0.869813 0.374812 0.048563
0.951179 0.377429 0.051179
0.029350 0.479350 0.029350
0.110716 0.481966 0.031966
0.238577 0.486077 0.036077
0.366439 0.490189 0.040189
0.494300 0.494300 0.044300
0.622161 0.498411 0.048411
0.750023 0.502522 0.052522
0.877884 0.506634 0.056634
0.959250 0.509250 0.059250
0.037421 0.611171 0.037421
0.118787 0.613787 0.040038
0.246649 0.617899 0.044149
0.374510 0.622010 0.048260
0.502371 0.626121 0.052371
0.630232 0.630232 0.056482
0.758094 0.634344 0.060594
0.885955 0.638455 0.064705
0.967321 0.641071 0.067321
0.045492 0.742992 0.045492
0.126859 0.745609 0.048109
0.254720 0.749720 0.052220
0.382581 0.753831 0.056331
0.510443 0.757942 0.060442
0.638304 0.762054 0.064554
0.766165 0.766165 0.068665
0.894026 0.770276 0.072776
0.975392 0.772892 0.075392
0.053564 0.874814 0.053564
0.134930 0.877430 0.056180
0.262791 0.881541 0.060291
0.390652 0.885653 0.064403
0.518514 0.889764 0.068514
0.646375 0.893875 0.072625
0.774236 0.897986 0.076736
0.902098 0.902098 0.080847
0.983464 0.904714 0.083464
0.058700 0.958700 0.058700
0.140066 0.961316 0.061316
0.267927 0.965427 0.065427
0.395789 0.969539 0.069539
0.523650 0.973650 0.073650
0.651511 0.977761 0.077761
0.779373 0.981873 0.081873
0.907234 0.985984 0.085984
0.988600 0.988600 0.088600
0.000998 0.000998 0.079747
0.082364 0.003614 0.082364
0.210225 0.007725 0.086475
0.338086 0.011836 0.090586
0.465948 0.015948 0.094697
0.593809 0.020059 0.098809
0.721670 0.024170 0.102920
0.849531 0.028281 0.107031
0.930898 0.030897 0.109647
0.006134 0.084884 0.084884
0.087500 0.087500 0.087500
0.215361 0.091611 0.091611
0.343222 0.095722 0.095722
0.471084 0.099834 0.099834
0.598945 0.103945 0.103945
0.726806 0.108056 0.108056
0.854668 0.112167 0.112167
0.936034 0.114784 0.114784
0.014205 0.216705 0.092955
0.095571 0.219321 0.095571
0.223432 0.223432 0.099682
0.351294 0.227544 0.103794
0.479155 0.231655 0.107905
0.607016 0.235766 0.112016
0.734878 0.239877 0.116127
0.862739 0.243989 0.120239
0.944105 0.246605 0.122855
0.022276 0.348526 0.101026
0.103642 0.351142 0.103642
0.231504 0.355254 0.107754
0.359365 0.359365 0.111865
0.487226 0.363476 0.115976
0.615088 0.367588 0.120087
0.742949 0.371699 0.124199
0.870810 0.375810 0.128310
0.952176 0.378426 0.130926
0.030347 0.480348 0.109097
0.111714 0.482964 0.111714
0.239575 0.487075 0.115825
0.367436 0.491186 0.119936
0.495298 0.495298 0.124047
0.623159 0.499409 0.128159
0.751020 0.503520 0.132270
0.878881 0.507631 0.136381
0.960248 0.510247 0.138997
0.038419 0.612169 0.117169
0.119785 0.614785 0.119785
0.247646 0.618896 0.123896
0.375507 0.623007 0.128007
0.503369 0.627119 0.132119
0.631230 0.631230 0.136230
0.759091 0.635341 0.140341
0.886953 0.639452 0.144452
0.968319 0.642069 0.147069
0.046490 0.743990 0.125240
0.127856 0.746606 0.127856
0.255717 0.750718 0.131967
0.383579 0.754829 0.136079
0.511440 0.758940 0.140190
0.639301 0.763051 0.144301
0.767162 0.767162 0.148412
0.895024 0.771274 0.152524
0.976390 0.773890 0.155140
0.054561 0.875811 0.133311
0.135927 0.878428 0.135927
0.263789 0.882539 0.140039
0.391650 0.886650 0.144150
0.519511 0.890761 0.148261
0.647372 0.894873 0.152372
0.775234 0.898984 0.156484
0.903095 0.903095 0.160595
0.984461 0.905711 0.163211
0.059697 0.959697 0.138448
0.141064 0.962314 0.141064
0.268925 0.966425 0.145175
0.396786 0.970536 0.149286
0.524647 0.974647 0.153397
0.652509 0.978759 0.157509
0.780370 0.982870 0.161620
0.908231 0.986981 0.165731
0.989598 0.989598 0.168347
0.002565 0.002565 0.205065
0.083931 0.005181 0.207681
0.211792 0.009292 0.211792
0.339654 0.013404 0.215904
0.467515 0.017515 0.220015
0.595376 0.021626 0.224126
0.723237 0.025737 0.228237
0.851099 0.029849 0.232349
0.932465 0.032465 0.234965
0.007701 0.086451 0.210201
0.089067 0.089067 0.212817
0.216929 0.093179 0.216929
0.344790 0.097290 0.221040
0.472651 0.101401 0.225151
0.600513 0.105512 0.229262
0.728374 0.109624 0.233374
0.856235 0.113735 0.237485
0.937601 0.116351 0.240101
0.015772 0.218272 0.218272
0.097139 0.220889 0.220889
0.225000 0.225000 0.225000
0.352861 0.229111 0.229111
0.480722 0.233222 0.233222
0.608584 0.237334 0.237334
0.736445 0.241445 0.241445
0.864306 0.245556 0.245556
0.945672 0.248172 0.248172
0.023844 0.350094 0.226344
0.105210 0.352710 0.228960
0.233071 0.356821 0.233071
0.360932 0.360932 0.237182
0.488794 0.365044 0.241294
0.616655 0.369155 0.245405
0.744516 0.373266 0.249516
0.872378 0.377377 0.253627
0.953744 0.379994 0.256244
0.031915 0.481915 0.234415
0.113281 0.484531 0.237031
0.241142 0.488642 0.241142
0.369004 0.492754 0.245254
0.496865 0.496865 0.249365
0.624726 0.500976 0.253476
0.752587 0.505088 0.257587
0.880449 0.509199 0.261699
0.961815 0.511815 0.264315
0.039986 0.613736 0.242486
0.121352 0.616352 0.245102
0.249214 0.620464 0.249214
0.377075 0.624575 0.253325
0.504936 0.628686 0.257436
0.632797 0.632797 0.261547
0.760659 0.636909 0.265659
0.888520 0.641020 0.269770
0.969886 0.643636 0.272386
0.048057 0.745558 0.250557
0.129424 0.748174 0.253174
0.257285 0.752285 0.257285
0.385146 0.756396 0.261396
0.513007 0.760508 0.265507
0.640869 0.764619 0.269619
0.768730 0.768730 0.273730
0.896591 0.772841 0.277841
0.977958 0.775458 0.280457
0.056129 0.877379 0.258629
0.137495 0.879995 0.261245
0.265356 0.884106 0.265356
0.393217 0.888218 0.269467
0.521079 0.892329 0.273579
0.648940 0.896440 0.277690
0.776801 0.900551 0.281801
0.904663 0.904663 0.285913
0.986029 0.907279 0.288529
0.061265 0.961265 0.263765
0.142631 0.963881 0.266381
0.270492 0.967993 0.270492
0.398354 0.972104 0.274604
0.526215 0.976215 0.278715
0.654076 0.980326 0.282826
0.781937 0.984437 0.286937
0.909799 0.988549 0.291049
0.991165 0.991165 0.293665
0.004132 0.004132 0.330383
0.085499 0.006749 0.332999
0.213360 0.010860 0.337110
0.341221 0.014971 0.341221
0.469082 0.019083 0.345332
0.596944 0.023194 0.349444
0.724805 0.027305 0.353555
0.852666 0.031416 0.357666
0.934033 0.034032 0.360283
0.009269 0.088019 0.335519
0.090635 0.090635 0.338135
0.218496 0.094746 0.342246
0.346357 0.098857 0.346357
0.474219 0.102969 0.350469
0.602080 0.107080 0.354580
0.729941 0.111191 0.358691
0.857803 0.115302 0.362802
0.939169 0.117919 0.365419
0.017340 0.219840 0.343590
0.098706 0.222456 0.346206
0.226567 0.226567 0.350318
0.354429 0.230679 0.354429
0.482290 0.234790 0.358540
0.610151 0.238901 0.362651
0.738012 0.243012 0.366762
0.865874 0.247124 0.370874
0.947240 0.249740 0.373490
0.025411 0.351661 0.351661
0.106777 0.354277 0.354277
0.234639 0.358389 0.358389
0.362500 0.362500 0.362500
0.490361 0.366611 0.366611
0.618222 0.370722 0.370722
0.746084 0.374834 0.374834
0.873945 0.378945 0.378945
0.955311 0.381561 0.381561
0.033482 0.483483 0.359733
0.114849 0.486099 0.362349
0.242710 0.490210 0.366460
0.370571 0.494321 0.370571
0.498433 0.498433 0.374682
0.626294 0.502544 0.378794
0.754155 0.506655 0.382905
0.882016 0.510766 0.387016
0.963383 0.513382 0.389632
0.041554 0.615304 0.367804
0.122920 0.617920 0.370420
0.250781 0.622031 0.374531
0.378642 0.626142 0.378642
0.506504 0.630254 0.382754
0.634365 0.634365 0.386865
0.762226 0.638476 0.390976
0.890088 0.642587 0.395087
0.971454 0.645204 0.397704
0.049625 0.747125 0.375875
0.130991 0.749741 0.378491
0.258852 0.753853 0.382602
0.386714 0.757964 0.386714
0.514575 0.762075 0.390825
0.642436 0.766186 0.394936
0.770298 0.770298 0.399047
0.898159 0.774409 0.403159
0.979525 0.777025 0.405775
0.057696 0.878946 0.383946
0.139062 0.881563 0.386562
0.266924 0.885674 0.390674
0.394785 0.889785 0.394785
0.522646 0.893896 0.398896
0.650507 0.898008 0.403007
0.778369 0.902119 0.407119
0.906230 0.906230 0.411230
0.987596 0.908846 0.413846
0.062832 0.962832 0.389082
0.144199 0.965449 0.391699
0.272060 0.969560 0.395810
0.399921 0.973671 0.399921
0.527783 0.977782 0.404032
0.655644 0.981894 0.408144
0.783505 0.986005 0.412255
0.911366 0.990116 0.416366
0.992733 0.992733 0.418983
0.005700 0.005700 0.455700
0.087066 0.008316 0.458316
0.214927 0.012427 0.462427
0.342789 0.016539 0.466539
0.470650 0.020650 0.470650
0.598511 0.024761 0.474761
0.726373 0.028872 0.478873
0.854234 0.032984 0.482984
0.935600 0.035600 0.485600
0.010836 0.089586 0.460836
0.092202 0.092202 0.463452
0.220064 0.096314 0.467564
0.347925 0.100425 0.471675
0.475786 0.104536 0.475786
0.603647 0.108647 0.479897
0.731509 0.112759 0.484009
0.859370 0.116870 0.488120
0.940736 0.119486 0.490736
0.018907 0.221407 0.468908
0.100274 0.224024 0.471524
0.228135 0.228135 0.475635
0.355996 0.232246 0.479746
0.483857 0.236357 0.483857
0.611719 0.240469 0.487969
0.739580 0.244580 0.492080
0.867441 0.248691 0.496191
0.948808 0.251307 0.498808
0.026979 0.353229 0.476979
0.108345 0.355845 0.479595
0.236206 0.359956 0.483706
0.364067 0.364067 0.487818
0.491929 0.368179 0.491929
0.619790 0.372290 0.496040
0.747651 0.376401 0.500151
0.875513 0.380512 0.504263
0.956879 0.383129 0.506879
0.035050 0.485050 0.485050
0.116416 0.487666 0.487666
0.244277 0.491777 0.491777
0.372139 0.495889 0.495889
0.500000 0.500000 0.500000
0.627861 0.504111 0.504111
0.755723 0.508223 0.508223
0.883584 0.512334 0.512334
0.964950 0.514950 0.514950
0.043121 0.616871 0.493121
0.124487 0.619487 0.495737
0.252349 0.623599 0.499849
0.380210 0.627710 0.503960
0.508071 0.631821 0.508071
0.635933 0.635933 0.512182
0.763794 0.640044 0.516294
0.891655 0.644155 0.520405
0.973021 0.646771 0.523021
0.051192 0.748692 0.501193
0.132559 0.751309 0.503809
0.260420 0.755420 0.507920
0.388281 0.759531 0.512031
0.516142 0.763643 0.516142
0.644004 0.767754 0.520254
0.771865 0.771865 0.524365
0.899726 0.775976 0.528476
0.981093 0.778593 0.531092
0.059264 0.880514 0.509264
0.140630 0.883130 0.511880
0.268491 0.887241 0.515991
0.396352 0.891353 0.520103
0.524214 0.895464 0.524214
0.652075 0.899575 0.528325
0.779936 0.903686 0.532436
0.907798 0.907798 0.536547
0.989164 0.910414 0.539164
0.064400 0.964400 0.514400
0.145766 0.967016 0.517016
0.273627 0.971128 0.521127
0.401489 0.975239 0.525239
0.529350 0.979350 0.529350
0.657211 0.983461 0.533461
0.785073 0.987572 0.537573
0.912934 0.991684 0.541684
0.994300 0.994300 0.544300
0.007267 0.007267 0.581017
0.088634 0.009884 0.583634
0.216495 0.013995 0.587745
0.344356 0.018106 0.591856
0.472218 0.022218 0.595967
0.600079 0.026329 0.600079
0.727940 0.030440 0.604190
0.855801 0.034551 0.608301
0.937168 0.037167 0.610918
0.012404 0.091154 0.586154
0.093770 0.093770 0.588770
0.221631 0.097881 0.592881
0.349492 0.101992 0.596993
0.477354 0.106104 0.601104
0.605215 0.110215 0.605215
0.733076 0.114326 0.609326
0.860938 0.118437 0.613437
0.942304 0.121054 0.616054
0.020475 0.222975 0.594225
0.101841 0.225591 0.596841
0.229702 0.229702 0.600953
0.357564 0.233814 0.605064
0.485425 0.237925 0.609175
0.613286 0.242036 0.613286
0.741148 0.246147 0.617397
0.869009 0.250259 0.621509
0.950375 0.252875 0.624125
0.028546 0.354796 0.602296
0.109912 0.357412 0.604912
0.237774 0.361524 0.609024
0.365635 0.365635 0.613135
0.493496 0.369746 0.617246
0.621358 0.373857 0.621358
0.749219 0.377969 0.625469
0.877080 0.382080 0.629580
0.958446 0.384696 0.632196
0.036617 0.486617 0.610367
0.117984 0.489234 0.612984
0.245845 0.493345 0.617095
0.373706 0.497456 0.621206
0.501567 0.501567 0.625317
0.629429 0.505679 0.629429
0.757290 0.509790 0.633540
0.885151 0.513901 0.637651
0.966518 0.516517 0.640267
0.044689 0.618439 0.618439
0.126055 0.621055 0.621055
0.253916 0.625166 0.625166
0.381777 0.629277 0.629277
0.509639 0.633389 0.633389
0.637500 0.637500 0.637500
0.765361 0.641611 0.641611
0.893223 0.645722 0.645722
0.974589 0.648339 0.648339
0.052760 0.750260 0.626510
0.134126 0.752876 0.629126
0.261987 0.756988 0.633238
0.389849 0.761099 0.637349
0.517710 0.765210 0.641460
0.645571 0.769321 0.645571
0.773432 0.773432 0.649682
0.901294 0.777544 0.653794
0.982660 0.780160 0.656410
0.060831 0.882081 0.634581
0.142198 0.884698 0.637197
0.270059 0.888809 0.641309
0.397920 0.892920 0.645420
0.525781 0.897031 0.649531
0.653642 0.901143 0.653642
0.781504 0.905254 0.657754
0.909365 0.909365 0.661865
0.990731 0.911981 0.664481
0.065967 0.965968 0.639717
0.147334 0.968584 0.642334
0.275195 0.972695 0.646445
0.403056 0.976806 0.650556
0.530917 0.980917 0.654667
0.658779 0.985029 0.658779
0.786640 0.989140 0.662890
0.914501 0.993251 0.667001
0.995868 0.995868 0.669617
0.008835 0.008835 0.706335
0.090201 0.011451 0.708951
0.218062 0.015563 0.713063
0.345924 0.019674 0.717174
0.473785 0.023785 0.721285
0.601646 0.027896 0.725396
0.729507 0.032007 0.729507
0.857369 0.036119 0.733619
0.938735 0.038735 0.736235
0.013971 0.092721 0.711471
0.095337 0.095337 0.714087
0.223199 0.099449 0.718199
0.351060 0.103560 0.722310
0.478921 0.107671 0.726421
0.606783 0.111782 0.730533
0.734644 0.115894 0.734644
0.862505 0.120005 0.738755
0.943871 0.122621 0.741371
0.022042 0.224542 0.719542
0.103409 0.227159 0.722159
0.231270 0.231270 0.726270
0.359131 0.235381 0.730381
0.486992 0.239492 0.734492
0.614854 0.243604 0.738604
0.742715 0.247715 0.742715
0.870576 0.251826 0.746826
0.951943 0.254442 0.749443
0.030114 0.356364 0.727614
0.111480 0.358980 0.730230
0.239341 0.363091 0.734341
0.367202 0.367202 0.738452
0.495064 0.371314 0.742564
0.622925 0.375425 0.746675
0.750786 0.379536 0.750786
0.878648 0.383647 0.754897
0.960014 0.386264 0.757514
0.038185 0.488185 0.735685
0.119551 0.490801 0.738301
0.247412 0.494912 0.742413
0.375274 0.499024 0.746524
0.503135 0.503135 0.750635
0.630996 0.507246 0.754746
0.758857 0.511358 0.758857
0.886719 0.515469 0.762969
0.968085 0.518085 0.765585
0.046256 0.620006 0.743756
0.127622 0.622622 0.746373
0.255484 0.626734 0.750484
0.383345 0.630845 0.754595
0.511206 0.634956 0.758706
0.639067 0.639067 0.762818
0.766929 0.643179 0.766929
0.894790 0.647290 0.771040
0.976156 0.649906 0.773656
0.054327 0.751827 0.751827
0.135694 0.754444 0.754444
0.263555 0.758555 0.758555
0.391416 0.762666 0.762666
0.519278 0.766778 0.766778
0.647139 0.770889 0.770889
0.775000 0.775000 0.775000
0.902861 0.779111 0.779111
0.984228 0.781728 0.781728
0.062399 0.883649 0.759899
0.143765 0.886265 0.762515
0.271626 0.890376 0.766626
0.399487 0.894488 0.770738
0.527349 0.898599 0.774849
0.655210 0.902710 0.778960
0.783071 0.906821 0.783071
0.910933 0.910933 0.787183
0.992299 0.913549 0.789799
0.067535 0.967535 0.765035
0.148901 0.970151 0.767651
0.276762 0.974263 0.771763
0.404624 0.978374 0.775874
0.532485 0.982485 0.779985
0.660346 0.986596 0.784096
0.788208 0.990707 0.788208
0.916069 0.994819 0.792319
0.997435 0.997435 0.794935
0.010402 0.010402 0.831653
0.091769 0.013019 0.834269
0.219630 0.017130 0.838380
0.347491 0.021241 0.842491
0.475353 0.025353 0.846603
0.603214 0.029464 0.850714
0.731075 0.033575 0.854825
0.858936 0.037686 0.858936
0.940303 0.040303 0.861553
0.015539 0.094289 0.836789
0.096905 0.096905 0.839405
0.224766 0.101016 0.843516
0.352627 0.105127 0.847628
0.480489 0.109239 0.851739
0.608350 0.113350 0.855850
0.736211 0.117461 0.859961
0.864073 0.121572 0.864073
0.945439 0.124189 0.866689
0.023610 0.226110 0.844860
0.104976 0.228726 0.847476
0.232837 0.232837 0.851588
0.360699 0.236949 0.855699
0.488560 0.241060 0.859810
0.616421 0.245171 0.863921
0.744282 0.249282 0.868033
0.872144 0.253394 0.872144
0.953510 0.256010 0.874760
0.031681 0.357931 0.852931
0.113047 0.360547 0.855548
0.240909 0.364659 0.859659
0.368770 0.368770 0.863770
0.496631 0.372881 0.867881
0.624493 0.376992 0.871993
0.752354 0.381104 0.876104
0.880215 0.385215 0.880215
0.961581 0.387831 0.882831
0.039752 0.489753 0.861003
0.121119 0.492369 0.863619
0.248980 0.496480 0.867730
0.376841 0.500591 0.871841
0.504703 0.504703 0.875953
0.632564 0.508814 0.880064
0.760425 0.512925 0.884175
0.888286 0.517036 0.888286
0.969653 0.519652 0.890903
0.047824 0.621574 0.869074
0.129190 0.624190 0.871690
0.257051 0.628301 0.875801
0.384912 0.632412 0.879913
0.512774 0.636524 0.884024
0.640635 0.640635 0.888135
0.768496 0.644746 0.892246
0.896358 0.648857 0.896358
0.977724 0.651474 0.898974
0.055895 0.753395 0.877145
0.137261 0.756011 0.879761
0.265122 0.760123 0.883873
0.392984 0.764234 0.887984
0.520845 0.768345 0.892095
0.648706 0.772456 0.896206
0.776568 0.776568 0.900318
0.904429 0.780679 0.904429
0.985795 0.783295 0.907045
0.063966 0.885216 0.885216
0.145332 0.887833 0.887833
0.273194 0.891944 0.891944
0.401055 0.896055 0.896055
0.528916 0.900166 0.900166
0.656778 0.904278 0.904278
0.784639 0.908389 0.908389
0.912500 0.912500 0.912500
0.993866 0.915116 0.915116
0.069102 0.969102 0.890353
0.150469 0.971719 0.892969
0.278330 0.975830 0.897080
0.406191 0.979941 0.901191
0.534053 0.984052 0.905303
0.661914 0.988164 0.909414
0.789775 0.992275 0.913525
0.917636 0.996386 0.917636
0.999003 0.999003 0.920253
0.011400 0.011400 0.911400
0.092766 0.014016 0.914016
0.220627 0.018127 0.918127
0.348489 0.022239 0.922239
0.476350 0.026350 0.926350
0.604211 0.030461 0.930461
0.732073 0.034573 0.934573
0.859934 0.038684 0.938684
0.941300 0.041300 0.941300
0.016536 0.095286 0.916536
0.097902 0.097902 0.919153
0.225764 0.102014 0.923264
0.353625 0.106125 0.927375
0.481486 0.110236 0.931486
0.609347 0.114347 0.935598
0.737209 0.118459 0.939709
0.865070 0.122570 0.943820
0.946436 0.125186 0.946436
0.024608 0.227107 0.924608
0.105974 0.229724 0.927224
0.233835 0.233835 0.931335
0.361696 0.237946 0.935446
0.489557 0.242057 0.939558
0.617419 0.246169 0.943669
0.745280 0.250280 0.947780
0.873141 0.254391 0.951891
0.954508 0.257007 0.954508
0.032679 0.358929 0.932679
0.114045 0.361545 0.935295
0.241906 0.365656 0.939406
0.369767 0.369767 0.943518
0.497629 0.373879 0.947629
0.625490 0.377990 0.951740
0.753351 0.382101 0.955851
0.881213 0.386212 0.959963
0.962579 0.388829 0.962579
0.040750 0.490750 0.940750
0.122116 0.493366 0.943366
0.249977 0.497478 0.947477
0.377839 0.501589 0.951589
0.505700 0.505700 0.955700
0.633561 0.509811 0.959811
0.761423 0.513922 0.963923
0.889284 0.518034 0.968034
0.970650 0.520650 0.970650
0.048821 0.622571 0.948821
0.130187 0.625188 0.951437
0.258049 0.629299 0.955549
0.385910 0.633410 0.959660
0.513771 0.637521 0.963771
0.641632 0.641632 0.967882
0.769494 0.645744 0.971994
0.897355 0.649855 0.976105
0.978721 0.652471 0.978721
0.056893 0.754393 0.956893
0.138259 0.757009 0.959509
0.266120 0.761120 0.963620
0.393981 0.765231 0.967731
0.521842 0.769343 0.971842
0.649704 0.773454 0.975954
0.777565 0.777565 0.980065
0.905426 0.781676 0.984176
0.986792 0.784293 0.986792
0.064964 0.886214 0.964964
0.146330 0.888830 0.967580
0.274191 0.892941 0.971691
0.402052 0.897053 0.975803
0.529914 0.901164 0.979914
0.657775 0.905275 0.984025
0.785636 0.909386 0.988136
0.913498 0.913498 0.992247
0.994864 0.916114 0.994864
0.070100 0.970100 0.970100
0.151466 0.972716 0.972716
0.279327 0.976827 0.976827
0.407189 0.980939 0.980939
0.535050 0.985050 0.985050
0.662911 0.989161 0.989161
0.790772 0.993273 0.993273
0.918634 0.997384 0.997384
1.000000 1.000000 1.000000
