server/luts/corporate.cube
TITLE "Corporate"
LUT_3D_SIZE 17
0.000000 0.000000 0.000000
0.017436 0.000561 0.000561
0.081366 0.002616 0.002616
0.145297 0.004672 0.004672
0.209228 0.006727 0.006727
0.273158 0.008783 0.008783
0.337089 0.010839 0.010839
0.401019 0.012894 0.012894
0.464950 0.014950 0.014950
0.528881 0.017006 0.017006
0.592811 0.019061 0.019061
0.656742 0.021117 0.021117
0.720673 0.023172 0.023172
0.784603 0.025228 0.025228
0.848534 0.027284 0.027284
0.912464 0.029339 0.029339
0.929900 0.029900 0.029900
0.001101 0.017976 0.001101
0.018536 0.018536 0.001661
0.082467 0.020592 0.003717
0.146398 0.022647 0.005772
0.210328 0.024703 0.007828
0.274259 0.026759 0.009884
0.338189 0.028814 0.011939
0.402120 0.030870 0.013995
0.466051 0.032926 0.016051
0.529981 0.034981 0.018106
0.593912 0.037037 0.020162
0.657842 0.039092 0.022218
0.721773 0.041148 0.024273
0.785704 0.043204 0.026329
0.849634 0.045259 0.028384
0.913565 0.047315 0.030440
0.931001 0.047876 0.031001
0.005136 0.083886 0.005136
0.022572 0.084447 0.005697
0.086502 0.086502 0.007752
0.150433 0.088558 0.009808
0.214364 0.090614 0.011864
0.278294 0.092669 0.013919
0.342225 0.094725 0.015975
0.406156 0.096781 0.018031
0.470086 0.098836 0.020086
0.534017 0.100892 0.022142
0.597947 0.102947 0.024197
0.661878 0.105003 0.026253
0.725809 0.107059 0.028309
0.789739 0.109114 0.030364
0.853670 0.111170 0.032420
0.917601 0.113226 0.034476
0.935036 0.113786 0.035036
0.009172 0.149797 0.009172
0.026607 0.150358 0.009732
0.090538 0.152413 0.011788
0.154469 0.154469 0.013844
0.218399 0.156524 0.015899
0.282330 0.158580 0.017955
0.346261 0.160636 0.020011
0.410191 0.162691 0.022066
0.474122 0.164747 0.024122
0.538053 0.166802 0.026177
0.601983 0.168858 0.028233
0.665914 0.170914 0.030289
0.729844 0.172969 0.032344
0.793775 0.175025 0.034400
0.857706 0.177081 0.036456
0.921636 0.179136 0.038511
0.939072 0.179697 0.039072
0.013207 0.215707 0.013207
0.030643 0.216268 0.013768
0.094574 0.218324 0.015824
0.158504 0.220379 0.017879
0.222435 0.222435 0.019935
0.286366 0.224491 0.021991
0.350296 0.226546 0.024046
0.414227 0.228602 0.026102
0.478158 0.230657 0.028158
0.542088 0.232713 0.030213
0.606019 0.234769 0.032269
0.669949 0.236824 0.034324
0.733880 0.238880 0.036380
0.797811 0.240936 0.038436
0.861741 0.242991 0.040491
0.925672 0.245047 0.042547
0.943107 0.245607 0.043107
0.017243 0.281618 0.017243
0.034679 0.282179 0.017804
0.098609 0.284234 0.019859
0.162540 0.286290 0.021915
0.226471 0.288346 0.023971
0.290401 0.290401 0.026026
0.354332 0.292457 0.028082
0.418263 0.294512 0.030137
0.482193 0.296568 0.032193
0.546124 0.298624 0.034249
0.610054 0.300679 0.036304
0.673985 0.302735 0.038360
0.737916 0.304791 0.040416
0.801846 0.306846 0.042471
0.865777 0.308902 0.044527
0.929708 0.310957 0.046582
0.947143 0.311518 0.047143
0.021279 0.347529 0.021279
0.038714 0.348089 0.021839
0.102645 0.350145 0.023895
0.166576 0.352201 0.025951
0.230506 0.354256 0.028006
0.294437 0.356312 0.030062
0.358368 0.358368 0.032117
0.422298 0.360423 0.034173
0.486229 0.362479 0.036229
0.550159 0.364534 0.038284
0.614090 0.366590 0.040340
0.678021 0.368646 0.042396
0.741951 0.370701 0.044451
0.805882 0.372757 0.046507
0.869813 0.374812 0.048563
0.933743 0.376868 0.050618
0.951179 0.377429 0.051179
0.025314 0.413439 0.025314
0.042750 0.414000 0.025875
0.106681 0.416056 0.027931
0.170611 0.418111 0.029986
0.234542 0.420167 0.032042
0.298472 0.422223 0.034098
0.362403 0.424278 0.036153
0.426334 0.426334 0.038209
0.490264 0.428389 0.040264
0.554195 0.430445 0.042320
0.618126 0.432501 0.044376
0.682056 0.434556 0.046431
0.745987 0.436612 0.048487
0.809918 0.438667 0.050542
0.873848 0.440723 0.052598
0.937779 0.442779 0.054654
0.955214 0.443339 0.055214
0.029350 0.479350 0.029350
0.046786 0.479911 0.029911
0.110716 0.481966 0.031966
0.174647 0.484022 0.034022
0.238577 0.486077 0.036077
0.302508 0.488133 0.038133
0.366439 0.490189 0.040189
0.430369 0.492244 0.042244
0.494300 0.494300 0.044300
0.558231 0.496356 0.046356
0.622161 0.498411 0.048411
0.686092 0.500467 0.050467
0.750023 0.502522 0.052522
0.813953 0.504578 0.054578
0.877884 0.506634 0.056634
0.941814 0.508689 0.058689
0.959250 0.509250 0.059250
0.033386 0.545261 0.033386
0.050821 0.545821 0.033946
0.114752 0.547877 0.036002
0.178682 0.549932 0.038057
0.242613 0.551988 0.040113
0.306544 0.554044 0.042169
0.370474 0.556099 0.044224
0.434405 0.558155 0.046280
0.498336 0.560211 0.048336
0.562266 0.562266 0.050391
0.626197 0.564322 0.052447
0.690128 0.566377 0.054503
0.754058 0.568433 0.056558
0.817989 0.570489 0.058614
0.881919 0.572544 0.060669
0.945850 0.574600 0.062725
0.963286 0.575161 0.063286
0.037421 0.611171 0.037421
0.054857 0.611732 0.037982
0.118787 0.613787 0.040038
0.182718 0.615843 0.042093
0.246649 0.617899 0.044149
0.310579 0.619954 0.046204
0.374510 0.622010 0.048260
0.438441 0.624066 0.050316
0.502371 0.626121 0.052371
0.566302 0.628177 0.054427
0.630232 0.630232 0.056482
0.694163 0.632288 0.058538
0.758094 0.634344 0.060594
0.822024 0.636399 0.062649
0.885955 0.638455 0.064705
0.949886 0.640511 0.066761
0.967321 0.641071 0.067321
0.041457 0.677082 0.041457
0.058892 0.677643 0.042017
0.122823 0.679698 0.044073
0.186754 0.681754 0.046129
0.250684 0.683809 0.048184
0.314615 0.685865 0.050240
0.378546 0.687921 0.052296
0.442476 0.689976 0.054351
0.506407 0.692032 0.056407
0.570337 0.694088 0.058462
0.634268 0.696143 0.060518
0.698199 0.698199 0.062574
0.762129 0.700254 0.064629
0.826060 0.702310 0.066685
0.889991 0.704366 0.068741
0.953921 0.706421 0.070796
0.971357 0.706982 0.071357
0.045492 0.742992 0.045492
0.062928 0.743553 0.046053
0.126859 0.745609 0.048109
0.190789 0.747664 0.050164
0.254720 0.749720 0.052220
0.318651 0.751776 0.054276
0.382581 0.753831 0.056331
0.446512 0.755887 0.058387
0.510443 0.757942 0.060442
0.574373 0.759998 0.062498
0.638304 0.762054 0.064554
0.702234 0.764109 0.066609
0.766165 0.766165 0.068665
0.830096 0.768221 0.070721
0.894026 0.770276 0.072776
0.957957 0.772332 0.074832
0.975392 0.772892 0.075392
0.049528 0.808903 0.049528
0.066964 0.809464 0.050089
0.130894 0.811519 0.052144
0.194825 0.813575 0.054200
0.258756 0.815631 0.056256
0.322686 0.817686 0.058311
0.386617 0.819742 0.060367
0.450547 0.821797 0.062422
0.514478 0.823853 0.064478
0.578409 0.825909 0.066534
0.642339 0.827964 0.068589
0.706270 0.830020 0.070645
0.770201 0.832076 0.072701
0.834131 0.834131 0.074756
0.898062 0.836187 0.076812
0.961993 0.838243 0.078867
0.979428 0.838803 0.079428
0.053564 0.874814 0.053564
0.070999 0.875374 0.054124
0.134930 0.877430 0.056180
0.198861 0.879486 0.058236
0.262791 0.881541 0.060291
0.326722 0.883597 0.062347
0.390652 0.885653 0.064403
0.454583 0.887708 0.066458
0.518514 0.889764 0.068514
0.582444 0.891819 0.070569
0.646375 0.893875 0.072625
0.710306 0.895931 0.074681
0.774236 0.897986 0.076736
0.838167 0.900042 0.078792
0.902098 0.902098 0.080847
0.966028 0.904153 0.082903
0.983464 0.904714 0.083464
0.057599 0.940724 0.057599
0.075035 0.941285 0.058160
0.138966 0.943341 0.060216
0.202896 0.945396 0.062271
0.266827 0.947452 0.064327
0.330757 0.949508 0.066383
0.394688 0.951563 0.068438
0.458619 0.953619 0.070494
0.522549 0.955674 0.072549
0.586480 0.957730 0.074605
0.650411 0.959786 0.076661
0.714341 0.961841 0.078716
0.778272 0.963897 0.080772
0.842202 0.965953 0.082827
0.906133 0.968008 0.084883
0.970064 0.970064 0.086939
0.987499 0.970624 0.087499
0.058700 0.958700 0.058700
0.076136 0.959261 0.059261
0.140066 0.961316 0.061316
0.203997 0.963372 0.063372
0.267927 0.965427 0.065427
0.331858 0.967483 0.067483
0.395789 0.969539 0.069539
0.459719 0.971594 0.071594
0.523650 0.973650 0.073650
0.587581 0.975706 0.075706
0.651511 0.977761 0.077761
0.715442 0.979817 0.079817
0.779373 0.981873 0.081873
0.843303 0.983928 0.083928
0.907234 0.985984 0.085984
0.971164 0.988039 0.088039
0.988600 0.988600 0.088600
0.000214 0.000214 0.017089
0.017649 0.000774 0.017649
0.081580 0.002830 0.019705
0.145511 0.004886 0.021761
0.209441 0.006941 0.023816
0.273372 0.008997 0.025872
0.337303 0.011052 0.027927
0.401233 0.013108 0.029983
0.465164 0.015164 0.032039
0.529094 0.017219 0.034094
0.593025 0.019275 0.036150
0.656956 0.021331 0.038206
0.720886 0.023386 0.040261
0.784817 0.025442 0.042317
0.848748 0.027498 0.044372
0.912678 0.029553 0.046428
0.930114 0.030114 0.046989
0.001314 0.018189 0.018189
0.018750 0.018750 0.018750
0.082681 0.020806 0.020806
0.146611 0.022861 0.022861
0.210542 0.024917 0.024917
0.274472 0.026972 0.026972
0.338403 0.029028 0.029028
0.402334 0.031084 0.031084
0.466264 0.033139 0.033139
0.530195 0.035195 0.035195
0.594126 0.037251 0.037251
0.658056 0.039306 0.039306
0.721987 0.041362 0.041362
0.785918 0.043417 0.043417
0.849848 0.045473 0.045473
0.913779 0.047529 0.047529
0.931214 0.048089 0.048089
0.005350 0.084100 0.022225
0.022786 0.084661 0.022786
0.086716 0.086716 0.024841
0.150647 0.088772 0.026897
0.214577 0.090827 0.028952
0.278508 0.092883 0.031008
0.342439 0.094939 0.033064
0.406369 0.096994 0.035119
0.470300 0.099050 0.037175
0.534231 0.101106 0.039231
0.598161 0.103161 0.041286
0.662092 0.105217 0.043342
0.726023 0.107272 0.045397
0.789953 0.109328 0.047453
0.853884 0.111384 0.049509
0.917814 0.113439 0.051564
0.935250 0.114000 0.052125
0.009386 0.150011 0.026261
0.026821 0.150571 0.026821
0.090752 0.152627 0.028877
0.154683 0.154683 0.030932
0.218613 0.156738 0.032988
0.282544 0.158794 0.035044
0.346474 0.160849 0.037099
0.410405 0.162905 0.039155
0.474336 0.164961 0.041211
0.538266 0.167016 0.043266
0.602197 0.169072 0.045322
0.666127 0.171127 0.047377
0.730058 0.173183 0.049433
0.793989 0.175239 0.051489
0.857919 0.177294 0.053544
0.921850 0.179350 0.055600
0.939286 0.179911 0.056161
0.013421 0.215921 0.030296
0.030857 0.216482 0.030857
0.094787 0.218537 0.032912
0.158718 0.220593 0.034968
0.222649 0.222649 0.037024
0.286579 0.224704 0.039079
0.350510 0.226760 0.041135
0.414441 0.228816 0.043191
0.478371 0.230871 0.045246
0.542302 0.232927 0.047302
0.606232 0.234982 0.049357
0.670163 0.237038 0.051413
0.734094 0.239094 0.053469
0.798024 0.241149 0.055524
0.861955 0.243205 0.057580
0.925886 0.245261 0.059636
0.943321 0.245821 0.060196
0.017457 0.281832 0.034332
0.034892 0.282392 0.034892
0.098823 0.284448 0.036948
0.162754 0.286504 0.039004
0.226684 0.288559 0.041059
0.290615 0.290615 0.043115
0.354546 0.292671 0.045171
0.418476 0.294726 0.047226
0.482407 0.296782 0.049282
0.546337 0.298837 0.051337
0.610268 0.300893 0.053393
0.674199 0.302949 0.055449
0.738129 0.305004 0.057504
0.802060 0.307060 0.059560
0.865991 0.309116 0.061616
0.929921 0.311171 0.063671
0.947357 0.311732 0.064232
0.021492 0.347742 0.038367
0.038928 0.348303 0.038928
0.102859 0.350359 0.040984
0.166789 0.352414 0.043039
0.230720 0.354470 0.045095
0.294651 0.356526 0.047151
0.358581 0.358581 0.049206
0.422512 0.360637 0.051262
0.486442 0.362692 0.053317
0.550373 0.364748 0.055373
0.614304 0.366804 0.057429
0.678234 0.368859 0.059484
0.742165 0.370915 0.061540
0.806096 0.372971 0.063596
0.870026 0.375026 0.065651
0.933957 0.377082 0.067707
0.951393 0.377642 0.068267
0.025528 0.413653 0.042403
0.042964 0.414214 0.042964
0.106894 0.416269 0.045019
0.170825 0.418325 0.047075
0.234756 0.420381 0.049131
0.298686 0.422436 0.051186
0.362617 0.424492 0.053242
0.426548 0.426548 0.055297
0.490478 0.428603 0.057353
0.554409 0.430659 0.059409
0.618339 0.432714 0.061464
0.682270 0.434770 0.063520
0.746201 0.436826 0.065576
0.810131 0.438881 0.067631
0.874062 0.440937 0.069687
0.937993 0.442993 0.071742
0.955428 0.443553 0.072303
0.029564 0.479564 0.046439
0.046999 0.480124 0.046999
0.110930 0.482180 0.049055
0.174861 0.484236 0.051111
0.238791 0.486291 0.053166
0.302722 0.488347 0.055222
0.366652 0.490403 0.057277
0.430583 0.492458 0.059333
0.494514 0.494514 0.061389
0.558444 0.496569 0.063444
0.622375 0.498625 0.065500
0.686306 0.500681 0.067556
0.750236 0.502736 0.069611
0.814167 0.504792 0.071667
0.878098 0.506848 0.073722
0.942028 0.508903 0.075778
0.959464 0.509464 0.076339
0.033599 0.545474 0.050474
0.051035 0.546035 0.051035
0.114966 0.548091 0.053091
0.178896 0.550146 0.055146
0.242827 0.552202 0.057202
0.306757 0.554257 0.059257
0.370688 0.556313 0.061313
0.434619 0.558369 0.063369
0.498549 0.560424 0.065424
0.562480 0.562480 0.067480
0.626411 0.564536 0.069536
0.690341 0.566591 0.071591
0.754272 0.568647 0.073647
0.818202 0.570703 0.075702
0.882133 0.572758 0.077758
0.946064 0.574814 0.079814
0.963499 0.575374 0.080374
0.037635 0.611385 0.054510
0.055071 0.611946 0.055071
0.119001 0.614001 0.057126
0.182932 0.616057 0.059182
0.246862 0.618112 0.061237
0.310793 0.620168 0.063293
0.374724 0.622224 0.065349
0.438654 0.624279 0.067404
0.502585 0.626335 0.069460
0.566516 0.628391 0.071516
0.630446 0.630446 0.073571
0.694377 0.632502 0.075627
0.758308 0.634557 0.077682
0.822238 0.636613 0.079738
0.886169 0.638669 0.081794
0.950099 0.640724 0.083849
0.967535 0.641285 0.084410
0.041671 0.677296 0.058546
0.059106 0.677856 0.059106
0.123037 0.679912 0.061162
0.186968 0.681968 0.063217
0.250898 0.684023 0.065273
0.314829 0.686079 0.067329
0.378759 0.688134 0.069384
0.442690 0.690190 0.071440
0.506621 0.692246 0.073496
0.570551 0.694301 0.075551
0.634482 0.696357 0.077607
0.698413 0.698413 0.079662
0.762343 0.700468 0.081718
0.826274 0.702524 0.083774
0.890204 0.704579 0.085829
0.954135 0.706635 0.087885
0.971571 0.707196 0.088446
0.045706 0.743206 0.062581
0.063142 0.743767 0.063142
0.127072 0.745823 0.065197
0.191003 0.747878 0.067253
0.254934 0.749934 0.069309
0.318864 0.751989 0.071364
0.382795 0.754045 0.073420
0.446726 0.756101 0.075476
0.510656 0.758156 0.077531
0.574587 0.760212 0.079587
0.638517 0.762267 0.081642
0.702448 0.764323 0.083698
0.766379 0.766379 0.085754
0.830309 0.768434 0.087809
0.894240 0.770490 0.089865
0.958171 0.772546 0.091921
0.975606 0.773106 0.092481
0.049742 0.809117 0.066617
0.067177 0.809678 0.067177
0.131108 0.811733 0.069233
0.195039 0.813789 0.071289
0.258969 0.815844 0.073344
0.322900 0.817900 0.075400
0.386831 0.819956 0.077456
0.450761 0.822011 0.079511
0.514692 0.824067 0.081567
0.578622 0.826122 0.083622
0.642553 0.828178 0.085678
0.706484 0.830234 0.087734
0.770414 0.832289 0.089789
0.834345 0.834345 0.091845
0.898276 0.836401 0.093901
0.962206 0.838456 0.095956
0.979642 0.839017 0.096517
0.053777 0.875028 0.070652
0.071213 0.875588 0.071213
0.135144 0.877644 0.073269
0.199074 0.879699 0.075324
0.263005 0.881755 0.077380
0.326936 0.883811 0.079436
0.390866 0.885866 0.081491
0.454797 0.887922 0.083547
0.518728 0.889978 0.085602
0.582658 0.892033 0.087658
0.646589 0.894089 0.089714
0.710519 0.896144 0.091769
0.774450 0.898200 0.093825
0.838381 0.900256 0.095881
0.902311 0.902311 0.097936
0.966242 0.904367 0.099992
0.983677 0.904928 0.100552
0.057813 0.940938 0.074688
0.075249 0.941499 0.075249
0.139179 0.943554 0.077304
0.203110 0.945610 0.079360
0.267041 0.947666 0.081416
0.330971 0.949721 0.083471
0.394902 0.951777 0.085527
0.458832 0.953833 0.087582
0.522763 0.955888 0.089638
0.586694 0.957944 0.091694
0.650624 0.959999 0.093749
0.714555 0.962055 0.095805
0.778486 0.964111 0.097861
0.842416 0.966166 0.099916
0.906347 0.968222 0.101972
0.970278 0.970278 0.104027
0.987713 0.970838 0.104588
0.058914 0.958914 0.075789
0.076349 0.959474 0.076349
0.140280 0.961530 0.078405
0.204211 0.963586 0.080461
0.268141 0.965641 0.082516
0.332072 0.967697 0.084572
0.396002 0.969753 0.086627
0.459933 0.971808 0.088683
0.523864 0.973864 0.090739
0.587794 0.975919 0.092794
0.651725 0.977975 0.094850
0.715656 0.980031 0.096906
0.779586 0.982086 0.098961
0.843517 0.984142 0.101017
0.907448 0.986198 0.103072
0.971378 0.988253 0.105128
0.988814 0.988814 0.105689
0.000998 0.000998 0.079747
0.018433 0.001558 0.080308
0.082364 0.003614 0.082364
0.146294 0.005669 0.084419
0.210225 0.007725 0.086475
0.274156 0.009781 0.088531
0.338086 0.011836 0.090586
0.402017 0.013892 0.092642
0.465948 0.015948 0.094697
0.529878 0.018003 0.096753
0.593809 0.020059 0.098809
0.657739 0.022114 0.100864
0.721670 0.024170 0.102920
0.785601 0.026226 0.104976
0.849531 0.028281 0.107031
0.913462 0.030337 0.109087
0.930898 0.030897 0.109647
0.002098 0.018973 0.080848
0.019534 0.019534 0.081409
0.083464 0.021589 0.083464
0.147395 0.023645 0.085520
0.211326 0.025701 0.087576
0.275256 0.027756 0.089631
0.339187 0.029812 0.091687
0.403118 0.031867 0.093742
0.467048 0.033923 0.095798
0.530979 0.035979 0.097854
0.594909 0.038034 0.099909
0.658840 0.040090 0.101965
0.722771 0.042146 0.104021
0.786701 0.044201 0.106076
0.850632 0.046257 0.108132
0.914563 0.048312 0.110187
0.931998 0.048873 0.110748
0.006134 0.084884 0.084884
0.023569 0.085444 0.085444
0.087500 0.087500 0.087500
0.151431 0.089556 0.089556
0.215361 0.091611 0.091611
0.279292 0.093667 0.093667
0.343222 0.095722 0.095722
0.407153 0.097778 0.097778
0.471084 0.099834 0.099834
0.535014 0.101889 0.101889
0.598945 0.103945 0.103945
0.662876 0.106001 0.106001
0.726806 0.108056 0.108056
0.790737 0.110112 0.110112
0.854668 0.112167 0.112167
0.918598 0.114223 0.114223
0.936034 0.114784 0.114784
0.010169 0.150794 0.088919
0.027605 0.151355 0.089480
0.091536 0.153411 0.091536
0.155466 0.155466 0.093591
0.219397 0.157522 0.095647
0.283327 0.159577 0.097702
0.347258 0.161633 0.099758
0.411189 0.163689 0.101814
0.475119 0.165744 0.103869
0.539050 0.167800 0.105925
0.602981 0.169856 0.107981
0.666911 0.171911 0.110036
0.730842 0.173967 0.112092
0.794772 0.176022 0.114147
0.858703 0.178078 0.116203
0.922634 0.180134 0.118259
0.940069 0.180694 0.118819
0.014205 0.216705 0.092955
0.031641 0.217266 0.093516
0.095571 0.219321 0.095571
0.159502 0.221377 0.097627
0.223432 0.223432 0.099682
0.287363 0.225488 0.101738
0.351294 0.227544 0.103794
0.415224 0.229599 0.105849
0.479155 0.231655 0.107905
0.543086 0.233711 0.109961
0.607016 0.235766 0.112016
0.670947 0.237822 0.114072
0.734878 0.239877 0.116127
0.798808 0.241933 0.118183
0.862739 0.243989 0.120239
0.926669 0.246044 0.122294
0.944105 0.246605 0.122855
0.018241 0.282616 0.096991
0.035676 0.283176 0.097551
0.099607 0.285232 0.099607
0.163538 0.287287 0.101662
0.227468 0.289343 0.103718
0.291399 0.291399 0.105774
0.355329 0.293454 0.107829
0.419260 0.295510 0.109885
0.483191 0.297566 0.111941
0.547121 0.299621 0.113996
0.611052 0.301677 0.116052
0.674983 0.303732 0.118107
0.738913 0.305788 0.120163
0.802844 0.307844 0.122219
0.866774 0.309899 0.124274
0.930705 0.311955 0.126330
0.948141 0.312516 0.126891
0.022276 0.348526 0.101026
0.039712 0.349087 0.101587
0.103642 0.351142 0.103642
0.167573 0.353198 0.105698
0.231504 0.355254 0.107754
0.295434 0.357309 0.109809
0.359365 0.359365 0.111865
0.423296 0.361421 0.113921
0.487226 0.363476 0.115976
0.551157 0.365532 0.118032
0.615088 0.367588 0.120087
0.679018 0.369643 0.122143
0.742949 0.371699 0.124199
0.806879 0.373754 0.126254
0.870810 0.375810 0.128310
0.934741 0.377866 0.130366
0.952176 0.378426 0.130926
0.026312 0.414437 0.105062
0.043747 0.414998 0.105622
0.107678 0.417053 0.107678
0.171609 0.419109 0.109734
0.235539 0.421164 0.111789
0.299470 0.423220 0.113845
0.363401 0.425276 0.115901
0.427331 0.427331 0.117956
0.491262 0.429387 0.120012
0.555192 0.431443 0.122067
0.619123 0.433498 0.124123
0.683054 0.435554 0.126179
0.746984 0.437609 0.128234
0.810915 0.439665 0.130290
0.874846 0.441721 0.132346
0.938776 0.443776 0.134401
0.956212 0.444337 0.134962
0.030347 0.480348 0.109097
0.047783 0.480908 0.109658
0.111714 0.482964 0.111714
0.175644 0.485019 0.113769
0.239575 0.487075 0.115825
0.303506 0.489131 0.117881
0.367436 0.491186 0.119936
0.431367 0.493242 0.121992
0.495298 0.495298 0.124047
0.559228 0.497353 0.126103
0.623159 0.499409 0.128159
0.687089 0.501464 0.130214
0.751020 0.503520 0.132270
0.814951 0.505576 0.134326
0.878881 0.507631 0.136381
0.942812 0.509687 0.138437
0.960248 0.510247 0.138997
0.034383 0.546258 0.113133
0.051819 0.546819 0.113694
0.115749 0.548874 0.115749
0.179680 0.550930 0.117805
0.243611 0.552986 0.119861
0.307541 0.555041 0.121916
0.371472 0.557097 0.123972
0.435403 0.559152 0.126027
0.499333 0.561208 0.128083
0.563264 0.563264 0.130139
0.627194 0.565319 0.132194
0.691125 0.567375 0.134250
0.755056 0.569431 0.136306
0.818986 0.571486 0.138361
0.882917 0.573542 0.140417
0.946848 0.575597 0.142472
0.964283 0.576158 0.143033
0.038419 0.612169 0.117169
0.055854 0.612729 0.117729
0.119785 0.614785 0.119785
0.183716 0.616841 0.121841
0.247646 0.618896 0.123896
0.311577 0.620952 0.125952
0.375507 0.623007 0.128007
0.439438 0.625063 0.130063
0.503369 0.627119 0.132119
0.567299 0.629174 0.134174
0.631230 0.631230 0.136230
0.695161 0.633286 0.138286
0.759091 0.635341 0.140341
0.823022 0.637397 0.142397
0.886953 0.639452 0.144452
0.950883 0.641508 0.146508
0.968319 0.642069 0.147069
0.042454 0.678079 0.121204
0.059890 0.678640 0.121765
0.123821 0.680696 0.123821
0.187751 0.682751 0.125876
0.251682 0.684807 0.127932
0.315612 0.686863 0.129987
0.379543 0.688918 0.132043
0.443474 0.690974 0.134099
0.507404 0.693029 0.136154
0.571335 0.695085 0.138210
0.635266 0.697141 0.140266
0.699196 0.699196 0.142321
0.763127 0.701252 0.144377
0.827058 0.703307 0.146432
0.890988 0.705363 0.148488
0.954919 0.707419 0.150544
0.972354 0.707979 0.151104
0.046490 0.743990 0.125240
0.063926 0.744551 0.125801
0.127856 0.746606 0.127856
0.191787 0.748662 0.129912
0.255717 0.750718 0.131967
0.319648 0.752773 0.134023
0.383579 0.754829 0.136079
0.447509 0.756884 0.138134
0.511440 0.758940 0.140190
0.575371 0.760996 0.142246
0.639301 0.763051 0.144301
0.703232 0.765107 0.146357
0.767162 0.767162 0.148412
0.831093 0.769218 0.150468
0.895024 0.771274 0.152524
0.958954 0.773329 0.154579
0.976390 0.773890 0.155140
0.050526 0.809901 0.129276
0.067961 0.810461 0.129836
0.131892 0.812517 0.131892
0.195822 0.814572 0.133947
0.259753 0.816628 0.136003
0.323684 0.818684 0.138059
0.387614 0.820739 0.140114
0.451545 0.822795 0.142170
0.515476 0.824851 0.144226
0.579406 0.826906 0.146281
0.643337 0.828962 0.148337
0.707268 0.831017 0.150393
0.771198 0.833073 0.152448
0.835129 0.835129 0.154504
0.899059 0.837184 0.156559
0.962990 0.839240 0.158615
0.980426 0.839801 0.159176
0.054561 0.875811 0.133311
0.071997 0.876372 0.133872
0.135927 0.878428 0.135927
0.199858 0.880483 0.137983
0.263789 0.882539 0.140039
0.327719 0.884594 0.142094
0.391650 0.886650 0.144150
0.455581 0.888706 0.146206
0.519511 0.890761 0.148261
0.583442 0.892817 0.150317
0.647372 0.894873 0.152372
0.711303 0.896928 0.154428
0.775234 0.898984 0.156484
0.839164 0.901039 0.158539
0.903095 0.903095 0.160595
0.967026 0.905151 0.162651
0.984461 0.905711 0.163211
0.058597 0.941722 0.137347
0.076032 0.942283 0.137907
0.139963 0.944338 0.139963
0.203894 0.946394 0.142019
0.267824 0.948449 0.144074
0.331755 0.950505 0.146130
0.395686 0.952561 0.148186
0.459616 0.954616 0.150241
0.523547 0.956672 0.152297
0.587477 0.958728 0.154352
0.651408 0.960783 0.156408
0.715339 0.962839 0.158464
0.779269 0.964894 0.160519
0.843200 0.966950 0.162575
0.907131 0.969006 0.164631
0.971061 0.971061 0.166686
0.988497 0.971622 0.167247
0.059697 0.959697 0.138448
0.077133 0.960258 0.139008
0.141064 0.962314 0.141064
0.204994 0.964369 0.143119
0.268925 0.966425 0.145175
0.332856 0.968481 0.147231
0.396786 0.970536 0.149286
0.460717 0.972592 0.151342
0.524647 0.974647 0.153397
0.588578 0.976703 0.155453
0.652509 0.978759 0.157509
0.716439 0.980814 0.159564
0.780370 0.982870 0.161620
0.844301 0.984926 0.163676
0.908231 0.986981 0.165731
0.972162 0.989037 0.167787
0.989598 0.989598 0.168347
0.001781 0.001781 0.142406
0.019217 0.002342 0.142967
0.083147 0.004397 0.145022
0.147078 0.006453 0.147078
0.211009 0.008509 0.149134
0.274939 0.010564 0.151189
0.338870 0.012620 0.153245
0.402801 0.014676 0.155301
0.466731 0.016731 0.157356
0.530662 0.018787 0.159412
0.594592 0.020842 0.161467
0.658523 0.022898 0.163523
0.722454 0.024954 0.165579
0.786384 0.027009 0.167634
0.850315 0.029065 0.169690
0.914246 0.031121 0.171746
0.931681 0.031681 0.172306
0.002882 0.019757 0.143507
0.020317 0.020317 0.144068
0.084248 0.022373 0.146123
