server/luts/corporate.cube
TITLE "Corporate"
LUT_3D_SIZE 5
0.000000 0.000000 0.000000
0.209228 0.006727 0.006727
0.464950 0.014950 0.014950
0.720673 0.023172 0.023172
0.929900 0.029900 0.029900
0.013207 0.215707 0.013207
0.222435 0.222435 0.019935
0.478158 0.230657 0.028158
0.733880 0.238880 0.036380
0.943107 0.245607 0.043107
0.029350 0.479350 0.029350
0.238577 0.486077 0.036077
0.494300 0.494300 0.044300
0.750023 0.502522 0.052522
0.959250 0.509250 0.059250
0.045492 0.742992 0.045492
0.254720 0.749720 0.052220
0.510443 0.757942 0.060442
0.766165 0.766165 0.068665
0.975392 0.772892 0.075392
0.058700 0.958700 0.058700
0.267927 0.965427 0.065427
0.523650 0.973650 0.073650
0.779373 0.981873 0.081873
0.988600 0.988600 0.088600
0.002565 0.002565 0.205065
0.211792 0.009292 0.211792
0.467515 0.017515 0.220015
0.723237 0.025737 0.228237
0.932465 0.032465 0.234965
0.015772 0.218272 0.218272
0.225000 0.225000 0.225000
0.480722 0.233222 0.233222
0.736445 0.241445 0.241445
0.945672 0.248172 0.248172
0.031915 0.481915 0.234415
0.241142 0.488642 0.241142
0.496865 0.496865 0.249365
0.752587 0.505088 0.257587
0.961815 0.511815 0.264315
0.048057 0.745558 0.250557
0.257285 0.752285 0.257285
0.513007 0.760508 0.265507
0.768730 0.768730 0.273730
0.977958 0.775458 0.280457
0.061265 0.961265 0.263765
0.270492 0.967993 0.270492
0.526215 0.976215 0.278715
0.781937 0.984437 0.286937
0.991165 0.991165 0.293665
0.005700 0.005700 0.455700
0.214927 0.012427 0.462427
0.470650 0.020650 0.470650
0.726373 0.028872 0.478873
0.935600 0.035600 0.485600
0.018907 0.221407 0.468908
0.228135 0.228135 0.475635
0.483857 0.236357 0.483857
0.739580 0.244580 0.492080
0.948808 0.251307 0.498808
0.035050 0.485050 0.485050
0.244277 0.491777 0.491777
0.500000 0.500000 0.500000
0.755723 0.508223 0.508223
0.964950 0.514950 0.514950
0.051192 0.748692 0.501193
0.260420 0.755420 0.507920
0.516142 0.763643 0.516142
0.771865 0.771865 0.524365
0.981093 0.778593 0.531092
0.064400 0.964400 0.514400
0.273627 0.971128 0.521127
0.529350 0.979350 0.529350
0.785073 0.987572 0.537573
0.994300 0.994300 0.544300
0.008835 0.008835 0.706335
0.218062 0.015563 0.713063
0.473785 0.023785 0.721285
0.729507 0.032007 0.729507
0.938735 0.038735 0.736235
0.022042 0.224542 0.719542
0.231270 0.231270 0.726270
0.486992 0.239492 0.734492
0.742715 0.247715 0.742715
0.951943 0.254442 0.749443
0.038185 0.488185 0.735685
0.247412 0.494912 0.742413
0.503135 0.503135 0.750635
0.758857 0.511358 0.758857
0.968085 0.518085 0.765585
0.054327 0.751827 0.751827
0.263555 0.758555 0.758555
0.519278 0.766778 0.766778
0.775000 0.775000 0.775000
0.984228 0.781728 0.781728
0.067535 0.967535 0.765035
0.276762 0.974263 0.771763
0.532485 0.982485 0.779985
0.788208 0.990707 0.788208
0.997435 0.997435 0.794935
0.011400 0.011400 0.911400
0.220627 0.018127 0.918127
0.476350 0.026350 0.926350
0.732073 0.034573 0.934573
0.941300 0.041300 0.941300
0.024608 0.227107 0.924608
0.233835 0.233835 0.931335
0.489557 0.242057 0.939558
0.745280 0.250280 0.947780
0.954508 0.257007 0.954508
0.040750 0.490750 0.940750
0.249977 0.497478 0.947477
0.505700 0.505700 0.955700
0.761423 0.513922 0.963923
0.970650 0.520650 0.970650
0.056893 0.754393 0.956893
0.266120 0.761120 0.963620
0.521842 0.769343 0.971842
0.777565 0.777565 0.980065
0.986792 0.784293 0.986792
0.070100 0.970100 0.970100
0.279327 0.976827 0.976827
0.535050 0.985050 0.985050
0.790772 0.993273 0.993273
1.000000 1.000000 1.000000
