server/luts/dramatic.cube
TITLE "Dramatic"
LUT_3D_SIZE 9
0.000000 0.000000 0.000000
0.000000 0.000000 0.000000
0.000000 0.000000 0.000000
0.139717 0.009717 0.009717
0.300930 0.020930 0.020930
0.462143 0.032142 0.032142
0.623355 0.043355 0.043355
0.730830 0.050830 0.050830
0.730830 0.050830 0.050830
0.000000 0.000000 0.000000
0.000000 0.000000 0.000000
0.000000 0.000000 0.000000
0.139717 0.009717 0.009717
0.300930 0.020930 0.020930
0.462143 0.032142 0.032142
0.623355 0.043355 0.043355
0.730830 0.050830 0.050830
0.730830 0.050830 0.050830
0.000000 0.000000 0.000000
0.000000 0.000000 0.000000
0.000000 0.000000 0.000000
0.139717 0.009717 0.009717
0.300930 0.020930 0.020930
0.462143 0.032142 0.032142
0.623355 0.043355 0.043355
0.730830 0.050830 0.050830
0.730830 0.050830 0.050830
0.019077 0.149078 0.019077
0.019077 0.149078 0.019077
0.019077 0.149078 0.019077
0.158795 0.158795 0.028795
0.320008 0.170008 0.040007
0.481220 0.181220 0.051220
0.642432 0.192433 0.062433
0.749908 0.199907 0.069908
0.749908 0.199907 0.069908
0.041090 0.321090 0.041090
0.041090 0.321090 0.041090
0.041090 0.321090 0.041090
0.180808 0.330807 0.050807
0.342020 0.342020 0.062020
0.503232 0.353232 0.073232
0.664445 0.364445 0.084445
0.771920 0.371920 0.091920
0.771920 0.371920 0.091920
0.063103 0.493102 0.063103
0.063103 0.493102 0.063103
0.063103 0.493102 0.063103
0.202820 0.502820 0.072820
0.364032 0.514033 0.084032
0.525245 0.525245 0.095245
0.686457 0.536458 0.106457
0.793932 0.543932 0.113932
0.793932 0.543932 0.113932
0.085115 0.665115 0.085115
0.085115 0.665115 0.085115
0.085115 0.665115 0.085115
0.224833 0.674832 0.094832
0.386045 0.686045 0.106045
0.547257 0.697257 0.117257
0.708470 0.708470 0.128470
0.815945 0.715945 0.135945
0.815945 0.715945 0.135945
0.099790 0.779790 0.099790
0.099790 0.779790 0.099790
0.099790 0.779790 0.099790
0.239507 0.789508 0.109507
0.400720 0.800720 0.120720
0.561932 0.811932 0.131933
0.723145 0.823145 0.143145
0.830620 0.830620 0.150620
0.830620 0.830620 0.150620
0.099790 0.779790 0.099790
0.099790 0.779790 0.099790
0.099790 0.779790 0.099790
0.239507 0.789508 0.109507
0.400720 0.800720 0.120720
0.561932 0.811932 0.131933
0.723145 0.823145 0.143145
0.830620 0.830620 0.150620
0.830620 0.830620 0.150620
0.000000 0.000000 0.000000
0.000000 0.000000 0.000000
0.000000 0.000000 0.000000
0.139717 0.009717 0.009717
0.300930 0.020930 0.020930
0.462143 0.032142 0.032142
0.623355 0.043355 0.043355
0.730830 0.050830 0.050830
0.730830 0.050830 0.050830
0.000000 0.000000 0.000000
0.000000 0.000000 0.000000
0.000000 0.000000 0.000000
0.139717 0.009717 0.009717
0.300930 0.020930 0.020930
0.462143 0.032142 0.032142
0.623355 0.043355 0.043355
0.730830 0.050830 0.050830
0.730830 0.050830 0.050830
0.000000 0.000000 0.000000
0.000000 0.000000 0.000000
0.000000 0.000000 0.000000
0.139717 0.009717 0.009717
0.300930 0.020930 0.020930
0.462143 0.032142 0.032142
0.623355 0.043355 0.043355
0.730830 0.050830 0.050830
0.730830 0.050830 0.050830
0.019077 0.149078 0.019077
0.019077 0.149078 0.019077
0.019077 0.149078 0.019077
0.158795 0.158795 0.028795
0.320008 0.170008 0.040007
0.481220 0.181220 0.051220
0.642432 0.192433 0.062433
0.749908 0.199907 0.069908
0.749908 0.199907 0.069908
0.041090 0.321090 0.041090
0.041090 0.321090 0.041090
0.041090 0.321090 0.041090
0.180808 0.330807 0.050807
0.342020 0.342020 0.062020
0.503232 0.353232 0.073232
0.664445 0.364445 0.084445
0.771920 0.371920 0.091920
0.771920 0.371920 0.091920
0.063103 0.493102 0.063103
0.063103 0.493102 0.063103
0.063103 0.493102 0.063103
0.202820 0.502820 0.072820
0.364032 0.514033 0.084032
0.525245 0.525245 0.095245
0.686457 0.536458 0.106457
0.793932 0.543932 0.113932
0.793932 0.543932 0.113932
0.085115 0.665115 0.085115
0.085115 0.665115 0.085115
0.085115 0.665115 0.085115
0.224833 0.674832 0.094832
0.386045 0.686045 0.106045
0.547257 0.697257 0.117257
0.708470 0.708470 0.128470
0.815945 0.715945 0.135945
0.815945 0.715945 0.135945
0.099790 0.779790 0.099790
0.099790 0.779790 0.099790
0.099790 0.779790 0.099790
0.239507 0.789508 0.109507
0.400720 0.800720 0.120720
0.561932 0.811932 0.131933
0.723145 0.823145 0.143145
0.830620 0.830620 0.150620
0.830620 0.830620 0.150620
0.099790 0.779790 0.099790
0.099790 0.779790 0.099790
0.099790 0.779790 0.099790
0.239507 0.789508 0.109507
0.400720 0.800720 0.120720
0.561932 0.811932 0.131933
0.723145 0.823145 0.143145
0.830620 0.830620 0.150620
0.830620 0.830620 0.150620
0.000000 0.000000 0.000000
0.000000 0.000000 0.000000
0.000000 0.000000 0.000000
0.139717 0.009717 0.009717
0.300930 0.020930 0.020930
0.462143 0.032142 0.032142
0.623355 0.043355 0.043355
0.730830 0.050830 0.050830
0.730830 0.050830 0.050830
0.000000 0.000000 0.000000
0.000000 0.000000 0.000000
0.000000 0.000000 0.000000
0.139717 0.009717 0.009717
0.300930 0.020930 0.020930
0.462143 0.032142 0.032142
0.623355 0.043355 0.043355
0.730830 0.050830 0.050830
0.730830 0.050830 0.050830
0.000000 0.000000 0.000000
0.000000 0.000000 0.000000
0.000000 0.000000 0.000000
0.139717 0.009717 0.009717
0.300930 0.020930 0.020930
0.462143 0.032142 0.032142
0.623355 0.043355 0.043355
0.730830 0.050830 0.050830
0.730830 0.050830 0.050830
0.019077 0.149078 0.019077
0.019077 0.149078 0.019077
0.019077 0.149078 0.019077
0.158795 0.158795 0.028795
0.320008 0.170008 0.040007
0.481220 0.181220 0.051220
0.642432 0.192433 0.062433
0.749908 0.199907 0.069908
0.749908 0.199907 0.069908
0.041090 0.321090 0.041090
0.041090 0.321090 0.041090
0.041090 0.321090 0.041090
0.180808 0.330807 0.050807
0.342020 0.342020 0.062020
0.503232 0.353232 0.073232
0.664445 0.364445 0.084445
0.771920 0.371920 0.091920
0.771920 0.371920 0.091920
0.063103 0.493102 0.063103
0.063103 0.493102 0.063103
0.063103 0.493102 0.063103
0.202820 0.502820 0.072820
0.364032 0.514033 0.084032
0.525245 0.525245 0.095245
0.686457 0.536458 0.106457
0.793932 0.543932 0.113932
0.793932 0.543932 0.113932
0.085115 0.665115 0.085115
0.085115 0.665115 0.085115
0.085115 0.665115 0.085115
0.224833 0.674832 0.094832
0.386045 0.686045 0.106045
0.547257 0.697257 0.117257
0.708470 0.708470 0.128470
0.815945 0.715945 0.135945
0.815945 0.715945 0.135945
0.099790 0.779790 0.099790
0.099790 0.779790 0.099790
0.099790 0.779790 0.099790
0.239507 0.789508 0.109507
0.400720 0.800720 0.120720
0.561932 0.811932 0.131933
0.723145 0.823145 0.143145
0.830620 0.830620 0.150620
0.830620 0.830620 0.150620
0.099790 0.779790 0.099790
0.099790 0.779790 0.099790
0.099790 0.779790 0.099790
0.239507 0.789508 0.109507
0.400720 0.800720 0.120720
0.561932 0.811932 0.131933
0.723145 0.823145 0.143145
0.830620 0.830620 0.150620
0.830620 0.830620 0.150620
0.003705 0.003705 0.133705
0.003705 0.003705 0.133705
0.003705 0.003705 0.133705
0.143423 0.013422 0.143423
0.304635 0.024635 0.154635
0.465847 0.035848 0.165848
0.627060 0.047060 0.177060
0.734535 0.054535 0.184535
0.734535 0.054535 0.184535
0.003705 0.003705 0.133705
0.003705 0.003705 0.133705
0.003705 0.003705 0.133705
0.143423 0.013422 0.143423
0.304635 0.024635 0.154635
0.465847 0.035848 0.165848
0.627060 0.047060 0.177060
0.734535 0.054535 0.184535
0.734535 0.054535 0.184535
0.003705 0.003705 0.133705
0.003705 0.003705 0.133705
0.003705 0.003705 0.133705
0.143423 0.013422 0.143423
0.304635 0.024635 0.154635
0.465847 0.035848 0.165848
0.627060 0.047060 0.177060
0.734535 0.054535 0.184535
0.734535 0.054535 0.184535
0.022782 0.152783 0.152783
0.022782 0.152783 0.152783
0.022782 0.152783 0.152783
0.162500 0.162500 0.162500
0.323712 0.173712 0.173712
0.484925 0.184925 0.184925
0.646138 0.196137 0.196137
0.753613 0.203613 0.203613
0.753613 0.203613 0.203613
0.044795 0.324795 0.174795
0.044795 0.324795 0.174795
0.044795 0.324795 0.174795
0.184512 0.334512 0.184512
0.345725 0.345725 0.195725
0.506938 0.356937 0.206937
0.668150 0.368150 0.218150
0.775625 0.375625 0.225625
0.775625 0.375625 0.225625
0.066807 0.496807 0.196807
0.066807 0.496807 0.196807
0.066807 0.496807 0.196807
0.206525 0.506525 0.206525
0.367737 0.517737 0.217737
0.528950 0.528950 0.228950
0.690163 0.540162 0.240162
0.797637 0.547637 0.247637
0.797637 0.547637 0.247637
0.088820 0.668820 0.218820
0.088820 0.668820 0.218820
0.088820 0.668820 0.218820
0.228538 0.678538 0.228538
0.389750 0.689750 0.239750
0.550963 0.700962 0.250962
0.712175 0.712175 0.262175
0.819650 0.719650 0.269650
0.819650 0.719650 0.269650
0.103495 0.783495 0.233495
0.103495 0.783495 0.233495
0.103495 0.783495 0.233495
0.243212 0.793212 0.243212
0.404425 0.804425 0.254425
0.565638 0.815638 0.265637
0.726850 0.826850 0.276850
0.834325 0.834325 0.284325
0.834325 0.834325 0.284325
0.103495 0.783495 0.233495
0.103495 0.783495 0.233495
0.103495 0.783495 0.233495
0.243212 0.793212 0.243212
0.404425 0.804425 0.254425
0.565638 0.815638 0.265637
0.726850 0.826850 0.276850
0.834325 0.834325 0.284325
0.834325 0.834325 0.284325
0.007980 0.007980 0.287980
0.007980 0.007980 0.287980
0.007980 0.007980 0.287980
0.147698 0.017697 0.297698
0.308910 0.028910 0.308910
0.470122 0.040122 0.320122
0.631335 0.051335 0.331335
0.738810 0.058810 0.338810
0.738810 0.058810 0.338810
0.007980 0.007980 0.287980
0.007980 0.007980 0.287980
0.007980 0.007980 0.287980
0.147698 0.017697 0.297698
0.308910 0.028910 0.308910
0.470122 0.040122 0.320122
0.631335 0.051335 0.331335
0.738810 0.058810 0.338810
0.738810 0.058810 0.338810
0.007980 0.007980 0.287980
0.007980 0.007980 0.287980
0.007980 0.007980 0.287980
0.147698 0.017697 0.297698
0.308910 0.028910 0.308910
0.470122 0.040122 0.320122
0.631335 0.051335 0.331335
0.738810 0.058810 0.338810
0.738810 0.058810 0.338810
0.027057 0.157058 0.307057
0.027057 0.157058 0.307057
0.027057 0.157058 0.307057
0.166775 0.166775 0.316775
0.327987 0.177987 0.327987
0.489200 0.189200 0.339200
0.650413 0.200412 0.350412
0.757888 0.207888 0.357887
0.757888 0.207888 0.357887
0.049070 0.329070 0.329070
0.049070 0.329070 0.329070
0.049070 0.329070 0.329070
0.188787 0.338787 0.338787
0.350000 0.350000 0.350000
0.511212 0.361212 0.361212
0.672425 0.372425 0.372425
0.779900 0.379900 0.379900
0.779900 0.379900 0.379900
0.071082 0.501082 0.351082
0.071082 0.501082 0.351082
0.071082 0.501082 0.351082
0.210800 0.510800 0.360800
0.372012 0.522012 0.372012
0.533225 0.533225 0.383225
0.694438 0.544438 0.394437
0.801913 0.551913 0.401913
0.801913 0.551913 0.401913
0.093095 0.673095 0.373095
0.093095 0.673095 0.373095
0.093095 0.673095 0.373095
0.232812 0.682813 0.382813
0.394025 0.694025 0.394025
0.555237 0.705237 0.405237
0.716450 0.716450 0.416450
0.823925 0.723925 0.423925
0.823925 0.723925 0.423925
0.107770 0.787770 0.387770
0.107770 0.787770 0.387770
0.107770 0.787770 0.387770
0.247487 0.797488 0.397487
0.408700 0.808700 0.408700
0.569912 0.819913 0.419912
0.731125 0.831125 0.431125
0.838600 0.838600 0.438600
0.838600 0.838600 0.438600
0.107770 0.787770 0.387770
0.107770 0.787770 0.387770
0.107770 0.787770 0.387770
0.247487 0.797488 0.397487
0.408700 0.808700 0.408700
0.569912 0.819913 0.419912
0.731125 0.831125 0.431125
0.838600 0.838600 0.438600
0.838600 0.838600 0.438600
0.012255 0.012255 0.442255
0.012255 0.012255 0.442255
0.012255 0.012255 0.442255
0.151973 0.021972 0.451972
0.313185 0.033185 0.463185
0.474397 0.044397 0.474397
0.635610 0.055610 0.485610
0.743085 0.063085 0.493085
0.743085 0.063085 0.493085
0.012255 0.012255 0.442255
0.012255 0.012255 0.442255
0.012255 0.012255 0.442255
0.151973 0.021972 0.451972
0.313185 0.033185 0.463185
0.474397 0.044397 0.474397
0.635610 0.055610 0.485610
0.743085 0.063085 0.493085
0.743085 0.063085 0.493085
0.012255 0.012255 0.442255
0.012255 0.012255 0.442255
0.012255 0.012255 0.442255
0.151973 0.021972 0.451972
0.313185 0.033185 0.463185
0.474397 0.044397 0.474397
0.635610 0.055610 0.485610
0.743085 0.063085 0.493085
0.743085 0.063085 0.493085
0.031332 0.161333 0.461333
0.031332 0.161333 0.461333
0.031332 0.161333 0.461333
0.171050 0.171050 0.471050
0.332263 0.182262 0.482262
0.493475 0.193475 0.493475
0.654687 0.204687 0.504687
0.762163 0.212163 0.512162
0.762163 0.212163 0.512162
0.053345 0.333345 0.483345
0.053345 0.333345 0.483345
0.053345 0.333345 0.483345
0.193062 0.343062 0.493062
0.354275 0.354275 0.504275
0.515487 0.365487 0.515487
0.676700 0.376700 0.526700
0.784175 0.384175 0.534175
0.784175 0.384175 0.534175
0.075357 0.505358 0.505358
0.075357 0.505358 0.505358
0.075357 0.505358 0.505358
0.215075 0.515075 0.515075
0.376287 0.526288 0.526288
0.537500 0.537500 0.537500
0.698712 0.548712 0.548712
0.806187 0.556187 0.556187
0.806187 0.556187 0.556187
0.097370 0.677370 0.527370
0.097370 0.677370 0.527370
0.097370 0.677370 0.527370
0.237087 0.687087 0.537087
0.398300 0.698300 0.548300
0.559512 0.709512 0.559512
0.720725 0.720725 0.570725
0.828200 0.728200 0.578200
0.828200 0.728200 0.578200
0.112045 0.792045 0.542045
0.112045 0.792045 0.542045
0.112045 0.792045 0.542045
0.251762 0.801762 0.551762
0.412975 0.812975 0.562975
0.574187 0.824187 0.574187
0.735400 0.835400 0.585400
0.842875 0.842875 0.592875
0.842875 0.842875 0.592875
0.112045 0.792045 0.542045
0.112045 0.792045 0.542045
0.112045 0.792045 0.542045
0.251762 0.801762 0.551762
0.412975 0.812975 0.562975
0.574187 0.824187 0.574187
0.735400 0.835400 0.585400
0.842875 0.842875 0.592875
0.842875 0.842875 0.592875
0.016530 0.016530 0.596530
0.016530 0.016530 0.596530
0.016530 0.016530 0.596530
0.156248 0.026247 0.606248
0.317460 0.037460 0.617460
0.478673 0.048672 0.628672
0.639885 0.059885 0.639885
0.747360 0.067360 0.647360
0.747360 0.067360 0.647360
0.016530 0.016530 0.596530
0.016530 0.016530 0.596530
0.016530 0.016530 0.596530
0.156248 0.026247 0.606248
0.317460 0.037460 0.617460
0.478673 0.048672 0.628672
0.639885 0.059885 0.639885
0.747360 0.067360 0.647360
0.747360 0.067360 0.647360
0.016530 0.016530 0.596530
0.016530 0.016530 0.596530
0.016530 0.016530 0.596530
0.156248 0.026247 0.606248
0.317460 0.037460 0.617460
0.478673 0.048672 0.628672
0.639885 0.059885 0.639885
0.747360 0.067360 0.647360
0.747360 0.067360 0.647360
0.035607 0.165608 0.615608
0.035607 0.165608 0.615608
0.035607 0.165608 0.615608
0.175325 0.175325 0.625325
0.336537 0.186537 0.636537
0.497750 0.197750 0.647750
0.658963 0.208962 0.658963
0.766437 0.216438 0.666438
0.766437 0.216438 0.666438
0.057620 0.337620 0.637620
0.057620 0.337620 0.637620
0.057620 0.337620 0.637620
0.197337 0.347337 0.647338
0.358550 0.358550 0.658550
0.519763 0.369762 0.669763
0.680975 0.380975 0.680975
0.788450 0.388450 0.688450
0.788450 0.388450 0.688450
0.079632 0.509632 0.659633
0.079632 0.509632 0.659633
0.079632 0.509632 0.659633
0.219350 0.519350 0.669350
0.380562 0.530562 0.680562
0.541775 0.541775 0.691775
0.702987 0.552987 0.702987
0.810462 0.560462 0.710462
0.810462 0.560462 0.710462
0.101645 0.681645 0.681645
0.101645 0.681645 0.681645
0.101645 0.681645 0.681645
0.241362 0.691362 0.691362
0.402575 0.702575 0.702575
0.563787 0.713788 0.713788
0.725000 0.725000 0.725000
0.832475 0.732475 0.732475
0.832475 0.732475 0.732475
0.116320 0.796320 0.696320
0.116320 0.796320 0.696320
0.116320 0.796320 0.696320
0.256037 0.806037 0.706037
0.417250 0.817250 0.717250
0.578462 0.828462 0.728463
0.739675 0.839675 0.739675
0.847150 0.847150 0.747150
0.847150 0.847150 0.747150
0.116320 0.796320 0.696320
0.116320 0.796320 0.696320
0.116320 0.796320 0.696320
0.256037 0.806037 0.706037
0.417250 0.817250 0.717250
0.578462 0.828462 0.728463
0.739675 0.839675 0.739675
0.847150 0.847150 0.747150
0.847150 0.847150 0.747150
0.019380 0.019380 0.699380
0.019380 0.019380 0.699380
0.019380 0.019380 0.699380
0.159098 0.029097 0.709098
0.320310 0.040310 0.720310
0.481522 0.051522 0.731523
0.642735 0.062735 0.742735
0.750210 0.070210 0.750210
0.750210 0.070210 0.750210
0.019380 0.019380 0.699380
0.019380 0.019380 0.699380
0.019380 0.019380 0.699380
0.159098 0.029097 0.709098
0.320310 0.040310 0.720310
0.481522 0.051522 0.731523
0.642735 0.062735 0.742735
0.750210 0.070210 0.750210
0.750210 0.070210 0.750210
0.019380 0.019380 0.699380
0.019380 0.019380 0.699380
0.019380 0.019380 0.699380
0.159098 0.029097 0.709098
0.320310 0.040310 0.720310
0.481522 0.051522 0.731523
0.642735 0.062735 0.742735
0.750210 0.070210 0.750210
0.750210 0.070210 0.750210
0.038457 0.168458 0.718457
0.038457 0.168458 0.718457
0.038457 0.168458 0.718457
0.178175 0.178175 0.728175
0.339387 0.189387 0.739387
0.500600 0.200600 0.750600
0.661812 0.211812 0.761813
0.769288 0.219288 0.769288
0.769288 0.219288 0.769288
0.060470 0.340470 0.740470
0.060470 0.340470 0.740470
0.060470 0.340470 0.740470
0.200187 0.350187 0.750188
0.361400 0.361400 0.761400
0.522612 0.372612 0.772612
0.683825 0.383825 0.783825
0.791300 0.391300 0.791300
0.791300 0.391300 0.791300
0.082482 0.512482 0.762482
0.082482 0.512482 0.762482
0.082482 0.512482 0.762482
0.222200 0.522200 0.772200
0.383412 0.533412 0.783413
0.544625 0.544625 0.794625
0.705838 0.555837 0.805837
0.813312 0.563312 0.813312
0.813312 0.563312 0.813312
0.104495 0.684495 0.784495
0.104495 0.684495 0.784495
0.104495 0.684495 0.784495
0.244212 0.694213 0.794212
0.405425 0.705425 0.805425
0.566637 0.716637 0.816638
0.727850 0.727850 0.827850
0.835325 0.735325 0.835325
0.835325 0.735325 0.835325
0.119170 0.799170 0.799170
0.119170 0.799170 0.799170
0.119170 0.799170 0.799170
0.258887 0.808887 0.808887
0.420100 0.820100 0.820100
0.581312 0.831313 0.831313
0.742525 0.842525 0.842525
0.850000 0.850000 0.850000
0.850000 0.850000 0.850000
0.119170 0.799170 0.799170
0.119170 0.799170 0.799170
0.119170 0.799170 0.799170
0.258887 0.808887 0.808887
0.420100 0.820100 0.820100
0.581312 0.831313 0.831313
0.742525 0.842525 0.842525
0.850000 0.850000 0.850000
0.850000 0.850000 0.850000
0.019380 0.019380 0.699380
0.019380 0.019380 0.699380
0.019380 0.019380 0.699380
0.159098 0.029097 0.709098
0.320310 0.040310 0.720310
0.481522 0.051522 0.731523
0.642735 0.062735 0.742735
0.750210 0.070210 0.750210
0.750210 0.070210 0.750210
0.019380 0.019380 0.699380
0.019380 0.019380 0.699380
0.019380 0.019380 0.699380
0.159098 0.029097 0.709098
0.320310 0.040310 0.720310
0.481522 0.051522 0.731523
0.642735 0.062735 0.742735
0.750210 0.070210 0.750210
0.750210 0.070210 0.750210
0.019380 0.019380 0.699380
0.019380 0.019380 0.699380
0.019380 0.019380 0.699380
0.159098 0.029097 0.709098
0.320310 0.040310 0.720310
0.481522 0.051522 0.731523
0.642735 0.062735 0.742735
0.750210 0.070210 0.750210
0.750210 0.070210 0.750210
0.038457 0.168458 0.718457
0.038457 0.168458 0.718457
0.038457 0.168458 0.718457
0.178175 0.178175 0.728175
0.339387 0.189387 0.739387
0.500600 0.200600 0.750600
0.661812 0.211812 0.761813
0.769288 0.219288 0.769288
0.769288 0.219288 0.769288
0.060470 0.340470 0.740470
0.060470 0.340470 0.740470
0.060470 0.340470 0.740470
0.200187 0.350187 0.750188
0.361400 0.361400 0.761400
0.522612 0.372612 0.772612
0.683825 0.383825 0.783825
0.791300 0.391300 0.791300
0.791300 0.391300 0.791300
0.082482 0.512482 0.762482
0.082482 0.512482 0.762482
0.082482 0.512482 0.762482
0.222200 0.522200 0.772200
0.383412 0.533412 0.783413
0.544625 0.544625 0.794625
0.705838 0.555837 0.805837
0.813312 0.563312 0.813312
0.813312 0.563312 0.813312
0.104495 0.684495 0.784495
0.104495 0.684495 0.784495
0.104495 0.684495 0.784495
0.244212 0.694213 0.794212
0.405425 0.705425 0.805425
0.566637 0.716637 0.816638
0.727850 0.727850 0.827850
0.835325 0.735325 0.835325
0.835325 0.735325 0.835325
0.119170 0.799170 0.799170
0.119170 0.799170 0.799170
0.119170 0.799170 0.799170
0.258887 0.808887 0.808887
0.420100 0.820100 0.820100
0.581312 0.831313 0.831313
0.742525 0.842525 0.842525
0.850000 0.850000 0.850000
0.850000 0.850000 0.850000
0.119170 0.799170 0.799170
0.119170 0.799170 0.799170
0.119170 0.799170 0.799170
0.258887 0.808887 0.808887
0.420100 0.820100 0.820100
0.581312 0.831313 0.831313
0.742525 0.842525 0.842525
0.850000 0.850000 0.850000
0.850000 0.850000 0.850000
