server/luts/dramatic.cube
TITLE "Dramatic"
LUT_3D_SIZE 5
0.000000 0.000000 0.000000
0.000000 0.000000 0.000000
0.300930 0.020930 0.020930
0.623355 0.043355 0.043355
0.730830 0.050830 0.050830
0.000000 0.000000 0.000000
0.000000 0.000000 0.000000
0.300930 0.020930 0.020930
0.623355 0.043355 0.043355
0.730830 0.050830 0.050830
0.041090 0.321090 0.041090
0.041090 0.321090 0.041090
0.342020 0.342020 0.062020
0.664445 0.364445 0.084445
0.771920 0.371920 0.091920
0.085115 0.665115 0.085115
0.085115 0.665115 0.085115
0.386045 0.686045 0.106045
0.708470 0.708470 0.128470
0.815945 0.715945 0.135945
0.099790 0.779790 0.099790
0.099790 0.779790 0.099790
0.400720 0.800720 0.120720
0.723145 0.823145 0.143145
0.830620 0.830620 0.150620
0.000000 0.000000 0.000000
0.000000 0.000000 0.000000
0.300930 0.020930 0.020930
0.623355 0.043355 0.043355
0.730830 0.050830 0.050830
0.000000 0.000000 0.000000
0.000000 0.000000 0.000000
0.300930 0.020930 0.020930
0.623355 0.043355 0.043355
0.730830 0.050830 0.050830
0.041090 0.321090 0.041090
0.041090 0.321090 0.041090
0.342020 0.342020 0.062020
0.664445 0.364445 0.084445
0.771920 0.371920 0.091920
0.085115 0.665115 0.085115
0.085115 0.665115 0.085115
0.386045 0.686045 0.106045
0.708470 0.708470 0.128470
0.815945 0.715945 0.135945
0.099790 0.779790 0.099790
0.099790 0.779790 0.099790
0.400720 0.800720 0.120720
0.723145 0.823145 0.143145
0.830620 0.830620 0.150620
0.007980 0.007980 0.287980
0.007980 0.007980 0.287980
0.308910 0.028910 0.308910
0.631335 0.051335 0.331335
0.738810 0.058810 0.338810
0.007980 0.007980 0.287980
0.007980 0.007980 0.287980
0.308910 0.028910 0.308910
0.631335 0.051335 0.331335
0.738810 0.058810 0.338810
0.049070 0.329070 0.329070
0.049070 0.329070 0.329070
0.350000 0.350000 0.350000
0.672425 0.372425 0.372425
0.779900 0.379900 0.379900
0.093095 0.673095 0.373095
0.093095 0.673095 0.373095
0.394025 0.694025 0.394025
0.716450 0.716450 0.416450
0.823925 0.723925 0.423925
0.107770 0.787770 0.387770
0.107770 0.787770 0.387770
0.408700 0.808700 0.408700
0.731125 0.831125 0.431125
0.838600 0.838600 0.438600
0.016530 0.016530 0.596530
0.016530 0.016530 0.596530
0.317460 0.037460 0.617460
0.639885 0.059885 0.639885
0.747360 0.067360 0.647360
0.016530 0.016530 0.596530
0.016530 0.016530 0.596530
0.317460 0.037460 0.617460
0.639885 0.059885 0.639885
0.747360 0.067360 0.647360
0.057620 0.337620 0.637620
0.057620 0.337620 0.637620
0.358550 0.358550 0.658550
0.680975 0.380975 0.680975
0.788450 0.388450 0.688450
0.101645 0.681645 0.681645
0.101645 0.681645 0.681645
0.402575 0.702575 0.702575
0.725000 0.725000 0.725000
0.832475 0.732475 0.732475
0.116320 0.796320 0.696320
0.116320 0.796320 0.696320
0.417250 0.817250 0.717250
0.739675 0.839675 0.739675
0.847150 0.847150 0.747150
0.019380 0.019380 0.699380
0.019380 0.019380 0.699380
0.320310 0.040310 0.720310
0.642735 0.062735 0.742735
0.750210 0.070210 0.750210
0.019380 0.019380 0.699380
0.019380 0.019380 0.699380
0.320310 0.040310 0.720310
0.642735 0.062735 0.742735
0.750210 0.070210 0.750210
0.060470 0.340470 0.740470
0.060470 0.340470 0.740470
0.361400 0.361400 0.761400
0.683825 0.383825 0.783825
0.791300 0.391300 0.791300
0.104495 0.684495 0.784495
0.104495 0.684495 0.784495
0.405425 0.705425 0.805425
0.727850 0.727850 0.827850
0.835325 0.735325 0.835325
0.119170 0.799170 0.799170
0.119170 0.799170 0.799170
0.420100 0.820100 0.820100
0.742525 0.842525 0.842525
0.850000 0.850000 0.850000
