server/luts/dramatic.cube
TITLE "Dramatic"
LUT_3D_SIZE 17
0.000000 0.000000 0.000000
0.000000 0.000000 0.000000
0.000000 0.000000 0.000000
0.000000 0.000000 0.000000
0.000000 0.000000 0.000000
0.059111 0.004111 0.004111
0.139717 0.009717 0.009717
0.220324 0.015324 0.015324
0.300930 0.020930 0.020930
0.381536 0.026536 0.026536
0.462143 0.032142 0.032142
0.542749 0.037749 0.037749
0.623355 0.043355 0.043355
0.703961 0.048961 0.048961
0.730830 0.050830 0.050830
0.730830 0.050830 0.050830
0.730830 0.050830 0.050830
0.000000 0.000000 0.000000
0.000000 0.000000 0.000000
0.000000 0.000000 0.000000
0.000000 0.000000 0.000000
0.000000 0.000000 0.000000
0.059111 0.004111 0.004111
0.139717 0.009717 0.009717
0.220324 0.015324 0.015324
0.300930 0.020930 0.020930
0.381536 0.026536 0.026536
0.462143 0.032142 0.032142
0.542749 0.037749 0.037749
0.623355 0.043355 0.043355
0.703961 0.048961 0.048961
0.730830 0.050830 0.050830
0.730830 0.050830 0.050830
0.730830 0.050830 0.050830
0.000000 0.000000 0.000000
0.000000 0.000000 0.000000
0.000000 0.000000 0.000000
0.000000 0.000000 0.000000
0.000000 0.000000 0.000000
0.059111 0.004111 0.004111
0.139717 0.009717 0.009717
0.220324 0.015324 0.015324
0.300930 0.020930 0.020930
0.381536 0.026536 0.026536
0.462143 0.032142 0.032142
0.542749 0.037749 0.037749
0.623355 0.043355 0.043355
0.703961 0.048961 0.048961
0.730830 0.050830 0.050830
0.730830 0.050830 0.050830
0.730830 0.050830 0.050830
0.000000 0.000000 0.000000
0.000000 0.000000 0.000000
0.000000 0.000000 0.000000
0.000000 0.000000 0.000000
0.000000 0.000000 0.000000
0.059111 0.004111 0.004111
0.139717 0.009717 0.009717
0.220324 0.015324 0.015324
0.300930 0.020930 0.020930
0.381536 0.026536 0.026536
0.462143 0.032142 0.032142
0.542749 0.037749 0.037749
0.623355 0.043355 0.043355
0.703961 0.048961 0.048961
0.730830 0.050830 0.050830
0.730830 0.050830 0.050830
0.730830 0.050830 0.050830
0.000000 0.000000 0.000000
0.000000 0.000000 0.000000
0.000000 0.000000 0.000000
0.000000 0.000000 0.000000
0.000000 0.000000 0.000000
0.059111 0.004111 0.004111
0.139717 0.009717 0.009717
0.220324 0.015324 0.015324
0.300930 0.020930 0.020930
0.381536 0.026536 0.026536
0.462143 0.032142 0.032142
0.542749 0.037749 0.037749
0.623355 0.043355 0.043355
0.703961 0.048961 0.048961
0.730830 0.050830 0.050830
0.730830 0.050830 0.050830
0.730830 0.050830 0.050830
0.008071 0.063071 0.008071
0.008071 0.063071 0.008071
0.008071 0.063071 0.008071
0.008071 0.063071 0.008071
0.008071 0.063071 0.008071
0.067183 0.067183 0.012182
0.147789 0.072789 0.017789
0.228395 0.078395 0.023395
0.309001 0.084001 0.029001
0.389607 0.089608 0.034607
0.470214 0.095214 0.040214
0.550820 0.100820 0.045820
0.631426 0.106426 0.051426
0.712033 0.112032 0.057032
0.738901 0.113901 0.058901
0.738901 0.113901 0.058901
0.738901 0.113901 0.058901
0.019077 0.149078 0.019077
0.019077 0.149078 0.019077
0.019077 0.149078 0.019077
0.019077 0.149078 0.019077
0.019077 0.149078 0.019077
0.078189 0.153189 0.023189
0.158795 0.158795 0.028795
0.239401 0.164401 0.034401
0.320008 0.170008 0.040007
0.400614 0.175614 0.045614
0.481220 0.181220 0.051220
0.561826 0.186826 0.056826
0.642432 0.192433 0.062433
0.723039 0.198039 0.068039
0.749908 0.199907 0.069908
0.749908 0.199907 0.069908
0.749908 0.199907 0.069908
0.030084 0.235084 0.030084
0.030084 0.235084 0.030084
0.030084 0.235084 0.030084
0.030084 0.235084 0.030084
0.030084 0.235084 0.030084
0.089195 0.239195 0.034195
0.169801 0.244801 0.039801
0.250408 0.250408 0.045407
0.331014 0.256014 0.051014
0.411620 0.261620 0.056620
0.492226 0.267226 0.062226
0.572832 0.272832 0.067832
0.653439 0.278439 0.073439
0.734045 0.284045 0.079045
0.760914 0.285914 0.080914
0.760914 0.285914 0.080914
0.760914 0.285914 0.080914
0.041090 0.321090 0.041090
0.041090 0.321090 0.041090
0.041090 0.321090 0.041090
0.041090 0.321090 0.041090
0.041090 0.321090 0.041090
0.100201 0.325201 0.045201
0.180808 0.330807 0.050807
0.261414 0.336414 0.056414
0.342020 0.342020 0.062020
0.422626 0.347626 0.067626
0.503232 0.353232 0.073232
0.583839 0.358839 0.078839
0.664445 0.364445 0.084445
0.745051 0.370051 0.090051
0.771920 0.371920 0.091920
0.771920 0.371920 0.091920
0.771920 0.371920 0.091920
0.052096 0.407096 0.052096
0.052096 0.407096 0.052096
0.052096 0.407096 0.052096
0.052096 0.407096 0.052096
0.052096 0.407096 0.052096
0.111207 0.411207 0.056207
0.191814 0.416814 0.061814
0.272420 0.422420 0.067420
0.353026 0.428026 0.073026
0.433632 0.433632 0.078632
0.514239 0.439239 0.084239
0.594845 0.444845 0.089845
0.675451 0.450451 0.095451
0.756058 0.456058 0.101057
0.782926 0.457926 0.102926
0.782926 0.457926 0.102926
0.782926 0.457926 0.102926
0.063103 0.493102 0.063103
0.063103 0.493102 0.063103
0.063103 0.493102 0.063103
0.063103 0.493102 0.063103
0.063103 0.493102 0.063103
0.122214 0.497214 0.067214
0.202820 0.502820 0.072820
0.283426 0.508426 0.078426
0.364032 0.514033 0.084032
0.444639 0.519639 0.089639
0.525245 0.525245 0.095245
0.605851 0.530851 0.100851
0.686457 0.536458 0.106457
0.767064 0.542064 0.112064
0.793932 0.543932 0.113932
0.793932 0.543932 0.113932
0.793932 0.543932 0.113932
0.074109 0.579109 0.074109
0.074109 0.579109 0.074109
0.074109 0.579109 0.074109
0.074109 0.579109 0.074109
0.074109 0.579109 0.074109
0.133220 0.583220 0.078220
0.213826 0.588826 0.083826
0.294432 0.594432 0.089432
0.375039 0.600039 0.095039
0.455645 0.605645 0.100645
0.536251 0.611251 0.106251
0.616857 0.616857 0.111857
0.697464 0.622464 0.117464
0.778070 0.628070 0.123070
0.804939 0.629939 0.124939
0.804939 0.629939 0.124939
0.804939 0.629939 0.124939
0.085115 0.665115 0.085115
0.085115 0.665115 0.085115
0.085115 0.665115 0.085115
0.085115 0.665115 0.085115
0.085115 0.665115 0.085115
0.144226 0.669226 0.089226
0.224833 0.674832 0.094832
0.305439 0.680439 0.100439
0.386045 0.686045 0.106045
0.466651 0.691651 0.111651
0.547257 0.697257 0.117257
0.627864 0.702864 0.122864
0.708470 0.708470 0.128470
0.789076 0.714076 0.134076
0.815945 0.715945 0.135945
0.815945 0.715945 0.135945
0.815945 0.715945 0.135945
0.096121 0.751121 0.096121
0.096121 0.751121 0.096121
0.096121 0.751121 0.096121
0.096121 0.751121 0.096121
0.096121 0.751121 0.096121
0.155232 0.755232 0.100232
0.235839 0.760839 0.105839
0.316445 0.766445 0.111445
0.397051 0.772051 0.117051
0.477657 0.777658 0.122657
0.558264 0.783264 0.128264
0.638870 0.788870 0.133870
0.719476 0.794476 0.139476
0.800082 0.800082 0.145083
0.826951 0.801951 0.146951
0.826951 0.801951 0.146951
0.826951 0.801951 0.146951
0.099790 0.779790 0.099790
0.099790 0.779790 0.099790
0.099790 0.779790 0.099790
0.099790 0.779790 0.099790
0.099790 0.779790 0.099790
0.158901 0.783901 0.103901
0.239507 0.789508 0.109507
0.320114 0.795114 0.115114
0.400720 0.800720 0.120720
0.481326 0.806326 0.126326
0.561932 0.811932 0.131933
0.642539 0.817539 0.137539
0.723145 0.823145 0.143145
0.803751 0.828751 0.148751
0.830620 0.830620 0.150620
0.830620 0.830620 0.150620
0.830620 0.830620 0.150620
0.099790 0.779790 0.099790
0.099790 0.779790 0.099790
0.099790 0.779790 0.099790
0.099790 0.779790 0.099790
0.099790 0.779790 0.099790
0.158901 0.783901 0.103901
0.239507 0.789508 0.109507
0.320114 0.795114 0.115114
0.400720 0.800720 0.120720
0.481326 0.806326 0.126326
0.561932 0.811932 0.131933
0.642539 0.817539 0.137539
0.723145 0.823145 0.143145
0.803751 0.828751 0.148751
0.830620 0.830620 0.150620
0.830620 0.830620 0.150620
0.830620 0.830620 0.150620
0.099790 0.779790 0.099790
0.099790 0.779790 0.099790
0.099790 0.779790 0.099790
0.099790 0.779790 0.099790
0.099790 0.779790 0.099790
0.158901 0.783901 0.103901
0.239507 0.789508 0.109507
0.320114 0.795114 0.115114
0.400720 0.800720 0.120720
0.481326 0.806326 0.126326
0.561932 0.811932 0.131933
0.642539 0.817539 0.137539
0.723145 0.823145 0.143145
0.803751 0.828751 0.148751
0.830620 0.830620 0.150620
0.830620 0.830620 0.150620
0.830620 0.830620 0.150620
0.000000 0.000000 0.000000
0.000000 0.000000 0.000000
0.000000 0.000000 0.000000
0.000000 0.000000 0.000000
0.000000 0.000000 0.000000
0.059111 0.004111 0.004111
0.139717 0.009717 0.009717
0.220324 0.015324 0.015324
0.300930 0.020930 0.020930
0.381536 0.026536 0.026536
0.462143 0.032142 0.032142
0.542749 0.037749 0.037749
0.623355 0.043355 0.043355
0.703961 0.048961 0.048961
0.730830 0.050830 0.050830
0.730830 0.050830 0.050830
0.730830 0.050830 0.050830
0.000000 0.000000 0.000000
0.000000 0.000000 0.000000
0.000000 0.000000 0.000000
0.000000 0.000000 0.000000
0.000000 0.000000 0.000000
0.059111 0.004111 0.004111
0.139717 0.009717 0.009717
0.220324 0.015324 0.015324
0.300930 0.020930 0.020930
0.381536 0.026536 0.026536
0.462143 0.032142 0.032142
0.542749 0.037749 0.037749
0.623355 0.043355 0.043355
0.703961 0.048961 0.048961
0.730830 0.050830 0.050830
0.730830 0.050830 0.050830
0.730830 0.050830 0.050830
0.000000 0.000000 0.000000
0.000000 0.000000 0.000000
0.000000 0.000000 0.000000
0.000000 0.000000 0.000000
0.000000 0.000000 0.000000
0.059111 0.004111 0.004111
0.139717 0.009717 0.009717
0.220324 0.015324 0.015324
0.300930 0.020930 0.020930
0.381536 0.026536 0.026536
0.462143 0.032142 0.032142
0.542749 0.037749 0.037749
0.623355 0.043355 0.043355
0.703961 0.048961 0.048961
0.730830 0.050830 0.050830
0.730830 0.050830 0.050830
0.730830 0.050830 0.050830
0.000000 0.000000 0.000000
0.000000 0.000000 0.000000
0.000000 0.000000 0.000000
0.000000 0.000000 0.000000
0.000000 0.000000 0.000000
0.059111 0.004111 0.004111
0.139717 0.009717 0.009717
0.220324 0.015324 0.015324
0.300930 0.020930 0.020930
0.381536 0.026536 0.026536
0.462143 0.032142 0.032142
0.542749 0.037749 0.037749
0.623355 0.043355 0.043355
0.703961 0.048961 0.048961
0.730830 0.050830 0.050830
0.730830 0.050830 0.050830
0.730830 0.050830 0.050830
0.000000 0.000000 0.000000
0.000000 0.000000 0.000000
0.000000 0.000000 0.000000
0.000000 0.000000 0.000000
0.000000 0.000000 0.000000
0.059111 0.004111 0.004111
0.139717 0.009717 0.009717
0.220324 0.015324 0.015324
0.300930 0.020930 0.020930
0.381536 0.026536 0.026536
0.462143 0.032142 0.032142
0.542749 0.037749 0.037749
0.623355 0.043355 0.043355
0.703961 0.048961 0.048961
0.730830 0.050830 0.050830
0.730830 0.050830 0.050830
0.730830 0.050830 0.050830
0.008071 0.063071 0.008071
0.008071 0.063071 0.008071
0.008071 0.063071 0.008071
0.008071 0.063071 0.008071
0.008071 0.063071 0.008071
0.067183 0.067183 0.012182
0.147789 0.072789 0.017789
0.228395 0.078395 0.023395
0.309001 0.084001 0.029001
0.389607 0.089608 0.034607
0.470214 0.095214 0.040214
0.550820 0.100820 0.045820
0.631426 0.106426 0.051426
0.712033 0.112032 0.057032
0.738901 0.113901 0.058901
0.738901 0.113901 0.058901
0.738901 0.113901 0.058901
0.019077 0.149078 0.019077
0.019077 0.149078 0.019077
0.019077 0.149078 0.019077
0.019077 0.149078 0.019077
0.019077 0.149078 0.019077
0.078189 0.153189 0.023189
0.158795 0.158795 0.028795
0.239401 0.164401 0.034401
0.320008 0.170008 0.040007
0.400614 0.175614 0.045614
0.481220 0.181220 0.051220
0.561826 0.186826 0.056826
0.642432 0.192433 0.062433
0.723039 0.198039 0.068039
0.749908 0.199907 0.069908
0.749908 0.199907 0.069908
0.749908 0.199907 0.069908
0.030084 0.235084 0.030084
0.030084 0.235084 0.030084
0.030084 0.235084 0.030084
0.030084 0.235084 0.030084
0.030084 0.235084 0.030084
0.089195 0.239195 0.034195
0.169801 0.244801 0.039801
0.250408 0.250408 0.045407
0.331014 0.256014 0.051014
0.411620 0.261620 0.056620
0.492226 0.267226 0.062226
0.572832 0.272832 0.067832
0.653439 0.278439 0.073439
0.734045 0.284045 0.079045
0.760914 0.285914 0.080914
0.760914 0.285914 0.080914
0.760914 0.285914 0.080914
0.041090 0.321090 0.041090
0.041090 0.321090 0.041090
0.041090 0.321090 0.041090
0.041090 0.321090 0.041090
0.041090 0.321090 0.041090
0.100201 0.325201 0.045201
0.180808 0.330807 0.050807
0.261414 0.336414 0.056414
0.342020 0.342020 0.062020
0.422626 0.347626 0.067626
0.503232 0.353232 0.073232
0.583839 0.358839 0.078839
0.664445 0.364445 0.084445
0.745051 0.370051 0.090051
0.771920 0.371920 0.091920
0.771920 0.371920 0.091920
0.771920 0.371920 0.091920
0.052096 0.407096 0.052096
0.052096 0.407096 0.052096
0.052096 0.407096 0.052096
0.052096 0.407096 0.052096
0.052096 0.407096 0.052096
0.111207 0.411207 0.056207
0.191814 0.416814 0.061814
0.272420 0.422420 0.067420
0.353026 0.428026 0.073026
0.433632 0.433632 0.078632
0.514239 0.439239 0.084239
0.594845 0.444845 0.089845
0.675451 0.450451 0.095451
0.756058 0.456058 0.101057
0.782926 0.457926 0.102926
0.782926 0.457926 0.102926
0.782926 0.457926 0.102926
0.063103 0.493102 0.063103
0.063103 0.493102 0.063103
0.063103 0.493102 0.063103
0.063103 0.493102 0.063103
0.063103 0.493102 0.063103
0.122214 0.497214 0.067214
0.202820 0.502820 0.072820
0.283426 0.508426 0.078426
0.364032 0.514033 0.084032
0.444639 0.519639 0.089639
0.525245 0.525245 0.095245
0.605851 0.530851 0.100851
0.686457 0.536458 0.106457
0.767064 0.542064 0.112064
0.793932 0.543932 0.113932
0.793932 0.543932 0.113932
0.793932 0.543932 0.113932
0.074109 0.579109 0.074109
0.074109 0.579109 0.074109
0.074109 0.579109 0.074109
0.074109 0.579109 0.074109
0.074109 0.579109 0.074109
0.133220 0.583220 0.078220
0.213826 0.588826 0.083826
0.294432 0.594432 0.089432
0.375039 0.600039 0.095039
0.455645 0.605645 0.100645
0.536251 0.611251 0.106251
0.616857 0.616857 0.111857
0.697464 0.622464 0.117464
0.778070 0.628070 0.123070
0.804939 0.629939 0.124939
0.804939 0.629939 0.124939
0.804939 0.629939 0.124939
0.085115 0.665115 0.085115
0.085115 0.665115 0.085115
0.085115 0.665115 0.085115
0.085115 0.665115 0.085115
0.085115 0.665115 0.085115
0.144226 0.669226 0.089226
0.224833 0.674832 0.094832
0.305439 0.680439 0.100439
0.386045 0.686045 0.106045
0.466651 0.691651 0.111651
0.547257 0.697257 0.117257
0.627864 0.702864 0.122864
0.708470 0.708470 0.128470
0.789076 0.714076 0.134076
0.815945 0.715945 0.135945
0.815945 0.715945 0.135945
0.815945 0.715945 0.135945
0.096121 0.751121 0.096121
0.096121 0.751121 0.096121
0.096121 0.751121 0.096121
0.096121 0.751121 0.096121
0.096121 0.751121 0.096121
0.155232 0.755232 0.100232
0.235839 0.760839 0.105839
0.316445 0.766445 0.111445
0.397051 0.772051 0.117051
0.477657 0.777658 0.122657
0.558264 0.783264 0.128264
0.638870 0.788870 0.133870
0.719476 0.794476 0.139476
0.800082 0.800082 0.145083
0.826951 0.801951 0.146951
0.826951 0.801951 0.146951
0.826951 0.801951 0.146951
0.099790 0.779790 0.099790
0.099790 0.779790 0.099790
0.099790 0.779790 0.099790
0.099790 0.779790 0.099790
0.099790 0.779790 0.099790
0.158901 0.783901 0.103901
0.239507 0.789508 0.109507
0.320114 0.795114 0.115114
0.400720 0.800720 0.120720
0.481326 0.806326 0.126326
0.561932 0.811932 0.131933
0.642539 0.817539 0.137539
0.723145 0.823145 0.143145
0.803751 0.828751 0.148751
0.830620 0.830620 0.150620
0.830620 0.830620 0.150620
0.830620 0.830620 0.150620
0.099790 0.779790 0.099790
0.099790 0.779790 0.099790
0.099790 0.779790 0.099790
0.099790 0.779790 0.099790
0.099790 0.779790 0.099790
0.158901 0.783901 0.103901
0.239507 0.789508 0.109507
0.320114 0.795114 0.115114
0.400720 0.800720 0.120720
0.481326 0.806326 0.126326
0.561932 0.811932 0.131933
0.642539 0.817539 0.137539
0.723145 0.823145 0.143145
0.803751 0.828751 0.148751
0.830620 0.830620 0.150620
0.830620 0.830620 0.150620
0.830620 0.830620 0.150620
0.099790 0.779790 0.099790
0.099790 0.779790 0.099790
0.099790 0.779790 0.099790
0.099790 0.779790 0.099790
0.099790 0.779790 0.099790
0.158901 0.783901 0.103901
0.239507 0.789508 0.109507
0.320114 0.795114 0.115114
0.400720 0.800720 0.120720
0.481326 0.806326 0.126326
0.561932 0.811932 0.131933
0.642539 0.817539 0.137539
0.723145 0.823145 0.143145
0.803751 0.828751 0.148751
0.830620 0.830620 0.150620
0.830620 0.830620 0.150620
0.830620 0.830620 0.150620
0.000000 0.000000 0.000000
0.000000 0.000000 0.000000
0.000000 0.000000 0.000000
0.000000 0.000000 0.000000
0.000000 0.000000 0.000000
0.059111 0.004111 0.004111
0.139717 0.009717 0.009717
0.220324 0.015324 0.015324
0.300930 0.020930 0.020930
0.381536 0.026536 0.026536
0.462143 0.032142 0.032142
0.542749 0.037749 0.037749
0.623355 0.043355 0.043355
0.703961 0.048961 0.048961
0.730830 0.050830 0.050830
0.730830 0.050830 0.050830
0.730830 0.050830 0.050830
0.000000 0.000000 0.000000
0.000000 0.000000 0.000000
0.000000 0.000000 0.000000
0.000000 0.000000 0.000000
0.000000 0.000000 0.000000
0.059111 0.004111 0.004111
0.139717 0.009717 0.009717
0.220324 0.015324 0.015324
0.300930 0.020930 0.020930
0.381536 0.026536 0.026536
0.462143 0.032142 0.032142
0.542749 0.037749 0.037749
0.623355 0.043355 0.043355
0.703961 0.048961 0.048961
0.730830 0.050830 0.050830
0.730830 0.050830 0.050830
0.730830 0.050830 0.050830
0.000000 0.000000 0.000000
0.000000 0.000000 0.000000
0.000000 0.000000 0.000000
0.000000 0.000000 0.000000
0.000000 0.000000 0.000000
0.059111 0.004111 0.004111
0.139717 0.009717 0.009717
0.220324 0.015324 0.015324
0.300930 0.020930 0.020930
0.381536 0.026536 0.026536
0.462143 0.032142 0.032142
0.542749 0.037749 0.037749
0.623355 0.043355 0.043355
0.703961 0.048961 0.048961
0.730830 0.050830 0.050830
0.730830 0.050830 0.050830
0.730830 0.050830 0.050830
0.000000 0.000000 0.000000
0.000000 0.000000 0.000000
0.000000 0.000000 0.000000
0.000000 0.000000 0.000000
0.000000 0.000000 0.000000
0.059111 0.004111 0.004111
0.139717 0.009717 0.009717
0.220324 0.015324 0.015324
0.300930 0.020930 0.020930
0.381536 0.026536 0.026536
0.462143 0.032142 0.032142
0.542749 0.037749 0.037749
0.623355 0.043355 0.043355
0.703961 0.048961 0.048961
0.730830 0.050830 0.050830
0.730830 0.050830 0.050830
0.730830 0.050830 0.050830
0.000000 0.000000 0.000000
0.000000 0.000000 0.000000
0.000000 0.000000 0.000000
0.000000 0.000000 0.000000
0.000000 0.000000 0.000000
0.059111 0.004111 0.004111
0.139717 0.009717 0.009717
0.220324 0.015324 0.015324
0.300930 0.020930 0.020930
0.381536 0.026536 0.026536
0.462143 0.032142 0.032142
0.542749 0.037749 0.037749
0.623355 0.043355 0.043355
0.703961 0.048961 0.048961
0.730830 0.050830 0.050830
0.730830 0.050830 0.050830
0.730830 0.050830 0.050830
0.008071 0.063071 0.008071
0.008071 0.063071 0.008071
0.008071 0.063071 0.008071
0.008071 0.063071 0.008071
0.008071 0.063071 0.008071
0.067183 0.067183 0.012182
0.147789 0.072789 0.017789
0.228395 0.078395 0.023395
0.309001 0.084001 0.029001
0.389607 0.089608 0.034607
0.470214 0.095214 0.040214
0.550820 0.100820 0.045820
0.631426 0.106426 0.051426
0.712033 0.112032 0.057032
0.738901 0.113901 0.058901
0.738901 0.113901 0.058901
0.738901 0.113901 0.058901
0.019077 0.149078 0.019077
0.019077 0.149078 0.019077
0.019077 0.149078 0.019077
0.019077 0.149078 0.019077
0.019077 0.149078 0.019077
0.078189 0.153189 0.023189
0.158795 0.158795 0.028795
0.239401 0.164401 0.034401
0.320008 0.170008 0.040007
0.400614 0.175614 0.045614
0.481220 0.181220 0.051220
0.561826 0.186826 0.056826
0.642432 0.192433 0.062433
0.723039 0.198039 0.068039
0.749908 0.199907 0.069908
0.749908 0.199907 0.069908
0.749908 0.199907 0.069908
0.030084 0.235084 0.030084
0.030084 0.235084 0.030084
0.030084 0.235084 0.030084
0.030084 0.235084 0.030084
0.030084 0.235084 0.030084
0.089195 0.239195 0.034195
0.169801 0.244801 0.039801
0.250408 0.250408 0.045407
0.331014 0.256014 0.051014
0.411620 0.261620 0.056620
0.492226 0.267226 0.062226
0.572832 0.272832 0.067832
0.653439 0.278439 0.073439
0.734045 0.284045 0.079045
0.760914 0.285914 0.080914
0.760914 0.285914 0.080914
0.760914 0.285914 0.080914
0.041090 0.321090 0.041090
0.041090 0.321090 0.041090
0.041090 0.321090 0.041090
0.041090 0.321090 0.041090
0.041090 0.321090 0.041090
0.100201 0.325201 0.045201
0.180808 0.330807 0.050807
0.261414 0.336414 0.056414
0.342020 0.342020 0.062020
0.422626 0.347626 0.067626
0.503232 0.353232 0.073232
0.583839 0.358839 0.078839
0.664445 0.364445 0.084445
0.745051 0.370051 0.090051
0.771920 0.371920 0.091920
0.771920 0.371920 0.091920
0.771920 0.371920 0.091920
0.052096 0.407096 0.052096
0.052096 0.407096 0.052096
0.052096 0.407096 0.052096
0.052096 0.407096 0.052096
0.052096 0.407096 0.052096
0.111207 0.411207 0.056207
0.191814 0.416814 0.061814
0.272420 0.422420 0.067420
0.353026 0.428026 0.073026
0.433632 0.433632 0.078632
0.514239 0.439239 0.084239
0.594845 0.444845 0.089845
0.675451 0.450451 0.095451
0.756058 0.456058 0.101057
0.782926 0.457926 0.102926
0.782926 0.457926 0.102926
0.782926 0.457926 0.102926
0.063103 0.493102 0.063103
0.063103 0.493102 0.063103
0.063103 0.493102 0.063103
0.063103 0.493102 0.063103
0.063103 0.493102 0.063103
0.122214 0.497214 0.067214
0.202820 0.502820 0.072820
0.283426 0.508426 0.078426
0.364032 0.514033 0.084032
0.444639 0.519639 0.089639
0.525245 0.525245 0.095245
0.605851 0.530851 0.100851
0.686457 0.536458 0.106457
0.767064 0.542064 0.112064
0.793932 0.543932 0.113932
0.793932 0.543932 0.113932
0.793932 0.543932 0.113932
0.074109 0.579109 0.074109
0.074109 0.579109 0.074109
0.074109 0.579109 0.074109
0.074109 0.579109 0.074109
0.074109 0.579109 0.074109
0.133220 0.583220 0.078220
0.213826 0.588826 0.083826
0.294432 0.594432 0.089432
0.375039 0.600039 0.095039
0.455645 0.605645 0.100645
0.536251 0.611251 0.106251
0.616857 0.616857 0.111857
0.697464 0.622464 0.117464
0.778070 0.628070 0.123070
0.804939 0.629939 0.124939
0.804939 0.629939 0.124939
0.804939 0.629939 0.124939
0.085115 0.665115 0.085115
0.085115 0.665115 0.085115
0.085115 0.665115 0.085115
0.085115 0.665115 0.085115
0.085115 0.665115 0.085115
0.144226 0.669226 0.089226
0.224833 0.674832 0.094832
0.305439 0.680439 0.100439
0.386045 0.686045 0.106045
0.466651 0.691651 0.111651
0.547257 0.697257 0.117257
0.627864 0.702864 0.122864
0.708470 0.708470 0.128470
0.789076 0.714076 0.134076
0.815945 0.715945 0.135945
0.815945 0.715945 0.135945
0.815945 0.715945 0.135945
0.096121 0.751121 0.096121
0.096121 0.751121 0.096121
0.096121 0.751121 0.096121
0.096121 0.751121 0.096121
0.096121 0.751121 0.096121
0.155232 0.755232 0.100232
0.235839 0.760839 0.105839
0.316445 0.766445 0.111445
0.397051 0.772051 0.117051
0.477657 0.777658 0.122657
0.558264 0.783264 0.128264
0.638870 0.788870 0.133870
0.719476 0.794476 0.139476
0.800082 0.800082 0.145083
0.826951 0.801951 0.146951
0.826951 0.801951 0.146951
0.826951 0.801951 0.146951
0.099790 0.779790 0.099790
0.099790 0.779790 0.099790
0.099790 0.779790 0.099790
0.099790 0.779790 0.099790
0.099790 0.779790 0.099790
0.158901 0.783901 0.103901
0.239507 0.789508 0.109507
0.320114 0.795114 0.115114
0.400720 0.800720 0.120720
0.481326 0.806326 0.126326
0.561932 0.811932 0.131933
0.642539 0.817539 0.137539
0.723145 0.823145 0.143145
0.803751 0.828751 0.148751
0.830620 0.830620 0.150620
0.830620 0.830620 0.150620
0.830620 0.830620 0.150620
0.099790 0.779790 0.099790
0.099790 0.779790 0.099790
0.099790 0.779790 0.099790
0.099790 0.779790 0.099790
0.099790 0.779790 0.099790
0.158901 0.783901 0.103901
0.239507 0.789508 0.109507
0.320114 0.795114 0.115114
0.400720 0.800720 0.120720
0.481326 0.806326 0.126326
0.561932 0.811932 0.131933
0.642539 0.817539 0.137539
0.723145 0.823145 0.143145
0.803751 0.828751 0.148751
0.830620 0.830620 0.150620
0.830620 0.830620 0.150620
0.830620 0.830620 0.150620
0.099790 0.779790 0.099790
0.099790 0.779790 0.099790
0.099790 0.779790 0.099790
0.099790 0.779790 0.099790
0.099790 0.779790 0.099790
0.158901 0.783901 0.103901
0.239507 0.789508 0.109507
0.320114 0.795114 0.115114
0.400720 0.800720 0.120720
0.481326 0.806326 0.126326
0.561932 0.811932 0.131933
0.642539 0.817539 0.137539
0.723145 0.823145 0.143145
0.803751 0.828751 0.148751
0.830620 0.830620 0.150620
0.830620 0.830620 0.150620
0.830620 0.830620 0.150620
0.000000 0.000000 0.000000
0.000000 0.000000 0.000000
0.000000 0.000000 0.000000
0.000000 0.000000 0.000000
0.000000 0.000000 0.000000
0.059111 0.004111 0.004111
0.139717 0.009717 0.009717
0.220324 0.015324 0.015324
0.300930 0.020930 0.020930
0.381536 0.026536 0.026536
0.462143 0.032142 0.032142
0.542749 0.037749 0.037749
0.623355 0.043355 0.043355
0.703961 0.048961 0.048961
0.730830 0.050830 0.050830
0.730830 0.050830 0.050830
0.730830 0.050830 0.050830
0.000000 0.000000 0.000000
0.000000 0.000000 0.000000
0.000000 0.000000 0.000000
