server/luts/golden.cube
TITLE "Golden"
LUT_3D_SIZE 5
0.055000 0.050000 0.045000
0.321522 0.037293 0.033563
0.682110 0.020100 0.018090
1.000000 0.002908 0.002617
1.000000 0.000000 0.000000
0.027558 0.280053 0.022547
0.294080 0.267345 0.011111
0.654668 0.250152 0.000000
1.000000 0.232960 0.000000
1.000000 0.223243 0.000000
0.000000 0.591300 0.000000
0.256952 0.578593 0.000000
0.617540 0.561400 0.000000
0.978128 0.544208 0.000000
1.000000 0.534490 0.000000
0.000000 0.902548 0.000000
0.219824 0.889840 0.000000
0.580412 0.872648 0.000000
0.941001 0.855455 0.000000
1.000000 0.845738 0.000000
0.000000 1.000000 0.000000
0.198839 1.000000 0.000000
0.559427 1.000000 0.000000
0.920015 1.000000 0.000000
1.000000 1.000000 0.000000
0.049671 0.045155 0.270140
0.316192 0.032448 0.258703
0.676781 0.015255 0.243230
1.000000 0.000000 0.227756
1.000000 0.000000 0.219011
0.022228 0.275207 0.247687
0.288750 0.262500 0.236250
0.649338 0.245308 0.220777
1.000000 0.228115 0.205304
1.000000 0.218398 0.196558
0.000000 0.586455 0.217310
0.251622 0.573748 0.205873
0.612211 0.556555 0.190399
0.972799 0.539363 0.174926
1.000000 0.529645 0.166181
0.000000 0.897703 0.186932
0.214495 0.884995 0.175496
0.575083 0.867803 0.160022
0.935671 0.850610 0.144549
1.000000 0.840893 0.135803
0.000000 1.000000 0.169763
0.193509 1.000000 0.158326
0.554098 1.000000 0.142853
0.914686 1.000000 0.127379
1.000000 1.000000 0.118634
0.042460 0.038600 0.574740
0.308982 0.025893 0.563303
0.669570 0.008700 0.547830
1.000000 0.000000 0.532357
1.000000 0.000000 0.523611
0.015018 0.268653 0.552287
0.281540 0.255945 0.540851
0.642128 0.238753 0.525377
1.000000 0.221560 0.509904
1.000000 0.211843 0.501158
0.000000 0.579900 0.521910
0.244412 0.567193 0.510473
0.605000 0.550000 0.495000
0.965588 0.532808 0.479527
1.000000 0.523090 0.470781
0.000000 0.891147 0.491533
0.207284 0.878440 0.480096
0.567872 0.861248 0.464623
0.928461 0.844055 0.449150
1.000000 0.834338 0.440404
0.000000 1.000000 0.474363
0.186299 1.000000 0.462926
0.546887 1.000000 0.447453
0.907475 1.000000 0.431980
1.000000 1.000000 0.423234
0.035250 0.032045 0.879341
0.301771 0.019337 0.867904
0.662360 0.002145 0.852430
1.000000 0.000000 0.836957
1.000000 0.000000 0.828211
0.007807 0.262098 0.856888
0.274329 0.249390 0.845451
0.634917 0.232198 0.829978
0.995506 0.215005 0.814505
1.000000 0.205288 0.805759
0.000000 0.573345 0.826511
0.237201 0.560638 0.815074
0.597790 0.543445 0.799600
0.958378 0.526253 0.784127
1.000000 0.516535 0.775382
0.000000 0.884593 0.796133
0.200074 0.871885 0.784697
0.560662 0.854693 0.769223
0.921250 0.837500 0.753750
1.000000 0.827783 0.745004
0.000000 1.000000 0.778964
0.179088 1.000000 0.767527
0.539677 1.000000 0.752054
0.900265 1.000000 0.736580
1.000000 1.000000 0.727835
0.031174 0.028340 0.900000
0.297696 0.015632 0.900000
0.658284 0.000000 0.900000
1.000000 0.000000 0.900000
1.000000 0.000000 0.900000
0.003732 0.258393 0.900000
0.270254 0.245685 0.900000
0.630842 0.228493 0.900000
0.991430 0.211300 0.900000
1.000000 0.201583 0.900000
0.000000 0.569640 0.900000
0.233126 0.556933 0.900000
0.593714 0.539740 0.900000
0.954302 0.522548 0.900000
1.000000 0.512830 0.900000
0.000000 0.880888 0.900000
0.195998 0.868180 0.900000
0.556586 0.850988 0.900000
0.917175 0.833795 0.900000
1.000000 0.824078 0.900000
0.000000 1.000000 0.900000
0.175013 1.000000 0.900000
0.535601 1.000000 0.900000
0.896189 1.000000 0.900000
1.000000 1.000000 0.900000
