server/luts/golden.cube
TITLE "Golden"
LUT_3D_SIZE 9
0.055000 0.050000 0.045000
0.141228 0.045889 0.041300
0.321522 0.037293 0.033563
0.501816 0.028696 0.025827
0.682110 0.020100 0.018090
0.862404 0.011504 0.010353
1.000000 0.002908 0.002617
1.000000 0.000000 0.000000
1.000000 0.000000 0.000000
0.046122 0.124429 0.037736
0.132349 0.120318 0.034036
0.312643 0.111721 0.026299
0.492938 0.103125 0.018562
0.673232 0.094529 0.010826
0.853526 0.085933 0.003089
1.000000 0.077336 0.000000
1.000000 0.068740 0.000000
1.000000 0.067619 0.000000
0.027558 0.280053 0.022547
0.113785 0.275941 0.018847
0.294080 0.267345 0.011111
0.474374 0.258749 0.003374
0.654668 0.250152 0.000000
0.834962 0.241556 0.000000
1.000000 0.232960 0.000000
1.000000 0.224364 0.000000
1.000000 0.223243 0.000000
0.008994 0.435676 0.007359
0.095222 0.431565 0.003658
0.275516 0.422969 0.000000
0.455810 0.414373 0.000000
0.636104 0.405776 0.000000
0.816398 0.397180 0.000000
0.996692 0.388584 0.000000
1.000000 0.379988 0.000000
1.000000 0.378866 0.000000
0.000000 0.591300 0.000000
0.076658 0.587189 0.000000
0.256952 0.578593 0.000000
0.437246 0.569996 0.000000
0.617540 0.561400 0.000000
0.797834 0.552804 0.000000
0.978128 0.544208 0.000000
1.000000 0.535611 0.000000
1.000000 0.534490 0.000000
0.000000 0.746924 0.000000
0.058094 0.742813 0.000000
0.238388 0.734216 0.000000
0.418682 0.725620 0.000000
0.598976 0.717024 0.000000
0.779270 0.708428 0.000000
0.959564 0.699831 0.000000
1.000000 0.691235 0.000000
1.000000 0.690114 0.000000
0.000000 0.902548 0.000000
0.039530 0.898436 0.000000
0.219824 0.889840 0.000000
0.400118 0.881244 0.000000
0.580412 0.872648 0.000000
0.760706 0.864051 0.000000
0.941001 0.855455 0.000000
1.000000 0.846859 0.000000
1.000000 0.845738 0.000000
0.000000 1.000000 0.000000
0.020966 1.000000 0.000000
0.201260 1.000000 0.000000
0.381554 1.000000 0.000000
0.561848 1.000000 0.000000
0.742143 1.000000 0.000000
0.922437 1.000000 0.000000
1.000000 1.000000 0.000000
1.000000 1.000000 0.000000
0.000000 1.000000 0.000000
0.018545 1.000000 0.000000
0.198839 1.000000 0.000000
0.379133 1.000000 0.000000
0.559427 1.000000 0.000000
0.739721 1.000000 0.000000
0.920015 1.000000 0.000000
1.000000 1.000000 0.000000
1.000000 1.000000 0.000000
0.053276 0.048433 0.117839
0.139503 0.044321 0.114139
0.319798 0.035725 0.106403
0.500092 0.027129 0.098666
0.680386 0.018533 0.090929
0.860680 0.009936 0.083193
1.000000 0.001340 0.075456
1.000000 0.000000 0.067719
1.000000 0.000000 0.066710
0.044397 0.122861 0.110575
0.130625 0.118750 0.106875
0.310919 0.110154 0.099138
0.491213 0.101558 0.091402
0.671507 0.092961 0.083665
0.851802 0.084365 0.075929
1.000000 0.075769 0.068192
1.000000 0.067173 0.060455
1.000000 0.066051 0.059446
0.025834 0.278485 0.095387
0.112061 0.274374 0.091686
0.292355 0.265777 0.083950
0.472649 0.257181 0.076213
0.652944 0.248585 0.068477
0.833238 0.239989 0.060740
1.000000 0.231393 0.053003
1.000000 0.222796 0.045267
1.000000 0.221675 0.044258
0.007270 0.434109 0.080198
0.093497 0.429998 0.076498
0.273791 0.421401 0.068761
0.454086 0.412805 0.061025
0.634380 0.404209 0.053288
0.814674 0.395613 0.045551
0.994968 0.387016 0.037815
1.000000 0.378420 0.030078
1.000000 0.377299 0.029069
0.000000 0.589732 0.065009
0.074933 0.585621 0.061309
0.255228 0.577025 0.053573
0.435522 0.568429 0.045836
0.615816 0.559833 0.038099
0.796110 0.551236 0.030363
0.976404 0.542640 0.022626
1.000000 0.534044 0.014889
1.000000 0.532923 0.013880
0.000000 0.745356 0.049821
0.056370 0.741245 0.046121
0.236664 0.732649 0.038384
0.416958 0.724053 0.030647
0.597252 0.715456 0.022911
0.777546 0.706860 0.015174
0.957840 0.698264 0.007437
1.000000 0.689668 0.000000
1.000000 0.688546 0.000000
0.000000 0.900980 0.034632
0.037806 0.896869 0.030932
0.218100 0.888273 0.023195
0.398394 0.879676 0.015459
0.578688 0.871080 0.007722
0.758982 0.862484 0.000000
0.939276 0.853888 0.000000
1.000000 0.845291 0.000000
1.000000 0.844170 0.000000
0.000000 1.000000 0.019443
0.019242 1.000000 0.015743
0.199536 1.000000 0.008007
0.379830 1.000000 0.000270
0.560124 1.000000 0.000000
0.740418 1.000000 0.000000
0.920712 1.000000 0.000000
1.000000 1.000000 0.000000
1.000000 0.999794 0.000000
0.000000 1.000000 0.017462
0.016820 1.000000 0.013762
0.197115 1.000000 0.006026
0.377409 1.000000 0.000000
0.557703 1.000000 0.000000
0.737997 1.000000 0.000000
0.918291 1.000000 0.000000
1.000000 1.000000 0.000000
1.000000 1.000000 0.000000
0.049671 0.045155 0.270140
0.135898 0.041044 0.266439
0.316192 0.032448 0.258703
0.496486 0.023851 0.250966
0.676781 0.015255 0.243230
0.857075 0.006659 0.235493
1.000000 0.000000 0.227756
1.000000 0.000000 0.220020
1.000000 0.000000 0.219011
0.040792 0.119584 0.262875
0.127020 0.115473 0.259175
0.307314 0.106876 0.251439
0.487608 0.098280 0.243702
0.667902 0.089684 0.235965
0.848196 0.081088 0.228229
1.000000 0.072491 0.220492
1.000000 0.063895 0.212756
1.000000 0.062774 0.211746
0.022228 0.275207 0.247687
0.108456 0.271096 0.243987
0.288750 0.262500 0.236250
0.469044 0.253904 0.228513
0.649338 0.245308 0.220777
0.829632 0.236711 0.213040
1.000000 0.228115 0.205304
1.000000 0.219519 0.197567
1.000000 0.218398 0.196558
0.003664 0.430831 0.232498
0.089892 0.426720 0.228798
0.270186 0.418124 0.221061
0.450480 0.409527 0.213325
0.630774 0.400931 0.205588
0.811069 0.392335 0.197852
0.991363 0.383739 0.190115
1.000000 0.375143 0.182378
1.000000 0.374021 0.181369
0.000000 0.586455 0.217310
0.071328 0.582344 0.213609
0.251622 0.573748 0.205873
0.431916 0.565151 0.198136
0.612211 0.556555 0.190399
0.792505 0.547959 0.182663
0.972799 0.539363 0.174926
1.000000 0.530766 0.167190
1.000000 0.529645 0.166181
0.000000 0.742079 0.202121
0.052764 0.737968 0.198421
0.233058 0.729371 0.190684
0.413353 0.720775 0.182948
0.593647 0.712179 0.175211
0.773941 0.703583 0.167474
0.954235 0.694986 0.159738
1.000000 0.686390 0.152001
1.000000 0.685269 0.150992
0.000000 0.897703 0.186932
0.034200 0.893591 0.183232
0.214495 0.884995 0.175496
0.394789 0.876399 0.167759
0.575083 0.867803 0.160022
0.755377 0.859206 0.152286
0.935671 0.850610 0.144549
1.000000 0.842014 0.136812
1.000000 0.840893 0.135803
0.000000 1.000000 0.171744
0.015637 1.000000 0.168044
0.195931 1.000000 0.160307
0.376225 1.000000 0.152570
0.556519 1.000000 0.144834
0.736813 1.000000 0.137097
0.917107 1.000000 0.129360
1.000000 0.997637 0.121624
1.000000 0.996516 0.120615
0.000000 1.000000 0.169763
0.013215 1.000000 0.166062
0.193509 1.000000 0.158326
0.373803 1.000000 0.150589
0.554098 1.000000 0.142853
0.734392 1.000000 0.135116
0.914686 1.000000 0.127379
1.000000 1.000000 0.119643
1.000000 1.000000 0.118634
0.046065 0.041878 0.422440
0.132293 0.037766 0.418740
0.312587 0.029170 0.411003
0.492881 0.020574 0.403266
0.673175 0.011978 0.395530
0.853469 0.003381 0.387793
1.000000 0.000000 0.380057
1.000000 0.000000 0.372320
1.000000 0.000000 0.371311
0.037187 0.116306 0.415176
0.123415 0.112195 0.411475
0.303709 0.103599 0.403739
0.484003 0.095003 0.396002
0.664297 0.086406 0.388266
0.844591 0.077810 0.380529
1.000000 0.069214 0.372792
1.000000 0.060618 0.365056
1.000000 0.059496 0.364047
0.018623 0.271930 0.399987
0.104851 0.267819 0.396287
0.285145 0.259223 0.388550
0.465439 0.250626 0.380814
0.645733 0.242030 0.373077
0.826027 0.233434 0.365340
1.000000 0.224838 0.357604
1.000000 0.216241 0.349867
1.000000 0.215120 0.348858
0.000059 0.427554 0.384798
0.086287 0.423442 0.381098
0.266581 0.414846 0.373362
0.446875 0.406250 0.365625
0.627169 0.397654 0.357888
0.807463 0.389058 0.350152
0.987757 0.380461 0.342415
1.000000 0.371865 0.334678
1.000000 0.370744 0.333669
0.000000 0.583178 0.369610
0.067723 0.579066 0.365910
0.248017 0.570470 0.358173
0.428311 0.561874 0.350436
0.608605 0.553278 0.342700
0.788899 0.544681 0.334963
0.969194 0.536085 0.327226
1.000000 0.527489 0.319490
1.000000 0.526368 0.318481
0.000000 0.738801 0.354421
0.049159 0.734690 0.350721
0.229453 0.726094 0.342984
0.409747 0.717498 0.335248
0.590041 0.708901 0.327511
0.770336 0.700305 0.319775
0.950630 0.691709 0.312038
1.000000 0.683113 0.304301
1.000000 0.681991 0.303292
0.000000 0.894425 0.339232
0.030595 0.890314 0.335532
0.210889 0.881717 0.327796
0.391183 0.873121 0.320059
0.571478 0.864525 0.312323
0.751772 0.855929 0.304586
0.932066 0.847333 0.296849
1.000000 0.838736 0.289113
1.000000 0.837615 0.288104
0.000000 1.000000 0.324044
0.012031 1.000000 0.320344
0.192325 1.000000 0.312607
0.372620 1.000000 0.304871
0.552914 1.000000 0.297134
0.733208 1.000000 0.289397
0.913502 1.000000 0.281661
1.000000 0.994360 0.273924
1.000000 0.993239 0.272915
0.000000 1.000000 0.322063
0.009610 1.000000 0.318363
0.189904 1.000000 0.310626
0.370198 1.000000 0.302889
0.550492 1.000000 0.295153
0.730786 1.000000 0.287416
0.911081 1.000000 0.279680
1.000000 1.000000 0.271943
1.000000 1.000000 0.270934
0.042460 0.038600 0.574740
0.128688 0.034489 0.571040
0.308982 0.025893 0.563303
0.489276 0.017296 0.555567
0.669570 0.008700 0.547830
0.849864 0.000104 0.540093
1.000000 0.000000 0.532357
1.000000 0.000000 0.524620
1.000000 0.000000 0.523611
0.033582 0.113029 0.567476
0.119809 0.108918 0.563776
0.300103 0.100321 0.556039
0.480398 0.091725 0.548303
0.660692 0.083129 0.540566
0.840986 0.074533 0.532829
1.000000 0.065936 0.525093
1.000000 0.057340 0.517356
1.000000 0.056219 0.516347
0.015018 0.268653 0.552287
0.101245 0.264541 0.548587
0.281540 0.255945 0.540851
0.461834 0.247349 0.533114
0.642128 0.238753 0.525377
0.822422 0.230156 0.517641
1.000000 0.221560 0.509904
1.000000 0.212964 0.502167
1.000000 0.211843 0.501158
0.000000 0.424276 0.537099
0.082682 0.420165 0.533398
0.262976 0.411569 0.525662
0.443270 0.402973 0.517925
0.623564 0.394376 0.510189
0.803858 0.385780 0.502452
0.984152 0.377184 0.494715
1.000000 0.368588 0.486979
1.000000 0.367466 0.485970
0.000000 0.579900 0.521910
0.064118 0.575789 0.518210
0.244412 0.567193 0.510473
0.424706 0.558596 0.502737
0.605000 0.550000 0.495000
0.785294 0.541404 0.487263
0.965588 0.532808 0.479527
1.000000 0.524211 0.471790
1.000000 0.523090 0.470781
0.000000 0.735524 0.506721
0.045554 0.731413 0.503021
0.225848 0.722816 0.495285
0.406142 0.714220 0.487548
0.586436 0.705624 0.479811
0.766730 0.697028 0.472075
0.947024 0.688431 0.464338
1.000000 0.679835 0.456602
1.000000 0.678714 0.455592
0.000000 0.891147 0.491533
0.026990 0.887036 0.487833
0.207284 0.878440 0.480096
0.387578 0.869844 0.472359
0.567872 0.861248 0.464623
0.748166 0.852651 0.456886
0.928461 0.844055 0.449150
1.000000 0.835459 0.441413
1.000000 0.834338 0.440404
0.000000 1.000000 0.476344
0.008426 1.000000 0.472644
0.188720 1.000000 0.464907
0.369014 1.000000 0.457171
0.549308 1.000000 0.449434
0.729603 1.000000 0.441698
0.909897 0.999679 0.433961
1.000000 0.991082 0.426224
1.000000 0.989961 0.425215
0.000000 1.000000 0.474363
0.006005 1.000000 0.470663
0.186299 1.000000 0.462926
0.366593 1.000000 0.455190
0.546887 1.000000 0.447453
0.727181 1.000000 0.439716
0.907475 1.000000 0.431980
1.000000 1.000000 0.424243
1.000000 1.000000 0.423234
0.038855 0.035323 0.727040
0.125082 0.031211 0.723340
0.305377 0.022615 0.715604
0.485671 0.014019 0.707867
0.665965 0.005422 0.700130
0.846259 0.000000 0.692394
1.000000 0.000000 0.684657
1.000000 0.000000 0.676920
1.000000 0.000000 0.675911
0.029976 0.109751 0.719776
0.116204 0.105640 0.716076
0.296498 0.097044 0.708339
0.476792 0.088448 0.700603
0.657086 0.079851 0.692866
0.837381 0.071255 0.685130
1.000000 0.062659 0.677393
1.000000 0.054063 0.669656
1.000000 0.052941 0.668647
0.011412 0.265375 0.704588
0.097640 0.261264 0.700887
0.277934 0.252668 0.693151
0.458228 0.244071 0.685414
0.638523 0.235475 0.677678
0.818817 0.226879 0.669941
0.999111 0.218283 0.662204
1.000000 0.209686 0.654468
1.000000 0.208565 0.653459
0.000000 0.420999 0.689399
0.079076 0.416887 0.685699
0.259370 0.408291 0.677962
0.439665 0.399695 0.670226
0.619959 0.391099 0.662489
0.800253 0.382503 0.654752
0.980547 0.373906 0.647016
1.000000 0.365310 0.639279
1.000000 0.364189 0.638270
0.000000 0.576623 0.674210
0.060512 0.572511 0.670510
0.240807 0.563915 0.662774
0.421101 0.555319 0.655037
0.601395 0.546723 0.647300
0.781689 0.538126 0.639564
0.961983 0.529530 0.631827
1.000000 0.520934 0.624090
1.000000 0.519813 0.623081
0.000000 0.732246 0.659022
0.041949 0.728135 0.655322
0.222243 0.719539 0.647585
0.402537 0.710943 0.639848
0.582831 0.702346 0.632112
0.763125 0.693750 0.624375
0.943419 0.685154 0.616638
1.000000 0.676558 0.608902
1.000000 0.675436 0.607893
0.000000 0.887870 0.643833
0.023385 0.883759 0.640133
0.203679 0.875163 0.632396
0.383973 0.866566 0.624660
0.564267 0.857970 0.616923
0.744561 0.849374 0.609186
0.924855 0.840778 0.601450
1.000000 0.832181 0.593713
1.000000 0.831060 0.592704
0.000000 1.000000 0.628644
0.004821 1.000000 0.624944
0.185115 1.000000 0.617208
0.365409 1.000000 0.609471
0.545703 1.000000 0.601734
0.725997 1.000000 0.593998
0.906291 0.996401 0.586261
1.000000 0.987805 0.578525
1.000000 0.986684 0.577515
0.000000 1.000000 0.626663
0.002399 1.000000 0.622963
0.182694 1.000000 0.615227
0.362988 1.000000 0.607490
0.543282 1.000000 0.599753
0.723576 1.000000 0.592017
0.903870 1.000000 0.584280
1.000000 1.000000 0.576543
1.000000 1.000000 0.575534
0.035250 0.032045 0.879341
0.121477 0.027934 0.875640
0.301771 0.019337 0.867904
0.482065 0.010741 0.860167
0.662360 0.002145 0.852430
0.842654 0.000000 0.844694
1.000000 0.000000 0.836957
1.000000 0.000000 0.829221
1.000000 0.000000 0.828211
0.026371 0.106474 0.872076
0.112599 0.102363 0.868376
0.292893 0.093766 0.860640
0.473187 0.085170 0.852903
0.653481 0.076574 0.845166
0.833775 0.067978 0.837430
1.000000 0.059381 0.829693
1.000000 0.050785 0.821956
1.000000 0.049664 0.820947
0.007807 0.262098 0.856888
0.094035 0.257986 0.853188
0.274329 0.249390 0.845451
0.454623 0.240794 0.837714
0.634917 0.232198 0.829978
0.815211 0.223601 0.822241
0.995506 0.215005 0.814505
1.000000 0.206409 0.806768
1.000000 0.205288 0.805759
0.000000 0.417721 0.841699
0.075471 0.413610 0.837999
0.255765 0.405014 0.830262
0.436059 0.396417 0.822526
0.616353 0.387821 0.814789
0.796648 0.379225 0.807053
0.976942 0.370629 0.799316
1.000000 0.362033 0.791579
1.000000 0.360911 0.790570
0.000000 0.573345 0.826511
0.056907 0.569234 0.822810
0.237201 0.560638 0.815074
0.417495 0.552041 0.807337
0.597790 0.543445 0.799600
0.778084 0.534849 0.791864
0.958378 0.526253 0.784127
1.000000 0.517656 0.776391
1.000000 0.516535 0.775382
0.000000 0.728969 0.811322
0.038343 0.724858 0.807622
0.218637 0.716261 0.799885
0.398932 0.707665 0.792149
0.579226 0.699069 0.784412
0.759520 0.690473 0.776675
0.939814 0.681876 0.768939
1.000000 0.673280 0.761202
1.000000 0.672159 0.760193
0.000000 0.884593 0.796133
0.019779 0.880481 0.792433
0.200074 0.871885 0.784697
0.380368 0.863289 0.776960
0.560662 0.854693 0.769223
0.740956 0.846096 0.761487
0.921250 0.837500 0.753750
1.000000 0.828904 0.746013
1.000000 0.827783 0.745004
0.000000 1.000000 0.780945
0.001216 1.000000 0.777245
0.181510 1.000000 0.769508
0.361804 1.000000 0.761771
0.542098 1.000000 0.754035
0.722392 1.000000 0.746298
0.902686 0.993124 0.738561
1.000000 0.984527 0.730825
1.000000 0.983406 0.729816
0.000000 1.000000 0.778964
0.000000 1.000000 0.775263
0.179088 1.000000 0.767527
0.359382 1.000000 0.759790
0.539677 1.000000 0.752054
0.719971 1.000000 0.744317
0.900265 1.000000 0.736580
1.000000 1.000000 0.728844
1.000000 1.000000 0.727835
0.031644 0.028768 0.900000
0.117872 0.024656 0.900000
0.298166 0.016060 0.900000
0.478460 0.007464 0.900000
0.658754 0.000000 0.900000
0.839048 0.000000 0.900000
1.000000 0.000000 0.900000
1.000000 0.000000 0.900000
1.000000 0.000000 0.900000
0.022766 0.103196 0.900000
0.108994 0.099085 0.900000
0.289288 0.090489 0.900000
0.469582 0.081893 0.900000
0.649876 0.073296 0.900000
0.830170 0.064700 0.900000
1.000000 0.056104 0.900000
1.000000 0.047508 0.900000
1.000000 0.046386 0.900000
0.004202 0.258820 0.900000
0.090430 0.254709 0.900000
0.270724 0.246113 0.900000
0.451018 0.237516 0.900000
0.631312 0.228920 0.900000
0.811606 0.220324 0.900000
0.991900 0.211728 0.900000
1.000000 0.203131 0.900000
1.000000 0.202010 0.900000
0.000000 0.414444 0.900000
0.071866 0.410332 0.900000
0.252160 0.401736 0.900000
0.432454 0.393140 0.900000
0.612748 0.384544 0.900000
0.793042 0.375947 0.900000
0.973336 0.367351 0.900000
1.000000 0.358755 0.900000
1.000000 0.357634 0.900000
0.000000 0.570068 0.900000
0.053302 0.565956 0.900000
0.233596 0.557360 0.900000
0.413890 0.548764 0.900000
0.594184 0.540168 0.900000
0.774478 0.531571 0.900000
0.954773 0.522975 0.900000
1.000000 0.514379 0.900000
1.000000 0.513258 0.900000
0.000000 0.725691 0.900000
0.034738 0.721580 0.900000
0.215032 0.712984 0.900000
0.395326 0.704388 0.900000
0.575620 0.695791 0.900000
0.755915 0.687195 0.900000
0.936209 0.678599 0.900000
1.000000 0.670003 0.900000
1.000000 0.668881 0.900000
0.000000 0.881315 0.900000
0.016174 0.877204 0.900000
0.196468 0.868607 0.900000
0.376762 0.860011 0.900000
0.557057 0.851415 0.900000
0.737351 0.842819 0.900000
0.917645 0.834223 0.900000
1.000000 0.825626 0.898314
1.000000 0.824505 0.897304
0.000000 1.000000 0.900000
0.000000 1.000000 0.900000
0.177904 1.000000 0.900000
0.358199 1.000000 0.900000
0.538493 1.000000 0.900000
0.718787 0.998442 0.898598
0.899081 0.989846 0.890862
1.000000 0.981250 0.883125
1.000000 0.980129 0.882116
0.000000 1.000000 0.900000
0.000000 1.000000 0.900000
0.175483 1.000000 0.900000
0.355777 1.000000 0.900000
0.536071 1.000000 0.900000
0.716365 1.000000 0.896617
0.896660 1.000000 0.888880
1.000000 1.000000 0.881144
1.000000 1.000000 0.880135
0.031174 0.028340 0.900000
0.117402 0.024229 0.900000
0.297696 0.015632 0.900000
0.477990 0.007036 0.900000
0.658284 0.000000 0.900000
0.838578 0.000000 0.900000
1.000000 0.000000 0.900000
1.000000 0.000000 0.900000
1.000000 0.000000 0.900000
0.022296 0.102769 0.900000
0.108523 0.098658 0.900000
0.288817 0.090061 0.900000
0.469112 0.081465 0.900000
0.649406 0.072869 0.900000
0.829700 0.064273 0.900000
1.000000 0.055676 0.900000
1.000000 0.047080 0.900000
1.000000 0.045959 0.900000
0.003732 0.258393 0.900000
0.089959 0.254281 0.900000
0.270254 0.245685 0.900000
0.450548 0.237089 0.900000
0.630842 0.228493 0.900000
0.811136 0.219896 0.900000
0.991430 0.211300 0.900000
1.000000 0.202704 0.900000
1.000000 0.201583 0.900000
0.000000 0.414016 0.900000
0.071396 0.409905 0.900000
0.251690 0.401309 0.900000
0.431984 0.392713 0.900000
0.612278 0.384116 0.900000
0.792572 0.375520 0.900000
0.972866 0.366924 0.900000
1.000000 0.358328 0.900000
1.000000 0.357206 0.900000
0.000000 0.569640 0.900000
0.052832 0.565529 0.900000
0.233126 0.556933 0.900000
0.413420 0.548336 0.900000
0.593714 0.539740 0.900000
0.774008 0.531144 0.900000
0.954302 0.522548 0.900000
1.000000 0.513951 0.900000
1.000000 0.512830 0.900000
0.000000 0.725264 0.900000
0.034268 0.721153 0.900000
0.214562 0.712556 0.900000
0.394856 0.703960 0.900000
0.575150 0.695364 0.900000
0.755444 0.686768 0.900000
0.935738 0.678171 0.900000
1.000000 0.669575 0.900000
1.000000 0.668454 0.900000
0.000000 0.880888 0.900000
0.015704 0.876776 0.900000
0.195998 0.868180 0.900000
0.376292 0.859584 0.900000
0.556586 0.850988 0.900000
0.736880 0.842391 0.900000
0.917175 0.833795 0.900000
1.000000 0.825199 0.900000
1.000000 0.824078 0.900000
0.000000 1.000000 0.900000
0.000000 1.000000 0.900000
0.177434 1.000000 0.900000
0.357728 1.000000 0.900000
0.538022 1.000000 0.900000
0.718317 0.998015 0.900000
0.898611 0.989419 0.900000
1.000000 0.980822 0.900000
1.000000 0.979701 0.900000
0.000000 1.000000 0.900000
0.000000 1.000000 0.900000
0.175013 1.000000 0.900000
0.355307 1.000000 0.900000
0.535601 1.000000 0.900000
0.715895 1.000000 0.900000
0.896189 1.000000 0.900000
1.000000 1.000000 0.900000
1.000000 1.000000 0.900000
