server/luts/golden.cube
TITLE "Golden"
LUT_3D_SIZE 17
0.055000 0.050000 0.045000
0.055000 0.050000 0.045000
0.141228 0.045889 0.041300
0.231375 0.041591 0.037432
0.321522 0.037293 0.033563
0.411669 0.032994 0.029695
0.501816 0.028696 0.025827
0.591963 0.024398 0.021958
0.682110 0.020100 0.018090
0.772257 0.015802 0.014222
0.862404 0.011504 0.010353
0.952551 0.007206 0.006485
1.000000 0.002908 0.002617
1.000000 0.000000 0.000000
1.000000 0.000000 0.000000
1.000000 0.000000 0.000000
1.000000 0.000000 0.000000
0.055000 0.050000 0.045000
0.055000 0.050000 0.045000
0.141228 0.045889 0.041300
0.231375 0.041591 0.037432
0.321522 0.037293 0.033563
0.411669 0.032994 0.029695
0.501816 0.028696 0.025827
0.591963 0.024398 0.021958
0.682110 0.020100 0.018090
0.772257 0.015802 0.014222
0.862404 0.011504 0.010353
0.952551 0.007206 0.006485
1.000000 0.002908 0.002617
1.000000 0.000000 0.000000
1.000000 0.000000 0.000000
1.000000 0.000000 0.000000
1.000000 0.000000 0.000000
0.046122 0.124429 0.037736
0.046122 0.124429 0.037736
0.132349 0.120318 0.034036
0.222496 0.116019 0.030167
0.312643 0.111721 0.026299
0.402790 0.107423 0.022431
0.492938 0.103125 0.018562
0.583085 0.098827 0.014694
0.673232 0.094529 0.010826
0.763379 0.090231 0.006958
0.853526 0.085933 0.003089
0.943673 0.081634 0.000000
1.000000 0.077336 0.000000
1.000000 0.073038 0.000000
1.000000 0.068740 0.000000
1.000000 0.067619 0.000000
1.000000 0.067619 0.000000
0.036840 0.202241 0.030142
0.036840 0.202241 0.030142
0.123067 0.198129 0.026441
0.213214 0.193831 0.022573
0.303361 0.189533 0.018705
0.393509 0.185235 0.014837
0.483656 0.180937 0.010968
0.573803 0.176639 0.007100
0.663950 0.172341 0.003232
0.754097 0.168042 0.000000
0.844244 0.163744 0.000000
0.934391 0.159446 0.000000
1.000000 0.155148 0.000000
1.000000 0.150850 0.000000
1.000000 0.146552 0.000000
1.000000 0.145431 0.000000
1.000000 0.145431 0.000000
0.027558 0.280053 0.022547
0.027558 0.280053 0.022547
0.113785 0.275941 0.018847
0.203932 0.271643 0.014979
0.294080 0.267345 0.011111
0.384227 0.263047 0.007242
0.474374 0.258749 0.003374
0.564521 0.254451 0.000000
0.654668 0.250152 0.000000
0.744815 0.245854 0.000000
0.834962 0.241556 0.000000
0.925109 0.237258 0.000000
1.000000 0.232960 0.000000
1.000000 0.228662 0.000000
1.000000 0.224364 0.000000
1.000000 0.223243 0.000000
1.000000 0.223243 0.000000
0.018276 0.357864 0.014953
0.018276 0.357864 0.014953
0.104503 0.353753 0.011253
0.194651 0.349455 0.007385
0.284798 0.345157 0.003516
0.374945 0.340859 0.000000
0.465092 0.336561 0.000000
0.555239 0.332263 0.000000
0.645386 0.327964 0.000000
0.735533 0.323666 0.000000
0.825680 0.319368 0.000000
0.915827 0.315070 0.000000
1.000000 0.310772 0.000000
1.000000 0.306474 0.000000
1.000000 0.302176 0.000000
1.000000 0.301054 0.000000
1.000000 0.301054 0.000000
0.008994 0.435676 0.007359
0.008994 0.435676 0.007359
0.095222 0.431565 0.003658
0.185369 0.427267 0.000000
0.275516 0.422969 0.000000
0.365663 0.418671 0.000000
0.455810 0.414373 0.000000
0.545957 0.410074 0.000000
0.636104 0.405776 0.000000
0.726251 0.401478 0.000000
0.816398 0.397180 0.000000
0.906545 0.392882 0.000000
0.996692 0.388584 0.000000
1.000000 0.384286 0.000000
1.000000 0.379988 0.000000
1.000000 0.378866 0.000000
1.000000 0.378866 0.000000
0.000000 0.513488 0.000000
0.000000 0.513488 0.000000
0.085940 0.509377 0.000000
0.176087 0.505079 0.000000
0.266234 0.500781 0.000000
0.356381 0.496482 0.000000
0.446528 0.492184 0.000000
0.536675 0.487886 0.000000
0.626822 0.483588 0.000000
0.716969 0.479290 0.000000
0.807116 0.474992 0.000000
0.897263 0.470694 0.000000
0.987410 0.466396 0.000000
1.000000 0.462097 0.000000
1.000000 0.457799 0.000000
1.000000 0.456678 0.000000
1.000000 0.456678 0.000000
0.000000 0.591300 0.000000
0.000000 0.591300 0.000000
0.076658 0.587189 0.000000
0.166805 0.582891 0.000000
0.256952 0.578593 0.000000
0.347099 0.574294 0.000000
0.437246 0.569996 0.000000
0.527393 0.565698 0.000000
0.617540 0.561400 0.000000
0.707687 0.557102 0.000000
0.797834 0.552804 0.000000
0.887981 0.548506 0.000000
0.978128 0.544208 0.000000
1.000000 0.539909 0.000000
1.000000 0.535611 0.000000
1.000000 0.534490 0.000000
1.000000 0.534490 0.000000
0.000000 0.669112 0.000000
0.000000 0.669112 0.000000
0.067376 0.665001 0.000000
0.157523 0.660703 0.000000
0.247670 0.656404 0.000000
0.337817 0.652106 0.000000
0.427964 0.647808 0.000000
0.518111 0.643510 0.000000
0.608258 0.639212 0.000000
0.698405 0.634914 0.000000
0.788552 0.630616 0.000000
0.878699 0.626318 0.000000
0.968846 0.622019 0.000000
1.000000 0.617721 0.000000
1.000000 0.613423 0.000000
1.000000 0.612302 0.000000
1.000000 0.612302 0.000000
0.000000 0.746924 0.000000
0.000000 0.746924 0.000000
0.058094 0.742813 0.000000
0.148241 0.738514 0.000000
0.238388 0.734216 0.000000
0.328535 0.729918 0.000000
0.418682 0.725620 0.000000
0.508829 0.721322 0.000000
0.598976 0.717024 0.000000
0.689123 0.712726 0.000000
0.779270 0.708428 0.000000
0.869417 0.704129 0.000000
0.959564 0.699831 0.000000
1.000000 0.695533 0.000000
1.000000 0.691235 0.000000
1.000000 0.690114 0.000000
1.000000 0.690114 0.000000
0.000000 0.824736 0.000000
0.000000 0.824736 0.000000
0.048812 0.820624 0.000000
0.138959 0.816326 0.000000
0.229106 0.812028 0.000000
0.319253 0.807730 0.000000
0.409400 0.803432 0.000000
0.499547 0.799134 0.000000
0.589694 0.794836 0.000000
0.679841 0.790538 0.000000
0.769988 0.786239 0.000000
0.860135 0.781941 0.000000
0.950282 0.777643 0.000000
1.000000 0.773345 0.000000
1.000000 0.769047 0.000000
1.000000 0.767926 0.000000
1.000000 0.767926 0.000000
0.000000 0.902548 0.000000
0.000000 0.902548 0.000000
0.039530 0.898436 0.000000
0.129677 0.894138 0.000000
0.219824 0.889840 0.000000
0.309971 0.885542 0.000000
0.400118 0.881244 0.000000
0.490265 0.876946 0.000000
0.580412 0.872648 0.000000
0.670559 0.868349 0.000000
0.760706 0.864051 0.000000
0.850853 0.859753 0.000000
0.941001 0.855455 0.000000
1.000000 0.851157 0.000000
1.000000 0.846859 0.000000
1.000000 0.845738 0.000000
1.000000 0.845738 0.000000
0.000000 0.980359 0.000000
0.000000 0.980359 0.000000
0.030248 0.976248 0.000000
0.120395 0.971950 0.000000
0.210542 0.967652 0.000000
0.300689 0.963354 0.000000
0.390836 0.959056 0.000000
0.480983 0.954758 0.000000
0.571130 0.950459 0.000000
0.661277 0.946161 0.000000
0.751424 0.941863 0.000000
0.841572 0.937565 0.000000
0.931719 0.933267 0.000000
1.000000 0.928969 0.000000
1.000000 0.924671 0.000000
1.000000 0.923549 0.000000
1.000000 0.923549 0.000000
0.000000 1.000000 0.000000
0.000000 1.000000 0.000000
0.020966 1.000000 0.000000
0.111113 1.000000 0.000000
0.201260 1.000000 0.000000
0.291407 1.000000 0.000000
0.381554 1.000000 0.000000
0.471701 1.000000 0.000000
0.561848 1.000000 0.000000
0.651995 1.000000 0.000000
0.742143 1.000000 0.000000
0.832290 1.000000 0.000000
0.922437 1.000000 0.000000
1.000000 1.000000 0.000000
1.000000 1.000000 0.000000
1.000000 1.000000 0.000000
1.000000 1.000000 0.000000
0.000000 1.000000 0.000000
0.000000 1.000000 0.000000
0.018545 1.000000 0.000000
0.108692 1.000000 0.000000
0.198839 1.000000 0.000000
0.288986 1.000000 0.000000
0.379133 1.000000 0.000000
0.469280 1.000000 0.000000
0.559427 1.000000 0.000000
0.649574 1.000000 0.000000
0.739721 1.000000 0.000000
0.829868 1.000000 0.000000
0.920015 1.000000 0.000000
1.000000 1.000000 0.000000
1.000000 1.000000 0.000000
1.000000 1.000000 0.000000
1.000000 1.000000 0.000000
0.000000 1.000000 0.000000
0.000000 1.000000 0.000000
0.018545 1.000000 0.000000
0.108692 1.000000 0.000000
0.198839 1.000000 0.000000
0.288986 1.000000 0.000000
0.379133 1.000000 0.000000
0.469280 1.000000 0.000000
0.559427 1.000000 0.000000
0.649574 1.000000 0.000000
0.739721 1.000000 0.000000
0.829868 1.000000 0.000000
0.920015 1.000000 0.000000
1.000000 1.000000 0.000000
1.000000 1.000000 0.000000
1.000000 1.000000 0.000000
1.000000 1.000000 0.000000
0.055000 0.050000 0.045000
0.055000 0.050000 0.045000
0.141228 0.045889 0.041300
0.231375 0.041591 0.037432
0.321522 0.037293 0.033563
0.411669 0.032994 0.029695
0.501816 0.028696 0.025827
0.591963 0.024398 0.021958
0.682110 0.020100 0.018090
0.772257 0.015802 0.014222
0.862404 0.011504 0.010353
0.952551 0.007206 0.006485
1.000000 0.002908 0.002617
1.000000 0.000000 0.000000
1.000000 0.000000 0.000000
1.000000 0.000000 0.000000
1.000000 0.000000 0.000000
0.055000 0.050000 0.045000
0.055000 0.050000 0.045000
0.141228 0.045889 0.041300
0.231375 0.041591 0.037432
0.321522 0.037293 0.033563
0.411669 0.032994 0.029695
0.501816 0.028696 0.025827
0.591963 0.024398 0.021958
0.682110 0.020100 0.018090
0.772257 0.015802 0.014222
0.862404 0.011504 0.010353
0.952551 0.007206 0.006485
1.000000 0.002908 0.002617
1.000000 0.000000 0.000000
1.000000 0.000000 0.000000
1.000000 0.000000 0.000000
1.000000 0.000000 0.000000
0.046122 0.124429 0.037736
0.046122 0.124429 0.037736
0.132349 0.120318 0.034036
0.222496 0.116019 0.030167
0.312643 0.111721 0.026299
0.402790 0.107423 0.022431
0.492938 0.103125 0.018562
0.583085 0.098827 0.014694
0.673232 0.094529 0.010826
0.763379 0.090231 0.006958
0.853526 0.085933 0.003089
0.943673 0.081634 0.000000
1.000000 0.077336 0.000000
1.000000 0.073038 0.000000
1.000000 0.068740 0.000000
1.000000 0.067619 0.000000
1.000000 0.067619 0.000000
0.036840 0.202241 0.030142
0.036840 0.202241 0.030142
0.123067 0.198129 0.026441
0.213214 0.193831 0.022573
0.303361 0.189533 0.018705
0.393509 0.185235 0.014837
0.483656 0.180937 0.010968
0.573803 0.176639 0.007100
0.663950 0.172341 0.003232
0.754097 0.168042 0.000000
0.844244 0.163744 0.000000
0.934391 0.159446 0.000000
1.000000 0.155148 0.000000
1.000000 0.150850 0.000000
1.000000 0.146552 0.000000
1.000000 0.145431 0.000000
1.000000 0.145431 0.000000
0.027558 0.280053 0.022547
0.027558 0.280053 0.022547
0.113785 0.275941 0.018847
0.203932 0.271643 0.014979
0.294080 0.267345 0.011111
0.384227 0.263047 0.007242
0.474374 0.258749 0.003374
0.564521 0.254451 0.000000
0.654668 0.250152 0.000000
0.744815 0.245854 0.000000
0.834962 0.241556 0.000000
0.925109 0.237258 0.000000
1.000000 0.232960 0.000000
1.000000 0.228662 0.000000
1.000000 0.224364 0.000000
1.000000 0.223243 0.000000
1.000000 0.223243 0.000000
0.018276 0.357864 0.014953
0.018276 0.357864 0.014953
0.104503 0.353753 0.011253
0.194651 0.349455 0.007385
0.284798 0.345157 0.003516
0.374945 0.340859 0.000000
0.465092 0.336561 0.000000
0.555239 0.332263 0.000000
0.645386 0.327964 0.000000
0.735533 0.323666 0.000000
0.825680 0.319368 0.000000
0.915827 0.315070 0.000000
1.000000 0.310772 0.000000
1.000000 0.306474 0.000000
1.000000 0.302176 0.000000
1.000000 0.301054 0.000000
1.000000 0.301054 0.000000
0.008994 0.435676 0.007359
0.008994 0.435676 0.007359
0.095222 0.431565 0.003658
0.185369 0.427267 0.000000
0.275516 0.422969 0.000000
0.365663 0.418671 0.000000
0.455810 0.414373 0.000000
0.545957 0.410074 0.000000
0.636104 0.405776 0.000000
0.726251 0.401478 0.000000
0.816398 0.397180 0.000000
0.906545 0.392882 0.000000
0.996692 0.388584 0.000000
1.000000 0.384286 0.000000
1.000000 0.379988 0.000000
1.000000 0.378866 0.000000
1.000000 0.378866 0.000000
0.000000 0.513488 0.000000
0.000000 0.513488 0.000000
0.085940 0.509377 0.000000
0.176087 0.505079 0.000000
0.266234 0.500781 0.000000
0.356381 0.496482 0.000000
0.446528 0.492184 0.000000
0.536675 0.487886 0.000000
0.626822 0.483588 0.000000
0.716969 0.479290 0.000000
0.807116 0.474992 0.000000
0.897263 0.470694 0.000000
0.987410 0.466396 0.000000
1.000000 0.462097 0.000000
1.000000 0.457799 0.000000
1.000000 0.456678 0.000000
1.000000 0.456678 0.000000
0.000000 0.591300 0.000000
0.000000 0.591300 0.000000
0.076658 0.587189 0.000000
0.166805 0.582891 0.000000
0.256952 0.578593 0.000000
0.347099 0.574294 0.000000
0.437246 0.569996 0.000000
0.527393 0.565698 0.000000
0.617540 0.561400 0.000000
0.707687 0.557102 0.000000
0.797834 0.552804 0.000000
0.887981 0.548506 0.000000
0.978128 0.544208 0.000000
1.000000 0.539909 0.000000
1.000000 0.535611 0.000000
1.000000 0.534490 0.000000
1.000000 0.534490 0.000000
0.000000 0.669112 0.000000
0.000000 0.669112 0.000000
0.067376 0.665001 0.000000
0.157523 0.660703 0.000000
0.247670 0.656404 0.000000
0.337817 0.652106 0.000000
0.427964 0.647808 0.000000
0.518111 0.643510 0.000000
0.608258 0.639212 0.000000
0.698405 0.634914 0.000000
0.788552 0.630616 0.000000
0.878699 0.626318 0.000000
0.968846 0.622019 0.000000
1.000000 0.617721 0.000000
1.000000 0.613423 0.000000
1.000000 0.612302 0.000000
1.000000 0.612302 0.000000
0.000000 0.746924 0.000000
0.000000 0.746924 0.000000
0.058094 0.742813 0.000000
0.148241 0.738514 0.000000
0.238388 0.734216 0.000000
0.328535 0.729918 0.000000
0.418682 0.725620 0.000000
0.508829 0.721322 0.000000
0.598976 0.717024 0.000000
0.689123 0.712726 0.000000
0.779270 0.708428 0.000000
0.869417 0.704129 0.000000
0.959564 0.699831 0.000000
1.000000 0.695533 0.000000
1.000000 0.691235 0.000000
1.000000 0.690114 0.000000
1.000000 0.690114 0.000000
0.000000 0.824736 0.000000
0.000000 0.824736 0.000000
0.048812 0.820624 0.000000
0.138959 0.816326 0.000000
0.229106 0.812028 0.000000
0.319253 0.807730 0.000000
0.409400 0.803432 0.000000
0.499547 0.799134 0.000000
0.589694 0.794836 0.000000
0.679841 0.790538 0.000000
0.769988 0.786239 0.000000
0.860135 0.781941 0.000000
0.950282 0.777643 0.000000
1.000000 0.773345 0.000000
1.000000 0.769047 0.000000
1.000000 0.767926 0.000000
1.000000 0.767926 0.000000
0.000000 0.902548 0.000000
0.000000 0.902548 0.000000
0.039530 0.898436 0.000000
0.129677 0.894138 0.000000
0.219824 0.889840 0.000000
0.309971 0.885542 0.000000
0.400118 0.881244 0.000000
0.490265 0.876946 0.000000
0.580412 0.872648 0.000000
0.670559 0.868349 0.000000
0.760706 0.864051 0.000000
0.850853 0.859753 0.000000
0.941001 0.855455 0.000000
1.000000 0.851157 0.000000
1.000000 0.846859 0.000000
1.000000 0.845738 0.000000
1.000000 0.845738 0.000000
0.000000 0.980359 0.000000
0.000000 0.980359 0.000000
0.030248 0.976248 0.000000
0.120395 0.971950 0.000000
0.210542 0.967652 0.000000
0.300689 0.963354 0.000000
0.390836 0.959056 0.000000
0.480983 0.954758 0.000000
0.571130 0.950459 0.000000
0.661277 0.946161 0.000000
0.751424 0.941863 0.000000
0.841572 0.937565 0.000000
0.931719 0.933267 0.000000
1.000000 0.928969 0.000000
1.000000 0.924671 0.000000
1.000000 0.923549 0.000000
1.000000 0.923549 0.000000
0.000000 1.000000 0.000000
0.000000 1.000000 0.000000
0.020966 1.000000 0.000000
0.111113 1.000000 0.000000
0.201260 1.000000 0.000000
0.291407 1.000000 0.000000
0.381554 1.000000 0.000000
0.471701 1.000000 0.000000
0.561848 1.000000 0.000000
0.651995 1.000000 0.000000
0.742143 1.000000 0.000000
0.832290 1.000000 0.000000
0.922437 1.000000 0.000000
1.000000 1.000000 0.000000
1.000000 1.000000 0.000000
1.000000 1.000000 0.000000
1.000000 1.000000 0.000000
0.000000 1.000000 0.000000
0.000000 1.000000 0.000000
0.018545 1.000000 0.000000
0.108692 1.000000 0.000000
0.198839 1.000000 0.000000
0.288986 1.000000 0.000000
0.379133 1.000000 0.000000
0.469280 1.000000 0.000000
0.559427 1.000000 0.000000
0.649574 1.000000 0.000000
0.739721 1.000000 0.000000
0.829868 1.000000 0.000000
0.920015 1.000000 0.000000
1.000000 1.000000 0.000000
1.000000 1.000000 0.000000
1.000000 1.000000 0.000000
1.000000 1.000000 0.000000
0.000000 1.000000 0.000000
0.000000 1.000000 0.000000
0.018545 1.000000 0.000000
0.108692 1.000000 0.000000
0.198839 1.000000 0.000000
0.288986 1.000000 0.000000
0.379133 1.000000 0.000000
0.469280 1.000000 0.000000
0.559427 1.000000 0.000000
0.649574 1.000000 0.000000
0.739721 1.000000 0.000000
0.829868 1.000000 0.000000
0.920015 1.000000 0.000000
1.000000 1.000000 0.000000
1.000000 1.000000 0.000000
1.000000 1.000000 0.000000
1.000000 1.000000 0.000000
0.053276 0.048433 0.117839
0.053276 0.048433 0.117839
0.139503 0.044321 0.114139
0.229650 0.040023 0.110271
0.319798 0.035725 0.106403
0.409945 0.031427 0.102534
0.500092 0.027129 0.098666
0.590239 0.022831 0.094798
0.680386 0.018533 0.090929
0.770533 0.014234 0.087061
0.860680 0.009936 0.083193
0.950827 0.005638 0.079324
1.000000 0.001340 0.075456
1.000000 0.000000 0.071588
1.000000 0.000000 0.067719
1.000000 0.000000 0.066710
1.000000 0.000000 0.066710
0.053276 0.048433 0.117839
0.053276 0.048433 0.117839
0.139503 0.044321 0.114139
0.229650 0.040023 0.110271
0.319798 0.035725 0.106403
0.409945 0.031427 0.102534
0.500092 0.027129 0.098666
0.590239 0.022831 0.094798
0.680386 0.018533 0.090929
0.770533 0.014234 0.087061
0.860680 0.009936 0.083193
0.950827 0.005638 0.079324
1.000000 0.001340 0.075456
1.000000 0.000000 0.071588
1.000000 0.000000 0.067719
1.000000 0.000000 0.066710
1.000000 0.000000 0.066710
0.044397 0.122861 0.110575
0.044397 0.122861 0.110575
0.130625 0.118750 0.106875
0.220772 0.114452 0.103007
0.310919 0.110154 0.099138
0.401066 0.105856 0.095270
0.491213 0.101558 0.091402
0.581360 0.097259 0.087533
0.671507 0.092961 0.083665
0.761654 0.088663 0.079797
0.851802 0.084365 0.075929
0.941949 0.080067 0.072060
1.000000 0.075769 0.068192
1.000000 0.071471 0.064324
1.000000 0.067173 0.060455
1.000000 0.066051 0.059446
1.000000 0.066051 0.059446
0.035115 0.200673 0.102981
0.035115 0.200673 0.102981
0.121343 0.196562 0.099281
0.211490 0.192264 0.095412
0.301637 0.187966 0.091544
0.391784 0.183667 0.087676
0.481931 0.179369 0.083807
0.572078 0.175071 0.079939
0.662225 0.170773 0.076071
0.752373 0.166475 0.072203
0.842520 0.162177 0.068334
0.932667 0.157879 0.064466
1.000000 0.153581 0.060598
1.000000 0.149282 0.056729
1.000000 0.144984 0.052861
1.000000 0.143863 0.051852
1.000000 0.143863 0.051852
0.025834 0.278485 0.095387
0.025834 0.278485 0.095387
0.112061 0.274374 0.091686
0.202208 0.270076 0.087818
0.292355 0.265777 0.083950
0.382502 0.261479 0.080081
0.472649 0.257181 0.076213
0.562796 0.252883 0.072345
0.652944 0.248585 0.068477
0.743091 0.244287 0.064608
0.833238 0.239989 0.060740
0.923385 0.235691 0.056872
1.000000 0.231393 0.053003
1.000000 0.227094 0.049135
1.000000 0.222796 0.045267
1.000000 0.221675 0.044258
1.000000 0.221675 0.044258
0.016552 0.356297 0.087792
0.016552 0.356297 0.087792
0.102779 0.352186 0.084092
0.192926 0.347888 0.080224
0.283073 0.343589 0.076355
0.373220 0.339291 0.072487
0.463367 0.334993 0.068619
0.553515 0.330695 0.064751
0.643662 0.326397 0.060882
0.733809 0.322099 0.057014
0.823956 0.317801 0.053146
0.914103 0.313503 0.049277
1.000000 0.309204 0.045409
1.000000 0.304906 0.041541
1.000000 0.300608 0.037672
1.000000 0.299487 0.036663
1.000000 0.299487 0.036663
0.007270 0.434109 0.080198
0.007270 0.434109 0.080198
0.093497 0.429998 0.076498
0.183644 0.425699 0.072629
0.273791 0.421401 0.068761
0.363938 0.417103 0.064893
0.454086 0.412805 0.061025
0.544233 0.408507 0.057156
0.634380 0.404209 0.053288
0.724527 0.399911 0.049420
0.814674 0.395613 0.045551
0.904821 0.391314 0.041683
0.994968 0.387016 0.037815
1.000000 0.382718 0.033946
1.000000 0.378420 0.030078
1.000000 0.377299 0.029069
1.000000 0.377299 0.029069
0.000000 0.511921 0.072604
0.000000 0.511921 0.072604
0.084215 0.507809 0.068903
0.174362 0.503511 0.065035
0.264509 0.499213 0.061167
0.354657 0.494915 0.057299
0.444804 0.490617 0.053430
0.534951 0.486319 0.049562
0.625098 0.482021 0.045694
0.715245 0.477722 0.041825
0.805392 0.473424 0.037957
0.895539 0.469126 0.034089
0.985686 0.464828 0.030220
1.000000 0.460530 0.026352
1.000000 0.456232 0.022484
1.000000 0.455111 0.021475
1.000000 0.455111 0.021475
0.000000 0.589732 0.065009
0.000000 0.589732 0.065009
0.074933 0.585621 0.061309
0.165080 0.581323 0.057441
0.255228 0.577025 0.053573
0.345375 0.572727 0.049704
0.435522 0.568429 0.045836
0.525669 0.564131 0.041968
0.615816 0.559833 0.038099
0.705963 0.555534 0.034231
0.796110 0.551236 0.030363
0.886257 0.546938 0.026494
0.976404 0.542640 0.022626
1.000000 0.538342 0.018758
1.000000 0.534044 0.014889
1.000000 0.532923 0.013880
1.000000 0.532923 0.013880
0.000000 0.667544 0.057415
0.000000 0.667544 0.057415
0.065651 0.663433 0.053715
0.155799 0.659135 0.049847
0.245946 0.654837 0.045978
0.336093 0.650539 0.042110
0.426240 0.646241 0.038242
0.516387 0.641943 0.034373
0.606534 0.637644 0.030505
0.696681 0.633346 0.026637
0.786828 0.629048 0.022768
0.876975 0.624750 0.018900
0.967122 0.620452 0.015032
1.000000 0.616154 0.011163
1.000000 0.611856 0.007295
1.000000 0.610734 0.006286
1.000000 0.610734 0.006286
0.000000 0.745356 0.049821
0.000000 0.745356 0.049821
0.056370 0.741245 0.046121
0.146517 0.736947 0.042252
0.236664 0.732649 0.038384
0.326811 0.728351 0.034516
0.416958 0.724053 0.030647
0.507105 0.719754 0.026779
0.597252 0.715456 0.022911
0.687399 0.711158 0.019042
0.777546 0.706860 0.015174
0.867693 0.702562 0.011306
0.957840 0.698264 0.007437
1.000000 0.693966 0.003569
1.000000 0.689668 0.000000
1.000000 0.688546 0.000000
1.000000 0.688546 0.000000
0.000000 0.823168 0.042226
0.000000 0.823168 0.042226
0.047088 0.819057 0.038526
0.137235 0.814759 0.034658
0.227382 0.810461 0.030790
0.317529 0.806163 0.026921
0.407676 0.801864 0.023053
0.497823 0.797566 0.019185
0.587970 0.793268 0.015316
0.678117 0.788970 0.011448
0.768264 0.784672 0.007580
0.858411 0.780374 0.003711
0.948558 0.776076 0.000000
1.000000 0.771778 0.000000
1.000000 0.767479 0.000000
1.000000 0.766358 0.000000
1.000000 0.766358 0.000000
0.000000 0.900980 0.034632
0.000000 0.900980 0.034632
0.037806 0.896869 0.030932
0.127953 0.892571 0.027064
0.218100 0.888273 0.023195
0.308247 0.883974 0.019327
0.398394 0.879676 0.015459
0.488541 0.875378 0.011590
0.578688 0.871080 0.007722
0.668835 0.866782 0.003854
0.758982 0.862484 0.000000
0.849129 0.858186 0.000000
0.939276 0.853888 0.000000
1.000000 0.849589 0.000000
1.000000 0.845291 0.000000
1.000000 0.844170 0.000000
1.000000 0.844170 0.000000
0.000000 0.978792 0.027038
0.000000 0.978792 0.027038
0.028524 0.974681 0.023338
0.118671 0.970383 0.019469
0.208818 0.966084 0.015601
0.298965 0.961786 0.011733
0.389112 0.957488 0.007864
0.479259 0.953190 0.003996
0.569406 0.948892 0.000128
0.659553 0.944594 0.000000
0.749700 0.940296 0.000000
0.839847 0.935998 0.000000
0.929994 0.931699 0.000000
1.000000 0.927401 0.000000
1.000000 0.923103 0.000000
1.000000 0.921982 0.000000
1.000000 0.921982 0.000000
0.000000 1.000000 0.019443
0.000000 1.000000 0.019443
0.019242 1.000000 0.015743
0.109389 1.000000 0.011875
0.199536 1.000000 0.008007
0.289683 1.000000 0.004138
0.379830 1.000000 0.000270
0.469977 1.000000 0.000000
0.560124 1.000000 0.000000
0.650271 1.000000 0.000000
0.740418 1.000000 0.000000
0.830565 1.000000 0.000000
0.920712 1.000000 0.000000
1.000000 1.000000 0.000000
1.000000 1.000000 0.000000
1.000000 0.999794 0.000000
1.000000 0.999794 0.000000
0.000000 1.000000 0.017462
0.000000 1.000000 0.017462
0.016820 1.000000 0.013762
0.106967 1.000000 0.009894
0.197115 1.000000 0.006026
0.287262 1.000000 0.002157
0.377409 1.000000 0.000000
0.467556 1.000000 0.000000
0.557703 1.000000 0.000000
0.647850 1.000000 0.000000
0.737997 1.000000 0.000000
0.828144 1.000000 0.000000
0.918291 1.000000 0.000000
1.000000 1.000000 0.000000
1.000000 1.000000 0.000000
1.000000 1.000000 0.000000
1.000000 1.000000 0.000000
0.000000 1.000000 0.017462
0.000000 1.000000 0.017462
0.016820 1.000000 0.013762
0.106967 1.000000 0.009894
0.197115 1.000000 0.006026
0.287262 1.000000 0.002157
0.377409 1.000000 0.000000
0.467556 1.000000 0.000000
0.557703 1.000000 0.000000
0.647850 1.000000 0.000000
0.737997 1.000000 0.000000
0.828144 1.000000 0.000000
0.918291 1.000000 0.000000
1.000000 1.000000 0.000000
1.000000 1.000000 0.000000
1.000000 1.000000 0.000000
1.000000 1.000000 0.000000
0.051473 0.046794 0.193989
0.051473 0.046794 0.193989
0.137701 0.042683 0.190289
0.227848 0.038384 0.186421
0.317995 0.034086 0.182553
0.408142 0.029788 0.178684
0.498289 0.025490 0.174816
0.588436 0.021192 0.170948
0.678583 0.016894 0.167079
0.768730 0.012596 0.163211
0.858877 0.008298 0.159343
0.949024 0.003999 0.155474
1.000000 0.000000 0.151606
1.000000 0.000000 0.147738
1.000000 0.000000 0.143870
1.000000 0.000000 0.142860
1.000000 0.000000 0.142860
0.051473 0.046794 0.193989
0.051473 0.046794 0.193989
0.137701 0.042683 0.190289
