server/luts/highcontrast.cube
TITLE "Highcontrast"
LUT_3D_SIZE 5
0.000000 0.000000 0.000000
0.165773 0.000000 0.000000
0.552575 0.000000 0.000000
0.939377 0.000000 0.000000
1.000000 0.000000 0.000000
0.000000 0.159293 0.000000
0.152565 0.152565 0.000000
0.539367 0.136868 0.000000
0.926170 0.121170 0.000000
1.000000 0.114443 0.000000
0.000000 0.530975 0.000000
0.121748 0.524247 0.000000
0.508550 0.508550 0.000000
0.895352 0.492853 0.000000
1.000000 0.486125 0.000000
0.000000 0.902657 0.000000
0.090930 0.895930 0.000000
0.477733 0.880232 0.000000
0.864535 0.864535 0.000000
1.000000 0.857807 0.000000
0.000000 1.000000 0.000000
0.077723 1.000000 0.000000
0.464525 1.000000 0.000000
0.851328 1.000000 0.000000
1.000000 1.000000 0.000000
0.000000 0.000000 0.169935
0.163208 0.000000 0.163208
0.550010 0.000000 0.147510
0.936812 0.000000 0.131813
1.000000 0.000000 0.125085
0.000000 0.156728 0.156728
0.150000 0.150000 0.150000
0.536802 0.134303 0.134303
0.923605 0.118605 0.118605
1.000000 0.111878 0.111878
0.000000 0.528410 0.125910
0.119183 0.521683 0.119183
0.505985 0.505985 0.103485
0.892787 0.490287 0.087788
1.000000 0.483560 0.081060
0.000000 0.900092 0.095093
0.088365 0.893365 0.088365
0.475168 0.877667 0.072668
0.861970 0.861970 0.056970
1.000000 0.855243 0.050243
0.000000 1.000000 0.081885
0.075158 1.000000 0.075158
0.461960 1.000000 0.059460
0.848762 1.000000 0.043763
1.000000 1.000000 0.037035
0.000000 0.000000 0.566450
0.157223 0.000000 0.559723
0.544025 0.000000 0.544025
0.930827 0.000000 0.528327
1.000000 0.000000 0.521600
0.000000 0.150743 0.553242
0.144015 0.144015 0.546515
0.530817 0.128318 0.530817
0.917620 0.112620 0.515120
1.000000 0.105893 0.508393
0.000000 0.522425 0.522425
0.113198 0.515698 0.515698
0.500000 0.500000 0.500000
0.886802 0.484303 0.484303
1.000000 0.477575 0.477575
0.000000 0.894107 0.491608
0.082380 0.887380 0.484880
0.469183 0.871682 0.469183
0.855985 0.855985 0.453485
1.000000 0.849257 0.446758
0.000000 1.000000 0.478400
0.069173 1.000000 0.471672
0.455975 1.000000 0.455975
0.842777 1.000000 0.440278
1.000000 1.000000 0.433550
0.000000 0.000000 0.962965
0.151238 0.000000 0.956237
0.538040 0.000000 0.940540
0.924842 0.000000 0.924842
1.000000 0.000000 0.918115
0.000000 0.144758 0.949757
0.138030 0.138030 0.943030
0.524833 0.122333 0.927332
0.911635 0.106635 0.911635
1.000000 0.099908 0.904907
0.000000 0.516440 0.918940
0.107213 0.509713 0.912212
0.494015 0.494015 0.896515
0.880818 0.478318 0.880818
1.000000 0.471590 0.874090
0.000000 0.888122 0.888122
0.076395 0.881395 0.881395
0.463198 0.865698 0.865698
0.850000 0.850000 0.850000
1.000000 0.843272 0.843272
0.000000 1.000000 0.874915
0.063188 1.000000 0.868188
0.449990 1.000000 0.852490
0.836793 1.000000 0.836793
1.000000 1.000000 0.830065
0.000000 0.000000 1.000000
0.148673 0.000000 1.000000
0.535475 0.000000 1.000000
0.922277 0.000000 1.000000
1.000000 0.000000 1.000000
0.000000 0.142193 1.000000
0.135465 0.135465 1.000000
0.522267 0.119768 1.000000
0.909070 0.104070 1.000000
1.000000 0.097343 1.000000
0.000000 0.513875 1.000000
0.104648 0.507147 1.000000
0.491450 0.491450 1.000000
0.878252 0.475753 1.000000
1.000000 0.469025 1.000000
0.000000 0.885557 1.000000
0.073830 0.878830 1.000000
0.460633 0.863132 1.000000
0.847435 0.847435 1.000000
1.000000 0.840707 1.000000
0.000000 1.000000 1.000000
0.060623 1.000000 1.000000
0.447425 1.000000 1.000000
0.834228 1.000000 1.000000
1.000000 1.000000 1.000000
