server/luts/highcontrast.cube
TITLE "Highcontrast"
LUT_3D_SIZE 9
0.000000 0.000000 0.000000
0.000000 0.000000 0.000000
0.165773 0.000000 0.000000
0.359174 0.000000 0.000000
0.552575 0.000000 0.000000
0.745976 0.000000 0.000000
0.939377 0.000000 0.000000
1.000000 0.000000 0.000000
1.000000 0.000000 0.000000
0.000000 0.000000 0.000000
0.000000 0.000000 0.000000
0.165773 0.000000 0.000000
0.359174 0.000000 0.000000
0.552575 0.000000 0.000000
0.745976 0.000000 0.000000
0.939377 0.000000 0.000000
1.000000 0.000000 0.000000
1.000000 0.000000 0.000000
0.000000 0.159293 0.000000
0.000000 0.159293 0.000000
0.152565 0.152565 0.000000
0.345966 0.144716 0.000000
0.539367 0.136868 0.000000
0.732769 0.129019 0.000000
0.926170 0.121170 0.000000
1.000000 0.114443 0.000000
1.000000 0.114443 0.000000
0.000000 0.345134 0.000000
0.000000 0.345134 0.000000
0.137156 0.338406 0.000000
0.330558 0.330558 0.000000
0.523959 0.322709 0.000000
0.717360 0.314860 0.000000
0.910761 0.307011 0.000000
1.000000 0.300284 0.000000
1.000000 0.300284 0.000000
0.000000 0.530975 0.000000
0.000000 0.530975 0.000000
0.121748 0.524247 0.000000
0.315149 0.516399 0.000000
0.508550 0.508550 0.000000
0.701951 0.500701 0.000000
0.895352 0.492853 0.000000
1.000000 0.486125 0.000000
1.000000 0.486125 0.000000
0.000000 0.716816 0.000000
0.000000 0.716816 0.000000
0.106339 0.710089 0.000000
0.299740 0.702240 0.000000
0.493141 0.694391 0.000000
0.686543 0.686543 0.000000
0.879944 0.678694 0.000000
1.000000 0.671966 0.000000
1.000000 0.671966 0.000000
0.000000 0.902657 0.000000
0.000000 0.902657 0.000000
0.090930 0.895930 0.000000
0.284331 0.888081 0.000000
0.477733 0.880232 0.000000
0.671134 0.872384 0.000000
0.864535 0.864535 0.000000
1.000000 0.857807 0.000000
1.000000 0.857807 0.000000
0.000000 1.000000 0.000000
0.000000 1.000000 0.000000
0.077723 1.000000 0.000000
0.271124 1.000000 0.000000
0.464525 1.000000 0.000000
0.657926 1.000000 0.000000
0.851328 1.000000 0.000000
1.000000 1.000000 0.000000
1.000000 1.000000 0.000000
0.000000 1.000000 0.000000
0.000000 1.000000 0.000000
0.077723 1.000000 0.000000
0.271124 1.000000 0.000000
0.464525 1.000000 0.000000
0.657926 1.000000 0.000000
0.851328 1.000000 0.000000
1.000000 1.000000 0.000000
1.000000 1.000000 0.000000
0.000000 0.000000 0.000000
0.000000 0.000000 0.000000
0.165773 0.000000 0.000000
0.359174 0.000000 0.000000
0.552575 0.000000 0.000000
0.745976 0.000000 0.000000
0.939377 0.000000 0.000000
1.000000 0.000000 0.000000
1.000000 0.000000 0.000000
0.000000 0.000000 0.000000
0.000000 0.000000 0.000000
0.165773 0.000000 0.000000
0.359174 0.000000 0.000000
0.552575 0.000000 0.000000
0.745976 0.000000 0.000000
0.939377 0.000000 0.000000
1.000000 0.000000 0.000000
1.000000 0.000000 0.000000
0.000000 0.159293 0.000000
0.000000 0.159293 0.000000
0.152565 0.152565 0.000000
0.345966 0.144716 0.000000
0.539367 0.136868 0.000000
0.732769 0.129019 0.000000
0.926170 0.121170 0.000000
1.000000 0.114443 0.000000
1.000000 0.114443 0.000000
0.000000 0.345134 0.000000
0.000000 0.345134 0.000000
0.137156 0.338406 0.000000
0.330558 0.330558 0.000000
0.523959 0.322709 0.000000
0.717360 0.314860 0.000000
0.910761 0.307011 0.000000
1.000000 0.300284 0.000000
1.000000 0.300284 0.000000
0.000000 0.530975 0.000000
0.000000 0.530975 0.000000
0.121748 0.524247 0.000000
0.315149 0.516399 0.000000
0.508550 0.508550 0.000000
0.701951 0.500701 0.000000
0.895352 0.492853 0.000000
1.000000 0.486125 0.000000
1.000000 0.486125 0.000000
0.000000 0.716816 0.000000
0.000000 0.716816 0.000000
0.106339 0.710089 0.000000
0.299740 0.702240 0.000000
0.493141 0.694391 0.000000
0.686543 0.686543 0.000000
0.879944 0.678694 0.000000
1.000000 0.671966 0.000000
1.000000 0.671966 0.000000
0.000000 0.902657 0.000000
0.000000 0.902657 0.000000
0.090930 0.895930 0.000000
0.284331 0.888081 0.000000
0.477733 0.880232 0.000000
0.671134 0.872384 0.000000
0.864535 0.864535 0.000000
1.000000 0.857807 0.000000
1.000000 0.857807 0.000000
0.000000 1.000000 0.000000
0.000000 1.000000 0.000000
0.077723 1.000000 0.000000
0.271124 1.000000 0.000000
0.464525 1.000000 0.000000
0.657926 1.000000 0.000000
0.851328 1.000000 0.000000
1.000000 1.000000 0.000000
1.000000 1.000000 0.000000
0.000000 1.000000 0.000000
0.000000 1.000000 0.000000
0.077723 1.000000 0.000000
0.271124 1.000000 0.000000
0.464525 1.000000 0.000000
0.657926 1.000000 0.000000
0.851328 1.000000 0.000000
1.000000 1.000000 0.000000
1.000000 1.000000 0.000000
0.000000 0.000000 0.169935
0.000000 0.000000 0.169935
0.163208 0.000000 0.163208
0.356609 0.000000 0.155359
0.550010 0.000000 0.147510
0.743411 0.000000 0.139661
0.936812 0.000000 0.131813
1.000000 0.000000 0.125085
1.000000 0.000000 0.125085
0.000000 0.000000 0.169935
0.000000 0.000000 0.169935
0.163208 0.000000 0.163208
0.356609 0.000000 0.155359
0.550010 0.000000 0.147510
0.743411 0.000000 0.139661
0.936812 0.000000 0.131813
1.000000 0.000000 0.125085
1.000000 0.000000 0.125085
0.000000 0.156728 0.156728
0.000000 0.156728 0.156728
0.150000 0.150000 0.150000
0.343401 0.142151 0.142151
0.536802 0.134303 0.134303
0.730204 0.126454 0.126454
0.923605 0.118605 0.118605
1.000000 0.111878 0.111878
1.000000 0.111878 0.111878
0.000000 0.342569 0.141319
0.000000 0.342569 0.141319
0.134591 0.335841 0.134591
0.327993 0.327993 0.126743
0.521394 0.320144 0.118894
0.714795 0.312295 0.111045
0.908196 0.304446 0.103196
1.000000 0.297719 0.096469
1.000000 0.297719 0.096469
0.000000 0.528410 0.125910
0.000000 0.528410 0.125910
0.119183 0.521683 0.119183
0.312584 0.513834 0.111334
0.505985 0.505985 0.103485
0.699386 0.498136 0.095636
0.892787 0.490287 0.087788
1.000000 0.483560 0.081060
1.000000 0.483560 0.081060
0.000000 0.714251 0.110501
0.000000 0.714251 0.110501
0.103774 0.707524 0.103774
0.297175 0.699675 0.095925
0.490576 0.691826 0.088076
0.683978 0.683978 0.080228
0.877379 0.676129 0.072379
1.000000 0.669401 0.065651
1.000000 0.669401 0.065651
0.000000 0.900092 0.095093
0.000000 0.900092 0.095093
0.088365 0.893365 0.088365
0.281766 0.885516 0.080516
0.475168 0.877667 0.072668
0.668569 0.869819 0.064819
0.861970 0.861970 0.056970
1.000000 0.855243 0.050243
1.000000 0.855243 0.050243
0.000000 1.000000 0.081885
0.000000 1.000000 0.081885
0.075158 1.000000 0.075158
0.268559 1.000000 0.067309
0.461960 1.000000 0.059460
0.655361 1.000000 0.051611
0.848762 1.000000 0.043763
1.000000 1.000000 0.037035
1.000000 1.000000 0.037035
0.000000 1.000000 0.081885
0.000000 1.000000 0.081885
0.075158 1.000000 0.075158
0.268559 1.000000 0.067309
0.461960 1.000000 0.059460
0.655361 1.000000 0.051611
0.848762 1.000000 0.043763
1.000000 1.000000 0.037035
1.000000 1.000000 0.037035
0.000000 0.000000 0.368193
0.000000 0.000000 0.368193
0.160215 0.000000 0.361465
0.353616 0.000000 0.353616
0.547017 0.000000 0.345768
0.740419 0.000000 0.337919
0.933820 0.000000 0.330070
1.000000 0.000000 0.323343
1.000000 0.000000 0.323343
0.000000 0.000000 0.368193
0.000000 0.000000 0.368193
0.160215 0.000000 0.361465
0.353616 0.000000 0.353616
0.547017 0.000000 0.345768
0.740419 0.000000 0.337919
0.933820 0.000000 0.330070
1.000000 0.000000 0.323343
1.000000 0.000000 0.323343
0.000000 0.153735 0.354985
0.000000 0.153735 0.354985
0.147008 0.147008 0.348257
0.340409 0.139159 0.340409
0.533810 0.131310 0.332560
0.727211 0.123461 0.324711
0.920612 0.115613 0.316863
1.000000 0.108885 0.310135
1.000000 0.108885 0.310135
0.000000 0.339576 0.339576
0.000000 0.339576 0.339576
0.131599 0.332849 0.332849
0.325000 0.325000 0.325000
0.518401 0.317151 0.317151
0.711803 0.309303 0.309303
0.905204 0.301454 0.301454
1.000000 0.294726 0.294726
1.000000 0.294726 0.294726
0.000000 0.525417 0.324167
0.000000 0.525417 0.324167
0.116190 0.518690 0.317440
0.309591 0.510841 0.309591
0.502992 0.502992 0.301743
0.696394 0.495144 0.293894
0.889795 0.487295 0.286045
1.000000 0.480568 0.279318
1.000000 0.480568 0.279318
0.000000 0.711259 0.308759
0.000000 0.711259 0.308759
0.100781 0.704531 0.302031
0.294183 0.696683 0.294183
0.487584 0.688834 0.286334
0.680985 0.680985 0.278485
0.874386 0.673136 0.270636
1.000000 0.666409 0.263909
1.000000 0.666409 0.263909
0.000000 0.897100 0.293350
0.000000 0.897100 0.293350
0.085373 0.890373 0.286623
0.278774 0.882524 0.278774
0.472175 0.874675 0.270925
0.665576 0.866826 0.263076
0.858977 0.858977 0.255228
1.000000 0.852250 0.248500
1.000000 0.852250 0.248500
0.000000 1.000000 0.280143
0.000000 1.000000 0.280143
0.072165 1.000000 0.273415
0.265566 1.000000 0.265566
0.458968 1.000000 0.257718
0.652369 1.000000 0.249869
0.845770 1.000000 0.242020
1.000000 1.000000 0.235293
1.000000 1.000000 0.235293
0.000000 1.000000 0.280143
0.000000 1.000000 0.280143
0.072165 1.000000 0.273415
0.265566 1.000000 0.265566
0.458968 1.000000 0.257718
0.652369 1.000000 0.249869
0.845770 1.000000 0.242020
1.000000 1.000000 0.235293
1.000000 1.000000 0.235293
0.000000 0.000000 0.566450
0.000000 0.000000 0.566450
0.157223 0.000000 0.559723
0.350624 0.000000 0.551874
0.544025 0.000000 0.544025
0.737426 0.000000 0.536176
0.930827 0.000000 0.528327
1.000000 0.000000 0.521600
1.000000 0.000000 0.521600
0.000000 0.000000 0.566450
0.000000 0.000000 0.566450
0.157223 0.000000 0.559723
0.350624 0.000000 0.551874
0.544025 0.000000 0.544025
0.737426 0.000000 0.536176
0.930827 0.000000 0.528327
1.000000 0.000000 0.521600
1.000000 0.000000 0.521600
0.000000 0.150743 0.553242
0.000000 0.150743 0.553242
0.144015 0.144015 0.546515
0.337416 0.136166 0.538666
0.530817 0.128318 0.530817
0.724219 0.120469 0.522969
0.917620 0.112620 0.515120
1.000000 0.105893 0.508393
1.000000 0.105893 0.508393
0.000000 0.336584 0.537834
0.000000 0.336584 0.537834
0.128606 0.329856 0.531106
0.322008 0.322008 0.523257
0.515409 0.314159 0.515409
0.708810 0.306310 0.507560
0.902211 0.298461 0.499711
1.000000 0.291734 0.492984
1.000000 0.291734 0.492984
0.000000 0.522425 0.522425
0.000000 0.522425 0.522425
0.113198 0.515698 0.515698
0.306599 0.507849 0.507849
0.500000 0.500000 0.500000
0.693401 0.492151 0.492151
0.886802 0.484303 0.484303
1.000000 0.477575 0.477575
1.000000 0.477575 0.477575
0.000000 0.708266 0.507016
0.000000 0.708266 0.507016
0.097789 0.701539 0.500289
0.291190 0.693690 0.492440
0.484591 0.685841 0.484591
0.677992 0.677992 0.476743
0.871394 0.670144 0.468894
1.000000 0.663416 0.462166
1.000000 0.663416 0.462166
0.000000 0.894107 0.491608
0.000000 0.894107 0.491608
0.082380 0.887380 0.484880
0.275781 0.879531 0.477031
0.469183 0.871682 0.469183
0.662584 0.863834 0.461334
0.855985 0.855985 0.453485
1.000000 0.849257 0.446758
1.000000 0.849257 0.446758
0.000000 1.000000 0.478400
0.000000 1.000000 0.478400
0.069173 1.000000 0.471672
0.262574 1.000000 0.463824
0.455975 1.000000 0.455975
0.649376 1.000000 0.448126
0.842777 1.000000 0.440278
1.000000 1.000000 0.433550
1.000000 1.000000 0.433550
0.000000 1.000000 0.478400
0.000000 1.000000 0.478400
0.069173 1.000000 0.471672
0.262574 1.000000 0.463824
0.455975 1.000000 0.455975
0.649376 1.000000 0.448126
0.842777 1.000000 0.440278
1.000000 1.000000 0.433550
1.000000 1.000000 0.433550
0.000000 0.000000 0.764707
0.000000 0.000000 0.764707
0.154230 0.000000 0.757980
0.347631 0.000000 0.750131
0.541033 0.000000 0.742282
0.734434 0.000000 0.734434
0.927835 0.000000 0.726585
1.000000 0.000000 0.719858
1.000000 0.000000 0.719858
0.000000 0.000000 0.764707
0.000000 0.000000 0.764707
0.154230 0.000000 0.757980
0.347631 0.000000 0.750131
0.541033 0.000000 0.742282
0.734434 0.000000 0.734434
0.927835 0.000000 0.726585
1.000000 0.000000 0.719858
1.000000 0.000000 0.719858
0.000000 0.147750 0.751500
0.000000 0.147750 0.751500
0.141023 0.141023 0.744773
0.334424 0.133174 0.736924
0.527825 0.125325 0.729075
0.721226 0.117476 0.721226
0.914627 0.109628 0.713377
1.000000 0.102900 0.706650
1.000000 0.102900 0.706650
0.000000 0.333591 0.736091
0.000000 0.333591 0.736091
0.125614 0.326864 0.729364
0.319015 0.319015 0.721515
0.512416 0.311166 0.713666
0.705817 0.303318 0.705817
0.899219 0.295469 0.697969
1.000000 0.288741 0.691241
1.000000 0.288741 0.691241
0.000000 0.519432 0.720683
0.000000 0.519432 0.720683
0.110205 0.512705 0.713955
0.303606 0.504856 0.706106
0.497007 0.497007 0.698258
0.690409 0.489159 0.690409
0.883810 0.481310 0.682560
1.000000 0.474583 0.675833
1.000000 0.474583 0.675833
0.000000 0.705274 0.705274
0.000000 0.705274 0.705274
0.094796 0.698546 0.698546
0.288198 0.690698 0.690698
0.481599 0.682849 0.682849
0.675000 0.675000 0.675000
0.868401 0.667151 0.667151
1.000000 0.660424 0.660424
1.000000 0.660424 0.660424
0.000000 0.891115 0.689865
0.000000 0.891115 0.689865
0.079388 0.884387 0.683138
0.272789 0.876539 0.675289
0.466190 0.868690 0.667440
0.659591 0.860841 0.659591
0.852993 0.852993 0.651743
1.000000 0.846265 0.645015
1.000000 0.846265 0.645015
0.000000 1.000000 0.676658
0.000000 1.000000 0.676658
0.066180 1.000000 0.669930
0.259581 1.000000 0.662081
0.452983 1.000000 0.654233
0.646384 1.000000 0.646384
0.839785 1.000000 0.638535
1.000000 1.000000 0.631808
1.000000 1.000000 0.631808
0.000000 1.000000 0.676658
0.000000 1.000000 0.676658
0.066180 1.000000 0.669930
0.259581 1.000000 0.662081
0.452983 1.000000 0.654233
0.646384 1.000000 0.646384
0.839785 1.000000 0.638535
1.000000 1.000000 0.631808
1.000000 1.000000 0.631808
0.000000 0.000000 0.962965
0.000000 0.000000 0.962965
0.151238 0.000000 0.956237
0.344639 0.000000 0.948389
0.538040 0.000000 0.940540
0.731441 0.000000 0.932691
0.924842 0.000000 0.924842
1.000000 0.000000 0.918115
1.000000 0.000000 0.918115
0.000000 0.000000 0.962965
0.000000 0.000000 0.962965
0.151238 0.000000 0.956237
0.344639 0.000000 0.948389
0.538040 0.000000 0.940540
0.731441 0.000000 0.932691
0.924842 0.000000 0.924842
1.000000 0.000000 0.918115
1.000000 0.000000 0.918115
0.000000 0.144758 0.949757
0.000000 0.144758 0.949757
0.138030 0.138030 0.943030
0.331431 0.130181 0.935181
0.524833 0.122333 0.927332
0.718234 0.114484 0.919484
0.911635 0.106635 0.911635
1.000000 0.099908 0.904907
1.000000 0.099908 0.904907
0.000000 0.330599 0.934349
0.000000 0.330599 0.934349
0.122621 0.323871 0.927621
0.316023 0.316023 0.919772
0.509424 0.308174 0.911924
0.702825 0.300325 0.904075
0.896226 0.292476 0.896226
1.000000 0.285749 0.889499
1.000000 0.285749 0.889499
0.000000 0.516440 0.918940
0.000000 0.516440 0.918940
0.107213 0.509713 0.912212
0.300614 0.501864 0.904364
0.494015 0.494015 0.896515
0.687416 0.486166 0.888666
0.880818 0.478318 0.880818
1.000000 0.471590 0.874090
1.000000 0.471590 0.874090
0.000000 0.702281 0.903531
0.000000 0.702281 0.903531
0.091804 0.695554 0.896804
0.285205 0.687705 0.888955
0.478606 0.679856 0.881106
0.672008 0.672008 0.873258
0.865409 0.664159 0.865409
1.000000 0.657431 0.858681
1.000000 0.657431 0.858681
0.000000 0.888122 0.888122
0.000000 0.888122 0.888122
0.076395 0.881395 0.881395
0.269796 0.873546 0.873546
0.463198 0.865698 0.865698
0.656599 0.857849 0.857849
0.850000 0.850000 0.850000
1.000000 0.843272 0.843272
1.000000 0.843272 0.843272
0.000000 1.000000 0.874915
0.000000 1.000000 0.874915
0.063188 1.000000 0.868188
0.256589 1.000000 0.860339
0.449990 1.000000 0.852490
0.643391 1.000000 0.844641
0.836793 1.000000 0.836793
1.000000 1.000000 0.830065
1.000000 1.000000 0.830065
0.000000 1.000000 0.874915
0.000000 1.000000 0.874915
0.063188 1.000000 0.868188
0.256589 1.000000 0.860339
0.449990 1.000000 0.852490
0.643391 1.000000 0.844641
0.836793 1.000000 0.836793
1.000000 1.000000 0.830065
1.000000 1.000000 0.830065
0.000000 0.000000 1.000000
0.000000 0.000000 1.000000
0.148673 0.000000 1.000000
0.342074 0.000000 1.000000
0.535475 0.000000 1.000000
0.728876 0.000000 1.000000
0.922277 0.000000 1.000000
1.000000 0.000000 1.000000
1.000000 0.000000 1.000000
0.000000 0.000000 1.000000
0.000000 0.000000 1.000000
0.148673 0.000000 1.000000
0.342074 0.000000 1.000000
0.535475 0.000000 1.000000
0.728876 0.000000 1.000000
0.922277 0.000000 1.000000
1.000000 0.000000 1.000000
1.000000 0.000000 1.000000
0.000000 0.142193 1.000000
0.000000 0.142193 1.000000
0.135465 0.135465 1.000000
0.328866 0.127616 1.000000
0.522267 0.119768 1.000000
0.715669 0.111919 1.000000
0.909070 0.104070 1.000000
1.000000 0.097343 1.000000
1.000000 0.097343 1.000000
0.000000 0.328034 1.000000
0.000000 0.328034 1.000000
0.120056 0.321306 1.000000
0.313458 0.313458 1.000000
0.506859 0.305609 1.000000
0.700260 0.297760 1.000000
0.893661 0.289911 1.000000
1.000000 0.283184 1.000000
1.000000 0.283184 1.000000
0.000000 0.513875 1.000000
0.000000 0.513875 1.000000
0.104648 0.507147 1.000000
0.298049 0.499299 1.000000
0.491450 0.491450 1.000000
0.684851 0.483601 1.000000
0.878252 0.475753 1.000000
1.000000 0.469025 1.000000
1.000000 0.469025 1.000000
0.000000 0.699716 1.000000
0.000000 0.699716 1.000000
0.089239 0.692989 1.000000
0.282640 0.685140 1.000000
0.476041 0.677291 1.000000
0.669443 0.669443 1.000000
0.862844 0.661594 1.000000
1.000000 0.654866 1.000000
1.000000 0.654866 1.000000
0.000000 0.885557 1.000000
0.000000 0.885557 1.000000
0.073830 0.878830 1.000000
0.267231 0.870981 1.000000
0.460633 0.863132 1.000000
0.654034 0.855284 1.000000
0.847435 0.847435 1.000000
1.000000 0.840707 1.000000
1.000000 0.840707 1.000000
0.000000 1.000000 1.000000
0.000000 1.000000 1.000000
0.060623 1.000000 1.000000
0.254024 1.000000 1.000000
0.447425 1.000000 1.000000
0.640826 1.000000 1.000000
0.834228 1.000000 1.000000
1.000000 1.000000 1.000000
1.000000 1.000000 1.000000
0.000000 1.000000 1.000000
0.000000 1.000000 1.000000
0.060623 1.000000 1.000000
0.254024 1.000000 1.000000
0.447425 1.000000 1.000000
0.640826 1.000000 1.000000
0.834228 1.000000 1.000000
1.000000 1.000000 1.000000
1.000000 1.000000 1.000000
0.000000 0.000000 1.000000
0.000000 0.000000 1.000000
0.148673 0.000000 1.000000
0.342074 0.000000 1.000000
0.535475 0.000000 1.000000
0.728876 0.000000 1.000000
0.922277 0.000000 1.000000
1.000000 0.000000 1.000000
1.000000 0.000000 1.000000
0.000000 0.000000 1.000000
0.000000 0.000000 1.000000
0.148673 0.000000 1.000000
0.342074 0.000000 1.000000
0.535475 0.000000 1.000000
0.728876 0.000000 1.000000
0.922277 0.000000 1.000000
1.000000 0.000000 1.000000
1.000000 0.000000 1.000000
0.000000 0.142193 1.000000
0.000000 0.142193 1.000000
0.135465 0.135465 1.000000
0.328866 0.127616 1.000000
0.522267 0.119768 1.000000
0.715669 0.111919 1.000000
0.909070 0.104070 1.000000
1.000000 0.097343 1.000000
1.000000 0.097343 1.000000
0.000000 0.328034 1.000000
0.000000 0.328034 1.000000
0.120056 0.321306 1.000000
0.313458 0.313458 1.000000
0.506859 0.305609 1.000000
0.700260 0.297760 1.000000
0.893661 0.289911 1.000000
1.000000 0.283184 1.000000
1.000000 0.283184 1.000000
0.000000 0.513875 1.000000
0.000000 0.513875 1.000000
0.104648 0.507147 1.000000
0.298049 0.499299 1.000000
0.491450 0.491450 1.000000
0.684851 0.483601 1.000000
0.878252 0.475753 1.000000
1.000000 0.469025 1.000000
1.000000 0.469025 1.000000
0.000000 0.699716 1.000000
0.000000 0.699716 1.000000
0.089239 0.692989 1.000000
0.282640 0.685140 1.000000
0.476041 0.677291 1.000000
0.669443 0.669443 1.000000
0.862844 0.661594 1.000000
1.000000 0.654866 1.000000
1.000000 0.654866 1.000000
0.000000 0.885557 1.000000
0.000000 0.885557 1.000000
0.073830 0.878830 1.000000
0.267231 0.870981 1.000000
0.460633 0.863132 1.000000
0.654034 0.855284 1.000000
0.847435 0.847435 1.000000
1.000000 0.840707 1.000000
1.000000 0.840707 1.000000
0.000000 1.000000 1.000000
0.000000 1.000000 1.000000
0.060623 1.000000 1.000000
0.254024 1.000000 1.000000
0.447425 1.000000 1.000000
0.640826 1.000000 1.000000
0.834228 1.000000 1.000000
1.000000 1.000000 1.000000
1.000000 1.000000 1.000000
0.000000 1.000000 1.000000
0.000000 1.000000 1.000000
0.060623 1.000000 1.000000
0.254024 1.000000 1.000000
0.447425 1.000000 1.000000
0.640826 1.000000 1.000000
0.834228 1.000000 1.000000
1.000000 1.000000 1.000000
1.000000 1.000000 1.000000
