server/luts/highcontrast.cube
TITLE "Highcontrast"
LUT_3D_SIZE 17
0.000000 0.000000 0.000000
0.000000 0.000000 0.000000
0.000000 0.000000 0.000000
0.069072 0.000000 0.000000
0.165773 0.000000 0.000000
0.262473 0.000000 0.000000
0.359174 0.000000 0.000000
0.455874 0.000000 0.000000
0.552575 0.000000 0.000000
0.649276 0.000000 0.000000
0.745976 0.000000 0.000000
0.842677 0.000000 0.000000
0.939377 0.000000 0.000000
1.000000 0.000000 0.000000
1.000000 0.000000 0.000000
1.000000 0.000000 0.000000
1.000000 0.000000 0.000000
0.000000 0.000000 0.000000
0.000000 0.000000 0.000000
0.000000 0.000000 0.000000
0.069072 0.000000 0.000000
0.165773 0.000000 0.000000
0.262473 0.000000 0.000000
0.359174 0.000000 0.000000
0.455874 0.000000 0.000000
0.552575 0.000000 0.000000
0.649276 0.000000 0.000000
0.745976 0.000000 0.000000
0.842677 0.000000 0.000000
0.939377 0.000000 0.000000
1.000000 0.000000 0.000000
1.000000 0.000000 0.000000
1.000000 0.000000 0.000000
1.000000 0.000000 0.000000
0.000000 0.000000 0.000000
0.000000 0.000000 0.000000
0.000000 0.000000 0.000000
0.069072 0.000000 0.000000
0.165773 0.000000 0.000000
0.262473 0.000000 0.000000
0.359174 0.000000 0.000000
0.455874 0.000000 0.000000
0.552575 0.000000 0.000000
0.649276 0.000000 0.000000
0.745976 0.000000 0.000000
0.842677 0.000000 0.000000
0.939377 0.000000 0.000000
1.000000 0.000000 0.000000
1.000000 0.000000 0.000000
1.000000 0.000000 0.000000
1.000000 0.000000 0.000000
0.000000 0.066372 0.000000
0.000000 0.066372 0.000000
0.000000 0.066372 0.000000
0.063569 0.063569 0.000000
0.160269 0.059644 0.000000
0.256970 0.055720 0.000000
0.353671 0.051796 0.000000
0.450371 0.047871 0.000000
0.547072 0.043947 0.000000
0.643772 0.040023 0.000000
0.740473 0.036098 0.000000
0.837174 0.032174 0.000000
0.933874 0.028249 0.000000
1.000000 0.024325 0.000000
1.000000 0.021522 0.000000
1.000000 0.021522 0.000000
1.000000 0.021522 0.000000
0.000000 0.159293 0.000000
0.000000 0.159293 0.000000
0.000000 0.159293 0.000000
0.055864 0.156489 0.000000
0.152565 0.152565 0.000000
0.249266 0.148641 0.000000
0.345966 0.144716 0.000000
0.442667 0.140792 0.000000
0.539367 0.136868 0.000000
0.636068 0.132943 0.000000
0.732769 0.129019 0.000000
0.829469 0.125094 0.000000
0.926170 0.121170 0.000000
1.000000 0.117246 0.000000
1.000000 0.114443 0.000000
1.000000 0.114443 0.000000
1.000000 0.114443 0.000000
0.000000 0.252213 0.000000
0.000000 0.252213 0.000000
0.000000 0.252213 0.000000
0.048160 0.249410 0.000000
0.144861 0.245486 0.000000
0.241561 0.241561 0.000000
0.338262 0.237637 0.000000
0.434962 0.233713 0.000000
0.531663 0.229788 0.000000
0.628364 0.225864 0.000000
0.725064 0.221939 0.000000
0.821765 0.218015 0.000000
0.918466 0.214091 0.000000
1.000000 0.210166 0.000000
1.000000 0.207363 0.000000
1.000000 0.207363 0.000000
1.000000 0.207363 0.000000
0.000000 0.345134 0.000000
0.000000 0.345134 0.000000
0.000000 0.345134 0.000000
0.040456 0.342331 0.000000
0.137156 0.338406 0.000000
0.233857 0.334482 0.000000
0.330558 0.330558 0.000000
0.427258 0.326633 0.000000
0.523959 0.322709 0.000000
0.620659 0.318784 0.000000
0.717360 0.314860 0.000000
0.814061 0.310936 0.000000
0.910761 0.307011 0.000000
1.000000 0.303087 0.000000
1.000000 0.300284 0.000000
1.000000 0.300284 0.000000
1.000000 0.300284 0.000000
0.000000 0.438054 0.000000
0.000000 0.438054 0.000000
0.000000 0.438054 0.000000
0.032751 0.435251 0.000000
0.129452 0.431327 0.000000
0.226153 0.427402 0.000000
0.322853 0.423478 0.000000
0.419554 0.419554 0.000000
0.516254 0.415629 0.000000
0.612955 0.411705 0.000000
0.709656 0.407781 0.000000
0.806356 0.403856 0.000000
0.903057 0.399932 0.000000
0.999757 0.396007 0.000000
1.000000 0.393204 0.000000
1.000000 0.393204 0.000000
1.000000 0.393204 0.000000
0.000000 0.530975 0.000000
0.000000 0.530975 0.000000
0.000000 0.530975 0.000000
0.025047 0.528172 0.000000
0.121748 0.524247 0.000000
0.218448 0.520323 0.000000
0.315149 0.516399 0.000000
0.411849 0.512474 0.000000
0.508550 0.508550 0.000000
0.605251 0.504626 0.000000
0.701951 0.500701 0.000000
0.798652 0.496777 0.000000
0.895352 0.492853 0.000000
0.992053 0.488928 0.000000
1.000000 0.486125 0.000000
1.000000 0.486125 0.000000
1.000000 0.486125 0.000000
0.000000 0.623896 0.000000
0.000000 0.623896 0.000000
0.000000 0.623896 0.000000
0.017343 0.621093 0.000000
0.114043 0.617168 0.000000
0.210744 0.613244 0.000000
0.307444 0.609319 0.000000
0.404145 0.605395 0.000000
0.500846 0.601471 0.000000
0.597546 0.597546 0.000000
0.694247 0.593622 0.000000
0.790947 0.589697 0.000000
0.887648 0.585773 0.000000
0.984349 0.581849 0.000000
1.000000 0.579046 0.000000
1.000000 0.579046 0.000000
1.000000 0.579046 0.000000
0.000000 0.716816 0.000000
0.000000 0.716816 0.000000
0.000000 0.716816 0.000000
0.009638 0.714013 0.000000
0.106339 0.710089 0.000000
0.203039 0.706164 0.000000
0.299740 0.702240 0.000000
0.396441 0.698316 0.000000
0.493141 0.694391 0.000000
0.589842 0.690467 0.000000
0.686543 0.686543 0.000000
0.783243 0.682618 0.000000
0.879944 0.678694 0.000000
0.976644 0.674769 0.000000
1.000000 0.671966 0.000000
1.000000 0.671966 0.000000
1.000000 0.671966 0.000000
0.000000 0.809737 0.000000
0.000000 0.809737 0.000000
0.000000 0.809737 0.000000
0.001934 0.806934 0.000000
0.098634 0.803009 0.000000
0.195335 0.799085 0.000000
0.292036 0.795161 0.000000
0.388736 0.791236 0.000000
0.485437 0.787312 0.000000
0.582137 0.783387 0.000000
0.678838 0.779463 0.000000
0.775539 0.775539 0.000000
0.872239 0.771614 0.000000
0.968940 0.767690 0.000000
1.000000 0.764887 0.000000
1.000000 0.764887 0.000000
1.000000 0.764887 0.000000
0.000000 0.902657 0.000000
0.000000 0.902657 0.000000
0.000000 0.902657 0.000000
0.000000 0.899854 0.000000
0.090930 0.895930 0.000000
0.187631 0.892006 0.000000
0.284331 0.888081 0.000000
0.381032 0.884157 0.000000
0.477733 0.880232 0.000000
0.574433 0.876308 0.000000
0.671134 0.872384 0.000000
0.767834 0.868459 0.000000
0.864535 0.864535 0.000000
0.961236 0.860611 0.000000
1.000000 0.857807 0.000000
1.000000 0.857807 0.000000
1.000000 0.857807 0.000000
0.000000 0.995578 0.000000
0.000000 0.995578 0.000000
0.000000 0.995578 0.000000
0.000000 0.992775 0.000000
0.083226 0.988851 0.000000
0.179926 0.984926 0.000000
0.276627 0.981002 0.000000
0.373327 0.977078 0.000000
0.470028 0.973153 0.000000
0.566729 0.969229 0.000000
0.663429 0.965304 0.000000
0.760130 0.961380 0.000000
0.856831 0.957456 0.000000
0.953531 0.953531 0.000000
1.000000 0.950728 0.000000
1.000000 0.950728 0.000000
1.000000 0.950728 0.000000
0.000000 1.000000 0.000000
0.000000 1.000000 0.000000
0.000000 1.000000 0.000000
0.000000 1.000000 0.000000
0.077723 1.000000 0.000000
0.174423 1.000000 0.000000
0.271124 1.000000 0.000000
0.367824 1.000000 0.000000
0.464525 1.000000 0.000000
0.561226 1.000000 0.000000
0.657926 1.000000 0.000000
0.754627 1.000000 0.000000
0.851328 1.000000 0.000000
0.948028 1.000000 0.000000
1.000000 1.000000 0.000000
1.000000 1.000000 0.000000
1.000000 1.000000 0.000000
0.000000 1.000000 0.000000
0.000000 1.000000 0.000000
0.000000 1.000000 0.000000
0.000000 1.000000 0.000000
0.077723 1.000000 0.000000
0.174423 1.000000 0.000000
0.271124 1.000000 0.000000
0.367824 1.000000 0.000000
0.464525 1.000000 0.000000
0.561226 1.000000 0.000000
0.657926 1.000000 0.000000
0.754627 1.000000 0.000000
0.851328 1.000000 0.000000
0.948028 1.000000 0.000000
1.000000 1.000000 0.000000
1.000000 1.000000 0.000000
1.000000 1.000000 0.000000
0.000000 1.000000 0.000000
0.000000 1.000000 0.000000
0.000000 1.000000 0.000000
0.000000 1.000000 0.000000
0.077723 1.000000 0.000000
0.174423 1.000000 0.000000
0.271124 1.000000 0.000000
0.367824 1.000000 0.000000
0.464525 1.000000 0.000000
0.561226 1.000000 0.000000
0.657926 1.000000 0.000000
0.754627 1.000000 0.000000
0.851328 1.000000 0.000000
0.948028 1.000000 0.000000
1.000000 1.000000 0.000000
1.000000 1.000000 0.000000
1.000000 1.000000 0.000000
0.000000 0.000000 0.000000
0.000000 0.000000 0.000000
0.000000 0.000000 0.000000
0.069072 0.000000 0.000000
0.165773 0.000000 0.000000
0.262473 0.000000 0.000000
0.359174 0.000000 0.000000
0.455874 0.000000 0.000000
0.552575 0.000000 0.000000
0.649276 0.000000 0.000000
0.745976 0.000000 0.000000
0.842677 0.000000 0.000000
0.939377 0.000000 0.000000
1.000000 0.000000 0.000000
1.000000 0.000000 0.000000
1.000000 0.000000 0.000000
1.000000 0.000000 0.000000
0.000000 0.000000 0.000000
0.000000 0.000000 0.000000
0.000000 0.000000 0.000000
0.069072 0.000000 0.000000
0.165773 0.000000 0.000000
0.262473 0.000000 0.000000
0.359174 0.000000 0.000000
0.455874 0.000000 0.000000
0.552575 0.000000 0.000000
0.649276 0.000000 0.000000
0.745976 0.000000 0.000000
0.842677 0.000000 0.000000
0.939377 0.000000 0.000000
1.000000 0.000000 0.000000
1.000000 0.000000 0.000000
1.000000 0.000000 0.000000
1.000000 0.000000 0.000000
0.000000 0.000000 0.000000
0.000000 0.000000 0.000000
0.000000 0.000000 0.000000
0.069072 0.000000 0.000000
0.165773 0.000000 0.000000
0.262473 0.000000 0.000000
0.359174 0.000000 0.000000
0.455874 0.000000 0.000000
0.552575 0.000000 0.000000
0.649276 0.000000 0.000000
0.745976 0.000000 0.000000
0.842677 0.000000 0.000000
0.939377 0.000000 0.000000
1.000000 0.000000 0.000000
1.000000 0.000000 0.000000
1.000000 0.000000 0.000000
1.000000 0.000000 0.000000
0.000000 0.066372 0.000000
0.000000 0.066372 0.000000
0.000000 0.066372 0.000000
0.063569 0.063569 0.000000
0.160269 0.059644 0.000000
0.256970 0.055720 0.000000
0.353671 0.051796 0.000000
0.450371 0.047871 0.000000
0.547072 0.043947 0.000000
0.643772 0.040023 0.000000
0.740473 0.036098 0.000000
0.837174 0.032174 0.000000
0.933874 0.028249 0.000000
1.000000 0.024325 0.000000
1.000000 0.021522 0.000000
1.000000 0.021522 0.000000
1.000000 0.021522 0.000000
0.000000 0.159293 0.000000
0.000000 0.159293 0.000000
0.000000 0.159293 0.000000
0.055864 0.156489 0.000000
0.152565 0.152565 0.000000
0.249266 0.148641 0.000000
0.345966 0.144716 0.000000
0.442667 0.140792 0.000000
0.539367 0.136868 0.000000
0.636068 0.132943 0.000000
0.732769 0.129019 0.000000
0.829469 0.125094 0.000000
0.926170 0.121170 0.000000
1.000000 0.117246 0.000000
1.000000 0.114443 0.000000
1.000000 0.114443 0.000000
1.000000 0.114443 0.000000
0.000000 0.252213 0.000000
0.000000 0.252213 0.000000
0.000000 0.252213 0.000000
0.048160 0.249410 0.000000
0.144861 0.245486 0.000000
0.241561 0.241561 0.000000
0.338262 0.237637 0.000000
0.434962 0.233713 0.000000
0.531663 0.229788 0.000000
0.628364 0.225864 0.000000
0.725064 0.221939 0.000000
0.821765 0.218015 0.000000
0.918466 0.214091 0.000000
1.000000 0.210166 0.000000
1.000000 0.207363 0.000000
1.000000 0.207363 0.000000
1.000000 0.207363 0.000000
0.000000 0.345134 0.000000
0.000000 0.345134 0.000000
0.000000 0.345134 0.000000
0.040456 0.342331 0.000000
0.137156 0.338406 0.000000
0.233857 0.334482 0.000000
0.330558 0.330558 0.000000
0.427258 0.326633 0.000000
0.523959 0.322709 0.000000
0.620659 0.318784 0.000000
0.717360 0.314860 0.000000
0.814061 0.310936 0.000000
0.910761 0.307011 0.000000
1.000000 0.303087 0.000000
1.000000 0.300284 0.000000
1.000000 0.300284 0.000000
1.000000 0.300284 0.000000
0.000000 0.438054 0.000000
0.000000 0.438054 0.000000
0.000000 0.438054 0.000000
0.032751 0.435251 0.000000
0.129452 0.431327 0.000000
0.226153 0.427402 0.000000
0.322853 0.423478 0.000000
0.419554 0.419554 0.000000
0.516254 0.415629 0.000000
0.612955 0.411705 0.000000
0.709656 0.407781 0.000000
0.806356 0.403856 0.000000
0.903057 0.399932 0.000000
0.999757 0.396007 0.000000
1.000000 0.393204 0.000000
1.000000 0.393204 0.000000
1.000000 0.393204 0.000000
0.000000 0.530975 0.000000
0.000000 0.530975 0.000000
0.000000 0.530975 0.000000
0.025047 0.528172 0.000000
0.121748 0.524247 0.000000
0.218448 0.520323 0.000000
0.315149 0.516399 0.000000
0.411849 0.512474 0.000000
0.508550 0.508550 0.000000
0.605251 0.504626 0.000000
0.701951 0.500701 0.000000
0.798652 0.496777 0.000000
0.895352 0.492853 0.000000
0.992053 0.488928 0.000000
1.000000 0.486125 0.000000
1.000000 0.486125 0.000000
1.000000 0.486125 0.000000
0.000000 0.623896 0.000000
0.000000 0.623896 0.000000
0.000000 0.623896 0.000000
0.017343 0.621093 0.000000
0.114043 0.617168 0.000000
0.210744 0.613244 0.000000
0.307444 0.609319 0.000000
0.404145 0.605395 0.000000
0.500846 0.601471 0.000000
0.597546 0.597546 0.000000
0.694247 0.593622 0.000000
0.790947 0.589697 0.000000
0.887648 0.585773 0.000000
0.984349 0.581849 0.000000
1.000000 0.579046 0.000000
1.000000 0.579046 0.000000
1.000000 0.579046 0.000000
0.000000 0.716816 0.000000
0.000000 0.716816 0.000000
0.000000 0.716816 0.000000
0.009638 0.714013 0.000000
0.106339 0.710089 0.000000
0.203039 0.706164 0.000000
0.299740 0.702240 0.000000
0.396441 0.698316 0.000000
0.493141 0.694391 0.000000
0.589842 0.690467 0.000000
0.686543 0.686543 0.000000
0.783243 0.682618 0.000000
0.879944 0.678694 0.000000
0.976644 0.674769 0.000000
1.000000 0.671966 0.000000
1.000000 0.671966 0.000000
1.000000 0.671966 0.000000
0.000000 0.809737 0.000000
0.000000 0.809737 0.000000
0.000000 0.809737 0.000000
0.001934 0.806934 0.000000
0.098634 0.803009 0.000000
0.195335 0.799085 0.000000
0.292036 0.795161 0.000000
0.388736 0.791236 0.000000
0.485437 0.787312 0.000000
0.582137 0.783387 0.000000
0.678838 0.779463 0.000000
0.775539 0.775539 0.000000
0.872239 0.771614 0.000000
0.968940 0.767690 0.000000
1.000000 0.764887 0.000000
1.000000 0.764887 0.000000
1.000000 0.764887 0.000000
0.000000 0.902657 0.000000
0.000000 0.902657 0.000000
0.000000 0.902657 0.000000
0.000000 0.899854 0.000000
0.090930 0.895930 0.000000
0.187631 0.892006 0.000000
0.284331 0.888081 0.000000
0.381032 0.884157 0.000000
0.477733 0.880232 0.000000
0.574433 0.876308 0.000000
0.671134 0.872384 0.000000
0.767834 0.868459 0.000000
0.864535 0.864535 0.000000
0.961236 0.860611 0.000000
1.000000 0.857807 0.000000
1.000000 0.857807 0.000000
1.000000 0.857807 0.000000
0.000000 0.995578 0.000000
0.000000 0.995578 0.000000
0.000000 0.995578 0.000000
0.000000 0.992775 0.000000
0.083226 0.988851 0.000000
0.179926 0.984926 0.000000
0.276627 0.981002 0.000000
0.373327 0.977078 0.000000
0.470028 0.973153 0.000000
0.566729 0.969229 0.000000
0.663429 0.965304 0.000000
0.760130 0.961380 0.000000
0.856831 0.957456 0.000000
0.953531 0.953531 0.000000
1.000000 0.950728 0.000000
1.000000 0.950728 0.000000
1.000000 0.950728 0.000000
0.000000 1.000000 0.000000
0.000000 1.000000 0.000000
0.000000 1.000000 0.000000
0.000000 1.000000 0.000000
0.077723 1.000000 0.000000
0.174423 1.000000 0.000000
0.271124 1.000000 0.000000
0.367824 1.000000 0.000000
0.464525 1.000000 0.000000
0.561226 1.000000 0.000000
0.657926 1.000000 0.000000
0.754627 1.000000 0.000000
0.851328 1.000000 0.000000
0.948028 1.000000 0.000000
1.000000 1.000000 0.000000
1.000000 1.000000 0.000000
1.000000 1.000000 0.000000
0.000000 1.000000 0.000000
0.000000 1.000000 0.000000
0.000000 1.000000 0.000000
0.000000 1.000000 0.000000
0.077723 1.000000 0.000000
0.174423 1.000000 0.000000
0.271124 1.000000 0.000000
0.367824 1.000000 0.000000
0.464525 1.000000 0.000000
0.561226 1.000000 0.000000
0.657926 1.000000 0.000000
0.754627 1.000000 0.000000
0.851328 1.000000 0.000000
0.948028 1.000000 0.000000
1.000000 1.000000 0.000000
1.000000 1.000000 0.000000
1.000000 1.000000 0.000000
0.000000 1.000000 0.000000
0.000000 1.000000 0.000000
0.000000 1.000000 0.000000
0.000000 1.000000 0.000000
0.077723 1.000000 0.000000
0.174423 1.000000 0.000000
0.271124 1.000000 0.000000
0.367824 1.000000 0.000000
0.464525 1.000000 0.000000
0.561226 1.000000 0.000000
0.657926 1.000000 0.000000
0.754627 1.000000 0.000000
0.851328 1.000000 0.000000
0.948028 1.000000 0.000000
1.000000 1.000000 0.000000
1.000000 1.000000 0.000000
1.000000 1.000000 0.000000
0.000000 0.000000 0.000000
0.000000 0.000000 0.000000
0.000000 0.000000 0.000000
0.069072 0.000000 0.000000
0.165773 0.000000 0.000000
0.262473 0.000000 0.000000
0.359174 0.000000 0.000000
0.455874 0.000000 0.000000
0.552575 0.000000 0.000000
0.649276 0.000000 0.000000
0.745976 0.000000 0.000000
0.842677 0.000000 0.000000
0.939377 0.000000 0.000000
1.000000 0.000000 0.000000
1.000000 0.000000 0.000000
1.000000 0.000000 0.000000
1.000000 0.000000 0.000000
0.000000 0.000000 0.000000
0.000000 0.000000 0.000000
0.000000 0.000000 0.000000
0.069072 0.000000 0.000000
0.165773 0.000000 0.000000
0.262473 0.000000 0.000000
0.359174 0.000000 0.000000
0.455874 0.000000 0.000000
0.552575 0.000000 0.000000
0.649276 0.000000 0.000000
0.745976 0.000000 0.000000
0.842677 0.000000 0.000000
0.939377 0.000000 0.000000
1.000000 0.000000 0.000000
1.000000 0.000000 0.000000
1.000000 0.000000 0.000000
1.000000 0.000000 0.000000
0.000000 0.000000 0.000000
0.000000 0.000000 0.000000
0.000000 0.000000 0.000000
0.069072 0.000000 0.000000
0.165773 0.000000 0.000000
0.262473 0.000000 0.000000
0.359174 0.000000 0.000000
0.455874 0.000000 0.000000
0.552575 0.000000 0.000000
0.649276 0.000000 0.000000
0.745976 0.000000 0.000000
0.842677 0.000000 0.000000
0.939377 0.000000 0.000000
1.000000 0.000000 0.000000
1.000000 0.000000 0.000000
1.000000 0.000000 0.000000
1.000000 0.000000 0.000000
0.000000 0.066372 0.000000
0.000000 0.066372 0.000000
0.000000 0.066372 0.000000
0.063569 0.063569 0.000000
0.160269 0.059644 0.000000
0.256970 0.055720 0.000000
0.353671 0.051796 0.000000
0.450371 0.047871 0.000000
0.547072 0.043947 0.000000
0.643772 0.040023 0.000000
0.740473 0.036098 0.000000
0.837174 0.032174 0.000000
0.933874 0.028249 0.000000
1.000000 0.024325 0.000000
1.000000 0.021522 0.000000
1.000000 0.021522 0.000000
1.000000 0.021522 0.000000
0.000000 0.159293 0.000000
0.000000 0.159293 0.000000
0.000000 0.159293 0.000000
0.055864 0.156489 0.000000
0.152565 0.152565 0.000000
0.249266 0.148641 0.000000
0.345966 0.144716 0.000000
0.442667 0.140792 0.000000
0.539367 0.136868 0.000000
0.636068 0.132943 0.000000
0.732769 0.129019 0.000000
0.829469 0.125094 0.000000
0.926170 0.121170 0.000000
1.000000 0.117246 0.000000
1.000000 0.114443 0.000000
1.000000 0.114443 0.000000
1.000000 0.114443 0.000000
0.000000 0.252213 0.000000
0.000000 0.252213 0.000000
0.000000 0.252213 0.000000
0.048160 0.249410 0.000000
0.144861 0.245486 0.000000
0.241561 0.241561 0.000000
0.338262 0.237637 0.000000
0.434962 0.233713 0.000000
0.531663 0.229788 0.000000
0.628364 0.225864 0.000000
0.725064 0.221939 0.000000
0.821765 0.218015 0.000000
0.918466 0.214091 0.000000
1.000000 0.210166 0.000000
1.000000 0.207363 0.000000
1.000000 0.207363 0.000000
1.000000 0.207363 0.000000
0.000000 0.345134 0.000000
0.000000 0.345134 0.000000
0.000000 0.345134 0.000000
0.040456 0.342331 0.000000
0.137156 0.338406 0.000000
0.233857 0.334482 0.000000
0.330558 0.330558 0.000000
0.427258 0.326633 0.000000
0.523959 0.322709 0.000000
0.620659 0.318784 0.000000
0.717360 0.314860 0.000000
0.814061 0.310936 0.000000
0.910761 0.307011 0.000000
1.000000 0.303087 0.000000
1.000000 0.300284 0.000000
1.000000 0.300284 0.000000
1.000000 0.300284 0.000000
0.000000 0.438054 0.000000
0.000000 0.438054 0.000000
0.000000 0.438054 0.000000
0.032751 0.435251 0.000000
0.129452 0.431327 0.000000
0.226153 0.427402 0.000000
0.322853 0.423478 0.000000
0.419554 0.419554 0.000000
0.516254 0.415629 0.000000
0.612955 0.411705 0.000000
0.709656 0.407781 0.000000
0.806356 0.403856 0.000000
0.903057 0.399932 0.000000
0.999757 0.396007 0.000000
1.000000 0.393204 0.000000
1.000000 0.393204 0.000000
1.000000 0.393204 0.000000
0.000000 0.530975 0.000000
0.000000 0.530975 0.000000
0.000000 0.530975 0.000000
0.025047 0.528172 0.000000
0.121748 0.524247 0.000000
0.218448 0.520323 0.000000
0.315149 0.516399 0.000000
0.411849 0.512474 0.000000
0.508550 0.508550 0.000000
0.605251 0.504626 0.000000
0.701951 0.500701 0.000000
0.798652 0.496777 0.000000
0.895352 0.492853 0.000000
0.992053 0.488928 0.000000
1.000000 0.486125 0.000000
1.000000 0.486125 0.000000
1.000000 0.486125 0.000000
0.000000 0.623896 0.000000
0.000000 0.623896 0.000000
0.000000 0.623896 0.000000
0.017343 0.621093 0.000000
0.114043 0.617168 0.000000
0.210744 0.613244 0.000000
0.307444 0.609319 0.000000
0.404145 0.605395 0.000000
0.500846 0.601471 0.000000
0.597546 0.597546 0.000000
0.694247 0.593622 0.000000
0.790947 0.589697 0.000000
0.887648 0.585773 0.000000
0.984349 0.581849 0.000000
1.000000 0.579046 0.000000
1.000000 0.579046 0.000000
1.000000 0.579046 0.000000
0.000000 0.716816 0.000000
0.000000 0.716816 0.000000
0.000000 0.716816 0.000000
0.009638 0.714013 0.000000
0.106339 0.710089 0.000000
0.203039 0.706164 0.000000
0.299740 0.702240 0.000000
0.396441 0.698316 0.000000
0.493141 0.694391 0.000000
0.589842 0.690467 0.000000
0.686543 0.686543 0.000000
0.783243 0.682618 0.000000
0.879944 0.678694 0.000000
0.976644 0.674769 0.000000
1.000000 0.671966 0.000000
1.000000 0.671966 0.000000
1.000000 0.671966 0.000000
0.000000 0.809737 0.000000
0.000000 0.809737 0.000000
0.000000 0.809737 0.000000
0.001934 0.806934 0.000000
0.098634 0.803009 0.000000
0.195335 0.799085 0.000000
0.292036 0.795161 0.000000
0.388736 0.791236 0.000000
0.485437 0.787312 0.000000
0.582137 0.783387 0.000000
0.678838 0.779463 0.000000
0.775539 0.775539 0.000000
0.872239 0.771614 0.000000
0.968940 0.767690 0.000000
1.000000 0.764887 0.000000
1.000000 0.764887 0.000000
1.000000 0.764887 0.000000
0.000000 0.902657 0.000000
0.000000 0.902657 0.000000
0.000000 0.902657 0.000000
0.000000 0.899854 0.000000
0.090930 0.895930 0.000000
0.187631 0.892006 0.000000
0.284331 0.888081 0.000000
0.381032 0.884157 0.000000
0.477733 0.880232 0.000000
0.574433 0.876308 0.000000
0.671134 0.872384 0.000000
0.767834 0.868459 0.000000
0.864535 0.864535 0.000000
0.961236 0.860611 0.000000
1.000000 0.857807 0.000000
1.000000 0.857807 0.000000
1.000000 0.857807 0.000000
0.000000 0.995578 0.000000
0.000000 0.995578 0.000000
0.000000 0.995578 0.000000
0.000000 0.992775 0.000000
0.083226 0.988851 0.000000
0.179926 0.984926 0.000000
0.276627 0.981002 0.000000
0.373327 0.977078 0.000000
0.470028 0.973153 0.000000
0.566729 0.969229 0.000000
0.663429 0.965304 0.000000
0.760130 0.961380 0.000000
0.856831 0.957456 0.000000
0.953531 0.953531 0.000000
1.000000 0.950728 0.000000
1.000000 0.950728 0.000000
1.000000 0.950728 0.000000
0.000000 1.000000 0.000000
0.000000 1.000000 0.000000
0.000000 1.000000 0.000000
0.000000 1.000000 0.000000
0.077723 1.000000 0.000000
0.174423 1.000000 0.000000
0.271124 1.000000 0.000000
0.367824 1.000000 0.000000
0.464525 1.000000 0.000000
0.561226 1.000000 0.000000
0.657926 1.000000 0.000000
0.754627 1.000000 0.000000
0.851328 1.000000 0.000000
0.948028 1.000000 0.000000
1.000000 1.000000 0.000000
1.000000 1.000000 0.000000
1.000000 1.000000 0.000000
0.000000 1.000000 0.000000
0.000000 1.000000 0.000000
0.000000 1.000000 0.000000
0.000000 1.000000 0.000000
0.077723 1.000000 0.000000
0.174423 1.000000 0.000000
0.271124 1.000000 0.000000
0.367824 1.000000 0.000000
0.464525 1.000000 0.000000
0.561226 1.000000 0.000000
0.657926 1.000000 0.000000
0.754627 1.000000 0.000000
0.851328 1.000000 0.000000
0.948028 1.000000 0.000000
1.000000 1.000000 0.000000
1.000000 1.000000 0.000000
1.000000 1.000000 0.000000
0.000000 1.000000 0.000000
0.000000 1.000000 0.000000
0.000000 1.000000 0.000000
0.000000 1.000000 0.000000
0.077723 1.000000 0.000000
0.174423 1.000000 0.000000
0.271124 1.000000 0.000000
0.367824 1.000000 0.000000
0.464525 1.000000 0.000000
0.561226 1.000000 0.000000
0.657926 1.000000 0.000000
0.754627 1.000000 0.000000
0.851328 1.000000 0.000000
0.948028 1.000000 0.000000
1.000000 1.000000 0.000000
1.000000 1.000000 0.000000
1.000000 1.000000 0.000000
0.000000 0.000000 0.070806
0.000000 0.000000 0.070806
0.000000 0.000000 0.070806
0.068003 0.000000 0.068003
0.164704 0.000000 0.064079
0.261404 0.000000 0.060154
0.358105 0.000000 0.056230
0.454806 0.000000 0.052306
0.551506 0.000000 0.048381
0.648207 0.000000 0.044457
0.744908 0.000000 0.040533
0.841608 0.000000 0.036608
0.938309 0.000000 0.032684
1.000000 0.000000 0.028759
1.000000 0.000000 0.025956
1.000000 0.000000 0.025956
1.000000 0.000000 0.025956
0.000000 0.000000 0.070806
0.000000 0.000000 0.070806
0.000000 0.000000 0.070806
