server/luts/instagram.cube
TITLE "Instagram"
LUT_3D_SIZE 5
0.080000 0.080000 0.080000
0.328605 0.048605 0.048605
0.790300 0.000000 0.000000
1.000000 0.000000 0.000000
1.000000 0.000000 0.000000
0.018365 0.298365 0.018365
0.266970 0.266970 0.000000
0.728665 0.208665 0.000000
1.000000 0.150360 0.000000
1.000000 0.133317 0.000000
0.000000 0.703900 0.000000
0.152505 0.672505 0.000000
0.614200 0.614200 0.000000
1.000000 0.555895 0.000000
1.000000 0.538852 0.000000
0.000000 1.000000 0.000000
0.038040 1.000000 0.000000
0.499735 1.000000 0.000000
0.961430 0.961430 0.000000
1.000000 0.944387 0.000000
0.000000 1.000000 0.000000
0.004581 1.000000 0.000000
0.466276 1.000000 0.000000
0.927971 1.000000 0.000000
1.000000 1.000000 0.000000
0.068030 0.068030 0.348030
0.316635 0.036635 0.316635
0.778330 0.000000 0.258330
1.000000 0.000000 0.200025
1.000000 0.000000 0.182982
0.006395 0.286395 0.286395
0.255000 0.255000 0.255000
0.716695 0.196695 0.196695
1.000000 0.138390 0.138390
1.000000 0.121347 0.121347
0.000000 0.691930 0.171930
0.140535 0.660535 0.140535
0.602230 0.602230 0.082230
1.000000 0.543925 0.023925
1.000000 0.526882 0.006882
0.000000 1.000000 0.057465
0.026070 1.000000 0.026070
0.487765 1.000000 0.000000
0.949460 0.949460 0.000000
1.000000 0.932417 0.000000
0.000000 1.000000 0.024006
0.000000 1.000000 0.000000
0.454306 1.000000 0.000000
0.916001 1.000000 0.000000
1.000000 1.000000 0.000000
0.045800 0.045800 0.845800
0.294405 0.014405 0.814405
0.756100 0.000000 0.756100
1.000000 0.000000 0.697795
1.000000 0.000000 0.680752
0.000000 0.264165 0.784165
0.232770 0.232770 0.752770
0.694465 0.174465 0.694465
1.000000 0.116160 0.636160
1.000000 0.099117 0.619117
0.000000 0.669700 0.669700
0.118305 0.638305 0.638305
0.580000 0.580000 0.580000
1.000000 0.521695 0.521695
1.000000 0.504652 0.504652
0.000000 1.000000 0.555235
0.003840 1.000000 0.523840
0.465535 0.985535 0.465535
0.927230 0.927230 0.407230
1.000000 0.910187 0.390187
0.000000 1.000000 0.521776
0.000000 1.000000 0.490381
0.432076 1.000000 0.432076
0.893771 1.000000 0.373771
1.000000 1.000000 0.356728
0.023570 0.023570 1.000000
0.272175 0.000000 1.000000
0.733870 0.000000 1.000000
1.000000 0.000000 1.000000
1.000000 0.000000 1.000000
0.000000 0.241935 1.000000
0.210540 0.210540 1.000000
0.672235 0.152235 1.000000
1.000000 0.093930 1.000000
1.000000 0.076887 1.000000
0.000000 0.647470 1.000000
0.096075 0.616075 1.000000
0.557770 0.557770 1.000000
1.000000 0.499465 1.000000
1.000000 0.482422 1.000000
0.000000 1.000000 1.000000
0.000000 1.000000 1.000000
0.443305 0.963305 0.963305
0.905000 0.905000 0.905000
1.000000 0.887957 0.887957
0.000000 1.000000 1.000000
0.000000 1.000000 0.988151
0.409846 1.000000 0.929846
0.871541 1.000000 0.871541
1.000000 1.000000 0.854498
0.017072 0.017072 1.000000
0.265677 0.000000 1.000000
0.727372 0.000000 1.000000
1.000000 0.000000 1.000000
1.000000 0.000000 1.000000
0.000000 0.235437 1.000000
0.204042 0.204042 1.000000
0.665737 0.145737 1.000000
1.000000 0.087432 1.000000
1.000000 0.070389 1.000000
0.000000 0.640972 1.000000
0.089577 0.609577 1.000000
0.551272 0.551272 1.000000
1.000000 0.492967 1.000000
1.000000 0.475924 1.000000
0.000000 1.000000 1.000000
0.000000 1.000000 1.000000
0.436807 0.956807 1.000000
0.898502 0.898502 1.000000
1.000000 0.881459 1.000000
0.000000 1.000000 1.000000
0.000000 1.000000 1.000000
0.403348 1.000000 1.000000
0.865043 1.000000 1.000000
1.000000 1.000000 1.000000
