server/luts/instagram.cube
TITLE "Instagram"
LUT_3D_SIZE 17
0.080000 0.080000 0.080000
0.080000 0.080000 0.080000
0.097757 0.077758 0.077758
0.213181 0.063181 0.063181
0.328605 0.048605 0.048605
0.444029 0.034029 0.034029
0.559453 0.019452 0.019452
0.674876 0.004876 0.004876
0.790300 0.000000 0.000000
0.905724 0.000000 0.000000
1.000000 0.000000 0.000000
1.000000 0.000000 0.000000
1.000000 0.000000 0.000000
1.000000 0.000000 0.000000
1.000000 0.000000 0.000000
1.000000 0.000000 0.000000
1.000000 0.000000 0.000000
0.080000 0.080000 0.080000
0.080000 0.080000 0.080000
0.097757 0.077758 0.077758
0.213181 0.063181 0.063181
0.328605 0.048605 0.048605
0.444029 0.034029 0.034029
0.559453 0.019452 0.019452
0.674876 0.004876 0.004876
0.790300 0.000000 0.000000
0.905724 0.000000 0.000000
1.000000 0.000000 0.000000
1.000000 0.000000 0.000000
1.000000 0.000000 0.000000
1.000000 0.000000 0.000000
1.000000 0.000000 0.000000
1.000000 0.000000 0.000000
1.000000 0.000000 0.000000
0.075598 0.095597 0.075598
0.075598 0.095597 0.075598
0.093355 0.093355 0.073355
0.208779 0.078779 0.058779
0.324203 0.064202 0.044203
0.439626 0.049626 0.029626
0.555050 0.035050 0.015050
0.670474 0.020474 0.000474
0.785898 0.005897 0.000000
0.901321 0.000000 0.000000
1.000000 0.000000 0.000000
1.000000 0.000000 0.000000
1.000000 0.000000 0.000000
1.000000 0.000000 0.000000
1.000000 0.000000 0.000000
1.000000 0.000000 0.000000
1.000000 0.000000 0.000000
0.046981 0.196981 0.046981
0.046981 0.196981 0.046981
0.064739 0.194739 0.044739
0.180163 0.180163 0.030163
0.295586 0.165586 0.015586
0.411010 0.151010 0.001010
0.526434 0.136434 0.000000
0.641858 0.121858 0.000000
0.757281 0.107281 0.000000
0.872705 0.092705 0.000000
0.988129 0.078129 0.000000
1.000000 0.063553 0.000000
1.000000 0.048976 0.000000
1.000000 0.034400 0.000000
1.000000 0.031933 0.000000
1.000000 0.031933 0.000000
1.000000 0.031933 0.000000
0.018365 0.298365 0.018365
0.018365 0.298365 0.018365
0.036122 0.296123 0.016123
0.151546 0.281546 0.001546
0.266970 0.266970 0.000000
0.382394 0.252394 0.000000
0.497818 0.237818 0.000000
0.613241 0.223241 0.000000
0.728665 0.208665 0.000000
0.844089 0.194089 0.000000
0.959512 0.179512 0.000000
1.000000 0.164936 0.000000
1.000000 0.150360 0.000000
1.000000 0.135784 0.000000
1.000000 0.133317 0.000000
1.000000 0.133317 0.000000
1.000000 0.133317 0.000000
0.000000 0.399749 0.000000
0.000000 0.399749 0.000000
0.007506 0.397506 0.000000
0.122930 0.382930 0.000000
0.238354 0.368354 0.000000
0.353777 0.353777 0.000000
0.469201 0.339201 0.000000
0.584625 0.324625 0.000000
0.700049 0.310049 0.000000
0.815473 0.295473 0.000000
0.930896 0.280896 0.000000
1.000000 0.266320 0.000000
1.000000 0.251744 0.000000
1.000000 0.237167 0.000000
1.000000 0.234701 0.000000
1.000000 0.234701 0.000000
1.000000 0.234701 0.000000
0.000000 0.501132 0.000000
0.000000 0.501132 0.000000
0.000000 0.498890 0.000000
0.094314 0.484314 0.000000
0.209738 0.469738 0.000000
0.325161 0.455161 0.000000
0.440585 0.440585 0.000000
0.556009 0.426009 0.000000
0.671432 0.411433 0.000000
0.786856 0.396856 0.000000
0.902280 0.382280 0.000000
1.000000 0.367704 0.000000
1.000000 0.353128 0.000000
1.000000 0.338551 0.000000
1.000000 0.336085 0.000000
1.000000 0.336085 0.000000
1.000000 0.336085 0.000000
0.000000 0.602516 0.000000
0.000000 0.602516 0.000000
0.000000 0.600274 0.000000
0.065698 0.585697 0.000000
0.181121 0.571121 0.000000
0.296545 0.556545 0.000000
0.411969 0.541969 0.000000
0.527393 0.527393 0.000000
0.642816 0.512816 0.000000
0.758240 0.498240 0.000000
0.873664 0.483664 0.000000
0.989087 0.469087 0.000000
1.000000 0.454511 0.000000
1.000000 0.439935 0.000000
1.000000 0.437468 0.000000
1.000000 0.437468 0.000000
1.000000 0.437468 0.000000
0.000000 0.703900 0.000000
0.000000 0.703900 0.000000
0.000000 0.701658 0.000000
0.037081 0.687081 0.000000
0.152505 0.672505 0.000000
0.267929 0.657929 0.000000
0.383353 0.643352 0.000000
0.498776 0.628776 0.000000
0.614200 0.614200 0.000000
0.729624 0.599624 0.000000
0.845047 0.585047 0.000000
0.960471 0.570471 0.000000
1.000000 0.555895 0.000000
1.000000 0.541319 0.000000
1.000000 0.538852 0.000000
1.000000 0.538852 0.000000
1.000000 0.538852 0.000000
0.000000 0.805284 0.000000
0.000000 0.805284 0.000000
0.000000 0.803041 0.000000
0.008465 0.788465 0.000000
0.123889 0.773889 0.000000
0.239312 0.759313 0.000000
0.354736 0.744736 0.000000
0.470160 0.730160 0.000000
0.585584 0.715584 0.000000
0.701008 0.701008 0.000000
0.816431 0.686431 0.000000
0.931855 0.671855 0.000000
1.000000 0.657279 0.000000
1.000000 0.642702 0.000000
1.000000 0.640236 0.000000
1.000000 0.640236 0.000000
1.000000 0.640236 0.000000
0.000000 0.906667 0.000000
0.000000 0.906667 0.000000
0.000000 0.904425 0.000000
0.000000 0.889849 0.000000
0.095272 0.875272 0.000000
0.210696 0.860696 0.000000
0.326120 0.846120 0.000000
0.441544 0.831544 0.000000
0.556967 0.816967 0.000000
0.672391 0.802391 0.000000
0.787815 0.787815 0.000000
0.903239 0.773239 0.000000
1.000000 0.758663 0.000000
1.000000 0.744086 0.000000
1.000000 0.741619 0.000000
1.000000 0.741619 0.000000
1.000000 0.741619 0.000000
0.000000 1.000000 0.000000
0.000000 1.000000 0.000000
0.000000 1.000000 0.000000
0.000000 0.991232 0.000000
0.066656 0.976656 0.000000
0.182080 0.962080 0.000000
0.297504 0.947504 0.000000
0.412928 0.932928 0.000000
0.528351 0.918351 0.000000
0.643775 0.903775 0.000000
0.759199 0.889199 0.000000
0.874622 0.874622 0.000000
0.990046 0.860046 0.000000
1.000000 0.845470 0.000000
1.000000 0.843003 0.000000
1.000000 0.843003 0.000000
1.000000 0.843003 0.000000
0.000000 1.000000 0.000000
0.000000 1.000000 0.000000
0.000000 1.000000 0.000000
0.000000 1.000000 0.000000
0.038040 1.000000 0.000000
0.153464 1.000000 0.000000
0.268888 1.000000 0.000000
0.384311 1.000000 0.000000
0.499735 1.000000 0.000000
0.615159 1.000000 0.000000
0.730583 0.990582 0.000000
0.846006 0.976006 0.000000
0.961430 0.961430 0.000000
1.000000 0.946854 0.000000
1.000000 0.944387 0.000000
1.000000 0.944387 0.000000
1.000000 0.944387 0.000000
0.000000 1.000000 0.000000
0.000000 1.000000 0.000000
0.000000 1.000000 0.000000
0.000000 1.000000 0.000000
0.009424 1.000000 0.000000
0.124848 1.000000 0.000000
0.240271 1.000000 0.000000
0.355695 1.000000 0.000000
0.471119 1.000000 0.000000
0.586542 1.000000 0.000000
0.701966 1.000000 0.000000
0.817390 1.000000 0.000000
0.932814 1.000000 0.000000
1.000000 1.000000 0.000000
1.000000 1.000000 0.000000
1.000000 1.000000 0.000000
1.000000 1.000000 0.000000
0.000000 1.000000 0.000000
0.000000 1.000000 0.000000
0.000000 1.000000 0.000000
0.000000 1.000000 0.000000
0.004581 1.000000 0.000000
0.120005 1.000000 0.000000
0.235429 1.000000 0.000000
0.350852 1.000000 0.000000
0.466276 1.000000 0.000000
0.581700 1.000000 0.000000
0.697124 1.000000 0.000000
0.812547 1.000000 0.000000
0.927971 1.000000 0.000000
1.000000 1.000000 0.000000
1.000000 1.000000 0.000000
1.000000 1.000000 0.000000
1.000000 1.000000 0.000000
0.000000 1.000000 0.000000
0.000000 1.000000 0.000000
0.000000 1.000000 0.000000
0.000000 1.000000 0.000000
0.004581 1.000000 0.000000
0.120005 1.000000 0.000000
0.235429 1.000000 0.000000
0.350852 1.000000 0.000000
0.466276 1.000000 0.000000
0.581700 1.000000 0.000000
0.697124 1.000000 0.000000
0.812547 1.000000 0.000000
0.927971 1.000000 0.000000
1.000000 1.000000 0.000000
1.000000 1.000000 0.000000
1.000000 1.000000 0.000000
1.000000 1.000000 0.000000
0.000000 1.000000 0.000000
0.000000 1.000000 0.000000
0.000000 1.000000 0.000000
0.000000 1.000000 0.000000
0.004581 1.000000 0.000000
0.120005 1.000000 0.000000
0.235429 1.000000 0.000000
0.350852 1.000000 0.000000
0.466276 1.000000 0.000000
0.581700 1.000000 0.000000
0.697124 1.000000 0.000000
0.812547 1.000000 0.000000
0.927971 1.000000 0.000000
1.000000 1.000000 0.000000
1.000000 1.000000 0.000000
1.000000 1.000000 0.000000
1.000000 1.000000 0.000000
0.080000 0.080000 0.080000
0.080000 0.080000 0.080000
0.097757 0.077758 0.077758
0.213181 0.063181 0.063181
0.328605 0.048605 0.048605
0.444029 0.034029 0.034029
0.559453 0.019452 0.019452
0.674876 0.004876 0.004876
0.790300 0.000000 0.000000
0.905724 0.000000 0.000000
1.000000 0.000000 0.000000
1.000000 0.000000 0.000000
1.000000 0.000000 0.000000
1.000000 0.000000 0.000000
1.000000 0.000000 0.000000
1.000000 0.000000 0.000000
1.000000 0.000000 0.000000
0.080000 0.080000 0.080000
0.080000 0.080000 0.080000
0.097757 0.077758 0.077758
0.213181 0.063181 0.063181
0.328605 0.048605 0.048605
0.444029 0.034029 0.034029
0.559453 0.019452 0.019452
0.674876 0.004876 0.004876
0.790300 0.000000 0.000000
0.905724 0.000000 0.000000
1.000000 0.000000 0.000000
1.000000 0.000000 0.000000
1.000000 0.000000 0.000000
1.000000 0.000000 0.000000
1.000000 0.000000 0.000000
1.000000 0.000000 0.000000
1.000000 0.000000 0.000000
0.075598 0.095597 0.075598
0.075598 0.095597 0.075598
0.093355 0.093355 0.073355
0.208779 0.078779 0.058779
0.324203 0.064202 0.044203
0.439626 0.049626 0.029626
0.555050 0.035050 0.015050
0.670474 0.020474 0.000474
0.785898 0.005897 0.000000
0.901321 0.000000 0.000000
1.000000 0.000000 0.000000
1.000000 0.000000 0.000000
1.000000 0.000000 0.000000
1.000000 0.000000 0.000000
1.000000 0.000000 0.000000
1.000000 0.000000 0.000000
1.000000 0.000000 0.000000
0.046981 0.196981 0.046981
0.046981 0.196981 0.046981
0.064739 0.194739 0.044739
0.180163 0.180163 0.030163
0.295586 0.165586 0.015586
0.411010 0.151010 0.001010
0.526434 0.136434 0.000000
0.641858 0.121858 0.000000
0.757281 0.107281 0.000000
0.872705 0.092705 0.000000
0.988129 0.078129 0.000000
1.000000 0.063553 0.000000
1.000000 0.048976 0.000000
1.000000 0.034400 0.000000
1.000000 0.031933 0.000000
1.000000 0.031933 0.000000
1.000000 0.031933 0.000000
0.018365 0.298365 0.018365
0.018365 0.298365 0.018365
0.036122 0.296123 0.016123
0.151546 0.281546 0.001546
0.266970 0.266970 0.000000
0.382394 0.252394 0.000000
0.497818 0.237818 0.000000
0.613241 0.223241 0.000000
0.728665 0.208665 0.000000
0.844089 0.194089 0.000000
0.959512 0.179512 0.000000
1.000000 0.164936 0.000000
1.000000 0.150360 0.000000
1.000000 0.135784 0.000000
1.000000 0.133317 0.000000
1.000000 0.133317 0.000000
1.000000 0.133317 0.000000
0.000000 0.399749 0.000000
0.000000 0.399749 0.000000
0.007506 0.397506 0.000000
0.122930 0.382930 0.000000
0.238354 0.368354 0.000000
0.353777 0.353777 0.000000
0.469201 0.339201 0.000000
0.584625 0.324625 0.000000
0.700049 0.310049 0.000000
0.815473 0.295473 0.000000
0.930896 0.280896 0.000000
1.000000 0.266320 0.000000
1.000000 0.251744 0.000000
1.000000 0.237167 0.000000
1.000000 0.234701 0.000000
1.000000 0.234701 0.000000
1.000000 0.234701 0.000000
0.000000 0.501132 0.000000
0.000000 0.501132 0.000000
0.000000 0.498890 0.000000
0.094314 0.484314 0.000000
0.209738 0.469738 0.000000
0.325161 0.455161 0.000000
0.440585 0.440585 0.000000
0.556009 0.426009 0.000000
0.671432 0.411433 0.000000
0.786856 0.396856 0.000000
0.902280 0.382280 0.000000
1.000000 0.367704 0.000000
1.000000 0.353128 0.000000
1.000000 0.338551 0.000000
1.000000 0.336085 0.000000
1.000000 0.336085 0.000000
1.000000 0.336085 0.000000
0.000000 0.602516 0.000000
0.000000 0.602516 0.000000
0.000000 0.600274 0.000000
0.065698 0.585697 0.000000
0.181121 0.571121 0.000000
0.296545 0.556545 0.000000
0.411969 0.541969 0.000000
0.527393 0.527393 0.000000
0.642816 0.512816 0.000000
0.758240 0.498240 0.000000
0.873664 0.483664 0.000000
0.989087 0.469087 0.000000
1.000000 0.454511 0.000000
1.000000 0.439935 0.000000
1.000000 0.437468 0.000000
1.000000 0.437468 0.000000
1.000000 0.437468 0.000000
0.000000 0.703900 0.000000
0.000000 0.703900 0.000000
0.000000 0.701658 0.000000
0.037081 0.687081 0.000000
0.152505 0.672505 0.000000
0.267929 0.657929 0.000000
0.383353 0.643352 0.000000
0.498776 0.628776 0.000000
0.614200 0.614200 0.000000
0.729624 0.599624 0.000000
0.845047 0.585047 0.000000
0.960471 0.570471 0.000000
1.000000 0.555895 0.000000
1.000000 0.541319 0.000000
1.000000 0.538852 0.000000
1.000000 0.538852 0.000000
1.000000 0.538852 0.000000
0.000000 0.805284 0.000000
0.000000 0.805284 0.000000
0.000000 0.803041 0.000000
0.008465 0.788465 0.000000
0.123889 0.773889 0.000000
0.239312 0.759313 0.000000
0.354736 0.744736 0.000000
0.470160 0.730160 0.000000
0.585584 0.715584 0.000000
0.701008 0.701008 0.000000
0.816431 0.686431 0.000000
0.931855 0.671855 0.000000
1.000000 0.657279 0.000000
1.000000 0.642702 0.000000
1.000000 0.640236 0.000000
1.000000 0.640236 0.000000
1.000000 0.640236 0.000000
0.000000 0.906667 0.000000
0.000000 0.906667 0.000000
0.000000 0.904425 0.000000
0.000000 0.889849 0.000000
0.095272 0.875272 0.000000
0.210696 0.860696 0.000000
0.326120 0.846120 0.000000
0.441544 0.831544 0.000000
0.556967 0.816967 0.000000
0.672391 0.802391 0.000000
0.787815 0.787815 0.000000
0.903239 0.773239 0.000000
1.000000 0.758663 0.000000
1.000000 0.744086 0.000000
1.000000 0.741619 0.000000
1.000000 0.741619 0.000000
1.000000 0.741619 0.000000
0.000000 1.000000 0.000000
0.000000 1.000000 0.000000
0.000000 1.000000 0.000000
0.000000 0.991232 0.000000
0.066656 0.976656 0.000000
0.182080 0.962080 0.000000
0.297504 0.947504 0.000000
0.412928 0.932928 0.000000
0.528351 0.918351 0.000000
0.643775 0.903775 0.000000
0.759199 0.889199 0.000000
0.874622 0.874622 0.000000
0.990046 0.860046 0.000000
1.000000 0.845470 0.000000
1.000000 0.843003 0.000000
1.000000 0.843003 0.000000
1.000000 0.843003 0.000000
0.000000 1.000000 0.000000
0.000000 1.000000 0.000000
0.000000 1.000000 0.000000
0.000000 1.000000 0.000000
0.038040 1.000000 0.000000
0.153464 1.000000 0.000000
0.268888 1.000000 0.000000
0.384311 1.000000 0.000000
0.499735 1.000000 0.000000
0.615159 1.000000 0.000000
0.730583 0.990582 0.000000
0.846006 0.976006 0.000000
0.961430 0.961430 0.000000
1.000000 0.946854 0.000000
1.000000 0.944387 0.000000
1.000000 0.944387 0.000000
1.000000 0.944387 0.000000
0.000000 1.000000 0.000000
0.000000 1.000000 0.000000
0.000000 1.000000 0.000000
0.000000 1.000000 0.000000
0.009424 1.000000 0.000000
0.124848 1.000000 0.000000
0.240271 1.000000 0.000000
0.355695 1.000000 0.000000
0.471119 1.000000 0.000000
0.586542 1.000000 0.000000
0.701966 1.000000 0.000000
0.817390 1.000000 0.000000
0.932814 1.000000 0.000000
1.000000 1.000000 0.000000
1.000000 1.000000 0.000000
1.000000 1.000000 0.000000
1.000000 1.000000 0.000000
0.000000 1.000000 0.000000
0.000000 1.000000 0.000000
0.000000 1.000000 0.000000
0.000000 1.000000 0.000000
0.004581 1.000000 0.000000
0.120005 1.000000 0.000000
0.235429 1.000000 0.000000
0.350852 1.000000 0.000000
0.466276 1.000000 0.000000
0.581700 1.000000 0.000000
0.697124 1.000000 0.000000
0.812547 1.000000 0.000000
0.927971 1.000000 0.000000
1.000000 1.000000 0.000000
1.000000 1.000000 0.000000
1.000000 1.000000 0.000000
1.000000 1.000000 0.000000
0.000000 1.000000 0.000000
0.000000 1.000000 0.000000
0.000000 1.000000 0.000000
0.000000 1.000000 0.000000
0.004581 1.000000 0.000000
0.120005 1.000000 0.000000
0.235429 1.000000 0.000000
0.350852 1.000000 0.000000
0.466276 1.000000 0.000000
0.581700 1.000000 0.000000
0.697124 1.000000 0.000000
0.812547 1.000000 0.000000
0.927971 1.000000 0.000000
1.000000 1.000000 0.000000
1.000000 1.000000 0.000000
1.000000 1.000000 0.000000
1.000000 1.000000 0.000000
0.000000 1.000000 0.000000
0.000000 1.000000 0.000000
0.000000 1.000000 0.000000
0.000000 1.000000 0.000000
0.004581 1.000000 0.000000
0.120005 1.000000 0.000000
0.235429 1.000000 0.000000
0.350852 1.000000 0.000000
0.466276 1.000000 0.000000
0.581700 1.000000 0.000000
0.697124 1.000000 0.000000
0.812547 1.000000 0.000000
0.927971 1.000000 0.000000
1.000000 1.000000 0.000000
1.000000 1.000000 0.000000
1.000000 1.000000 0.000000
1.000000 1.000000 0.000000
0.079145 0.079145 0.099145
0.079145 0.079145 0.099145
0.096902 0.076903 0.096902
0.212326 0.062326 0.082326
0.327750 0.047750 0.067750
0.443174 0.033174 0.053174
0.558598 0.018597 0.038597
0.674021 0.004021 0.024021
0.789445 0.000000 0.009445
0.904869 0.000000 0.000000
1.000000 0.000000 0.000000
1.000000 0.000000 0.000000
1.000000 0.000000 0.000000
1.000000 0.000000 0.000000
1.000000 0.000000 0.000000
1.000000 0.000000 0.000000
1.000000 0.000000 0.000000
0.079145 0.079145 0.099145
0.079145 0.079145 0.099145
0.096902 0.076903 0.096902
0.212326 0.062326 0.082326
0.327750 0.047750 0.067750
0.443174 0.033174 0.053174
0.558598 0.018597 0.038597
0.674021 0.004021 0.024021
0.789445 0.000000 0.009445
0.904869 0.000000 0.000000
1.000000 0.000000 0.000000
1.000000 0.000000 0.000000
1.000000 0.000000 0.000000
1.000000 0.000000 0.000000
1.000000 0.000000 0.000000
1.000000 0.000000 0.000000
1.000000 0.000000 0.000000
0.074743 0.094742 0.094742
0.074743 0.094742 0.094742
0.092500 0.092500 0.092500
0.207924 0.077924 0.077924
0.323348 0.063347 0.063347
0.438771 0.048771 0.048771
0.554195 0.034195 0.034195
0.669619 0.019619 0.019619
0.785042 0.005042 0.005042
0.900466 0.000000 0.000000
1.000000 0.000000 0.000000
1.000000 0.000000 0.000000
1.000000 0.000000 0.000000
1.000000 0.000000 0.000000
1.000000 0.000000 0.000000
1.000000 0.000000 0.000000
1.000000 0.000000 0.000000
0.046126 0.196126 0.066126
0.046126 0.196126 0.066126
0.063884 0.193884 0.063884
0.179308 0.179308 0.049307
0.294731 0.164731 0.034731
0.410155 0.150155 0.020155
0.525579 0.135579 0.005579
0.641003 0.121003 0.000000
0.756426 0.106426 0.000000
0.871850 0.091850 0.000000
0.987274 0.077274 0.000000
1.000000 0.062698 0.000000
1.000000 0.048121 0.000000
1.000000 0.033545 0.000000
1.000000 0.031078 0.000000
1.000000 0.031078 0.000000
1.000000 0.031078 0.000000
0.017510 0.297510 0.037510
0.017510 0.297510 0.037510
0.035267 0.295268 0.035267
0.150691 0.280691 0.020691
0.266115 0.266115 0.006115
0.381539 0.251539 0.000000
0.496963 0.236963 0.000000
0.612386 0.222386 0.000000
0.727810 0.207810 0.000000
0.843234 0.193234 0.000000
0.958657 0.178658 0.000000
1.000000 0.164081 0.000000
1.000000 0.149505 0.000000
1.000000 0.134929 0.000000
1.000000 0.132462 0.000000
1.000000 0.132462 0.000000
1.000000 0.132462 0.000000
0.000000 0.398894 0.008894
0.000000 0.398894 0.008894
0.006651 0.396651 0.006651
0.122075 0.382075 0.000000
0.237499 0.367499 0.000000
0.352923 0.352923 0.000000
0.468346 0.338346 0.000000
0.583770 0.323770 0.000000
0.699194 0.309194 0.000000
0.814617 0.294618 0.000000
0.930041 0.280041 0.000000
1.000000 0.265465 0.000000
1.000000 0.250889 0.000000
1.000000 0.236312 0.000000
1.000000 0.233846 0.000000
1.000000 0.233846 0.000000
1.000000 0.233846 0.000000
0.000000 0.500278 0.000000
0.000000 0.500278 0.000000
0.000000 0.498035 0.000000
0.093459 0.483459 0.000000
0.208883 0.468883 0.000000
0.324306 0.454306 0.000000
0.439730 0.439730 0.000000
0.555154 0.425154 0.000000
0.670577 0.410578 0.000000
0.786001 0.396001 0.000000
0.901425 0.381425 0.000000
1.000000 0.366849 0.000000
1.000000 0.352273 0.000000
1.000000 0.337696 0.000000
1.000000 0.335230 0.000000
1.000000 0.335230 0.000000
1.000000 0.335230 0.000000
0.000000 0.601661 0.000000
0.000000 0.601661 0.000000
0.000000 0.599419 0.000000
0.064843 0.584843 0.000000
0.180266 0.570266 0.000000
0.295690 0.555690 0.000000
0.411114 0.541114 0.000000
0.526538 0.526538 0.000000
0.641961 0.511961 0.000000
0.757385 0.497385 0.000000
0.872809 0.482809 0.000000
0.988232 0.468232 0.000000
1.000000 0.453656 0.000000
1.000000 0.439080 0.000000
1.000000 0.436613 0.000000
1.000000 0.436613 0.000000
1.000000 0.436613 0.000000
0.000000 0.703045 0.000000
0.000000 0.703045 0.000000
0.000000 0.700802 0.000000
0.036226 0.686226 0.000000
0.151650 0.671650 0.000000
0.267074 0.657074 0.000000
0.382498 0.642497 0.000000
0.497921 0.627921 0.000000
0.613345 0.613345 0.000000
0.728769 0.598769 0.000000
0.844192 0.584193 0.000000
0.959616 0.569616 0.000000
1.000000 0.555040 0.000000
1.000000 0.540464 0.000000
1.000000 0.537997 0.000000
1.000000 0.537997 0.000000
1.000000 0.537997 0.000000
0.000000 0.804429 0.000000
0.000000 0.804429 0.000000
0.000000 0.802186 0.000000
0.007610 0.787610 0.000000
0.123034 0.773034 0.000000
0.238457 0.758458 0.000000
0.353881 0.743881 0.000000
0.469305 0.729305 0.000000
0.584729 0.714729 0.000000
0.700152 0.700152 0.000000
0.815576 0.685576 0.000000
0.931000 0.671000 0.000000
1.000000 0.656424 0.000000
1.000000 0.641848 0.000000
1.000000 0.639381 0.000000
1.000000 0.639381 0.000000
1.000000 0.639381 0.000000
0.000000 0.905812 0.000000
0.000000 0.905812 0.000000
0.000000 0.903570 0.000000
0.000000 0.888994 0.000000
0.094417 0.874417 0.000000
0.209841 0.859841 0.000000
0.325265 0.845265 0.000000
0.440689 0.830689 0.000000
0.556112 0.816112 0.000000
0.671536 0.801536 0.000000
0.786960 0.786960 0.000000
0.902384 0.772384 0.000000
1.000000 0.757807 0.000000
1.000000 0.743231 0.000000
1.000000 0.740764 0.000000
1.000000 0.740764 0.000000
1.000000 0.740764 0.000000
0.000000 1.000000 0.000000
0.000000 1.000000 0.000000
0.000000 1.000000 0.000000
0.000000 0.990378 0.000000
0.065801 0.975801 0.000000
0.181225 0.961225 0.000000
0.296649 0.946649 0.000000
0.412073 0.932073 0.000000
0.527496 0.917496 0.000000
0.642920 0.902920 0.000000
0.758344 0.888344 0.000000
0.873768 0.873768 0.000000
0.989191 0.859191 0.000000
1.000000 0.844615 0.000000
1.000000 0.842148 0.000000
1.000000 0.842148 0.000000
1.000000 0.842148 0.000000
0.000000 1.000000 0.000000
0.000000 1.000000 0.000000
0.000000 1.000000 0.000000
0.000000 1.000000 0.000000
0.037185 1.000000 0.000000
0.152609 1.000000 0.000000
0.268033 1.000000 0.000000
0.383456 1.000000 0.000000
0.498880 1.000000 0.000000
0.614304 1.000000 0.000000
0.729727 0.989727 0.000000
0.845151 0.975151 0.000000
0.960575 0.960575 0.000000
1.000000 0.945999 0.000000
1.000000 0.943532 0.000000
1.000000 0.943532 0.000000
1.000000 0.943532 0.000000
0.000000 1.000000 0.000000
0.000000 1.000000 0.000000
0.000000 1.000000 0.000000
0.000000 1.000000 0.000000
0.008569 1.000000 0.000000
0.123992 1.000000 0.000000
0.239416 1.000000 0.000000
0.354840 1.000000 0.000000
0.470264 1.000000 0.000000
0.585687 1.000000 0.000000
0.701111 1.000000 0.000000
0.816535 1.000000 0.000000
0.931959 1.000000 0.000000
1.000000 1.000000 0.000000
1.000000 1.000000 0.000000
1.000000 1.000000 0.000000
1.000000 1.000000 0.000000
0.000000 1.000000 0.000000
0.000000 1.000000 0.000000
0.000000 1.000000 0.000000
0.000000 1.000000 0.000000
0.003726 1.000000 0.000000
0.119150 1.000000 0.000000
0.234574 1.000000 0.000000
0.349997 1.000000 0.000000
0.465421 1.000000 0.000000
0.580845 1.000000 0.000000
0.696268 1.000000 0.000000
0.811692 1.000000 0.000000
0.927116 1.000000 0.000000
1.000000 1.000000 0.000000
1.000000 1.000000 0.000000
1.000000 1.000000 0.000000
1.000000 1.000000 0.000000
0.000000 1.000000 0.000000
0.000000 1.000000 0.000000
0.000000 1.000000 0.000000
0.000000 1.000000 0.000000
0.003726 1.000000 0.000000
0.119150 1.000000 0.000000
0.234574 1.000000 0.000000
0.349997 1.000000 0.000000
0.465421 1.000000 0.000000
0.580845 1.000000 0.000000
0.696268 1.000000 0.000000
0.811692 1.000000 0.000000
0.927116 1.000000 0.000000
1.000000 1.000000 0.000000
1.000000 1.000000 0.000000
1.000000 1.000000 0.000000
1.000000 1.000000 0.000000
0.000000 1.000000 0.000000
0.000000 1.000000 0.000000
0.000000 1.000000 0.000000
0.000000 1.000000 0.000000
0.003726 1.000000 0.000000
0.119150 1.000000 0.000000
0.234574 1.000000 0.000000
0.349997 1.000000 0.000000
0.465421 1.000000 0.000000
0.580845 1.000000 0.000000
0.696268 1.000000 0.000000
0.811692 1.000000 0.000000
0.927116 1.000000 0.000000
1.000000 1.000000 0.000000
1.000000 1.000000 0.000000
1.000000 1.000000 0.000000
1.000000 1.000000 0.000000
0.073588 0.073588 0.223588
0.073588 0.073588 0.223588
0.091345 0.071345 0.221345
0.206769 0.056769 0.206769
0.322192 0.042193 0.192193
0.437616 0.027616 0.177616
0.553040 0.013040 0.163040
0.668464 0.000000 0.148464
0.783887 0.000000 0.133888
0.899311 0.000000 0.119311
1.000000 0.000000 0.104735
1.000000 0.000000 0.090159
1.000000 0.000000 0.075583
1.000000 0.000000 0.061006
1.000000 0.000000 0.058540
1.000000 0.000000 0.058540
1.000000 0.000000 0.058540
0.073588 0.073588 0.223588
0.073588 0.073588 0.223588
0.091345 0.071345 0.221345
