server/luts/instagram.cube
TITLE "Instagram"
LUT_3D_SIZE 9
0.080000 0.080000 0.080000
0.097757 0.077758 0.077758
0.328605 0.048605 0.048605
0.559453 0.019452 0.019452
0.790300 0.000000 0.000000
1.000000 0.000000 0.000000
1.000000 0.000000 0.000000
1.000000 0.000000 0.000000
1.000000 0.000000 0.000000
0.075598 0.095597 0.075598
0.093355 0.093355 0.073355
0.324203 0.064202 0.044203
0.555050 0.035050 0.015050
0.785898 0.005897 0.000000
1.000000 0.000000 0.000000
1.000000 0.000000 0.000000
1.000000 0.000000 0.000000
1.000000 0.000000 0.000000
0.018365 0.298365 0.018365
0.036122 0.296123 0.016123
0.266970 0.266970 0.000000
0.497818 0.237818 0.000000
0.728665 0.208665 0.000000
0.959512 0.179512 0.000000
1.000000 0.150360 0.000000
1.000000 0.133317 0.000000
1.000000 0.133317 0.000000
0.000000 0.501132 0.000000
0.000000 0.498890 0.000000
0.209738 0.469738 0.000000
0.440585 0.440585 0.000000
0.671432 0.411433 0.000000
0.902280 0.382280 0.000000
1.000000 0.353128 0.000000
1.000000 0.336085 0.000000
1.000000 0.336085 0.000000
0.000000 0.703900 0.000000
0.000000 0.701658 0.000000
0.152505 0.672505 0.000000
0.383353 0.643352 0.000000
0.614200 0.614200 0.000000
0.845047 0.585047 0.000000
1.000000 0.555895 0.000000
1.000000 0.538852 0.000000
1.000000 0.538852 0.000000
0.000000 0.906667 0.000000
0.000000 0.904425 0.000000
0.095272 0.875272 0.000000
0.326120 0.846120 0.000000
0.556967 0.816967 0.000000
0.787815 0.787815 0.000000
1.000000 0.758663 0.000000
1.000000 0.741619 0.000000
1.000000 0.741619 0.000000
0.000000 1.000000 0.000000
0.000000 1.000000 0.000000
0.038040 1.000000 0.000000
0.268888 1.000000 0.000000
0.499735 1.000000 0.000000
0.730583 0.990582 0.000000
0.961430 0.961430 0.000000
1.000000 0.944387 0.000000
1.000000 0.944387 0.000000
0.000000 1.000000 0.000000
0.000000 1.000000 0.000000
0.004581 1.000000 0.000000
0.235429 1.000000 0.000000
0.466276 1.000000 0.000000
0.697124 1.000000 0.000000
0.927971 1.000000 0.000000
1.000000 1.000000 0.000000
1.000000 1.000000 0.000000
0.000000 1.000000 0.000000
0.000000 1.000000 0.000000
0.004581 1.000000 0.000000
0.235429 1.000000 0.000000
0.466276 1.000000 0.000000
0.697124 1.000000 0.000000
0.927971 1.000000 0.000000
1.000000 1.000000 0.000000
1.000000 1.000000 0.000000
0.079145 0.079145 0.099145
0.096902 0.076903 0.096902
0.327750 0.047750 0.067750
0.558598 0.018597 0.038597
0.789445 0.000000 0.009445
1.000000 0.000000 0.000000
1.000000 0.000000 0.000000
1.000000 0.000000 0.000000
1.000000 0.000000 0.000000
0.074743 0.094742 0.094742
0.092500 0.092500 0.092500
0.323348 0.063347 0.063347
0.554195 0.034195 0.034195
0.785042 0.005042 0.005042
1.000000 0.000000 0.000000
1.000000 0.000000 0.000000
1.000000 0.000000 0.000000
1.000000 0.000000 0.000000
0.017510 0.297510 0.037510
0.035267 0.295268 0.035267
0.266115 0.266115 0.006115
0.496963 0.236963 0.000000
0.727810 0.207810 0.000000
0.958657 0.178658 0.000000
1.000000 0.149505 0.000000
1.000000 0.132462 0.000000
1.000000 0.132462 0.000000
0.000000 0.500278 0.000000
0.000000 0.498035 0.000000
0.208883 0.468883 0.000000
0.439730 0.439730 0.000000
0.670577 0.410578 0.000000
0.901425 0.381425 0.000000
1.000000 0.352273 0.000000
1.000000 0.335230 0.000000
1.000000 0.335230 0.000000
0.000000 0.703045 0.000000
0.000000 0.700802 0.000000
0.151650 0.671650 0.000000
0.382498 0.642497 0.000000
0.613345 0.613345 0.000000
0.844192 0.584193 0.000000
1.000000 0.555040 0.000000
1.000000 0.537997 0.000000
1.000000 0.537997 0.000000
0.000000 0.905812 0.000000
0.000000 0.903570 0.000000
0.094417 0.874417 0.000000
0.325265 0.845265 0.000000
0.556112 0.816112 0.000000
0.786960 0.786960 0.000000
1.000000 0.757807 0.000000
1.000000 0.740764 0.000000
1.000000 0.740764 0.000000
0.000000 1.000000 0.000000
0.000000 1.000000 0.000000
0.037185 1.000000 0.000000
0.268033 1.000000 0.000000
0.498880 1.000000 0.000000
0.729727 0.989727 0.000000
0.960575 0.960575 0.000000
1.000000 0.943532 0.000000
1.000000 0.943532 0.000000
0.000000 1.000000 0.000000
0.000000 1.000000 0.000000
0.003726 1.000000 0.000000
0.234574 1.000000 0.000000
0.465421 1.000000 0.000000
0.696268 1.000000 0.000000
0.927116 1.000000 0.000000
1.000000 1.000000 0.000000
1.000000 1.000000 0.000000
0.000000 1.000000 0.000000
0.000000 1.000000 0.000000
0.003726 1.000000 0.000000
0.234574 1.000000 0.000000
0.465421 1.000000 0.000000
0.696268 1.000000 0.000000
0.927116 1.000000 0.000000
1.000000 1.000000 0.000000
1.000000 1.000000 0.000000
0.068030 0.068030 0.348030
0.085787 0.065787 0.345788
0.316635 0.036635 0.316635
0.547483 0.007482 0.287482
0.778330 0.000000 0.258330
1.000000 0.000000 0.229178
1.000000 0.000000 0.200025
1.000000 0.000000 0.182982
1.000000 0.000000 0.182982
0.063628 0.083627 0.343628
0.081385 0.081385 0.341385
0.312233 0.052232 0.312233
0.543080 0.023080 0.283080
0.773927 0.000000 0.253928
1.000000 0.000000 0.224775
1.000000 0.000000 0.195623
1.000000 0.000000 0.178580
1.000000 0.000000 0.178580
0.006395 0.286395 0.286395
0.024152 0.284153 0.284153
0.255000 0.255000 0.255000
0.485848 0.225848 0.225848
0.716695 0.196695 0.196695
0.947542 0.167543 0.167543
1.000000 0.138390 0.138390
1.000000 0.121347 0.121347
1.000000 0.121347 0.121347
0.000000 0.489163 0.229162
0.000000 0.486920 0.226920
0.197768 0.457768 0.197768
0.428615 0.428615 0.168615
0.659462 0.399463 0.139462
0.890310 0.370310 0.110310
1.000000 0.341158 0.081157
1.000000 0.324115 0.064114
1.000000 0.324115 0.064114
0.000000 0.691930 0.171930
0.000000 0.689688 0.169688
0.140535 0.660535 0.140535
0.371383 0.631382 0.111383
0.602230 0.602230 0.082230
0.833077 0.573078 0.053077
1.000000 0.543925 0.023925
1.000000 0.526882 0.006882
1.000000 0.526882 0.006882
0.000000 0.894697 0.114698
0.000000 0.892455 0.112455
0.083303 0.863302 0.083303
0.314150 0.834150 0.054150
0.544997 0.804997 0.024998
0.775845 0.775845 0.000000
1.000000 0.746692 0.000000
1.000000 0.729649 0.000000
1.000000 0.729649 0.000000
0.000000 1.000000 0.057465
0.000000 1.000000 0.055223
0.026070 1.000000 0.026070
0.256918 1.000000 0.000000
0.487765 1.000000 0.000000
0.718612 0.978612 0.000000
0.949460 0.949460 0.000000
1.000000 0.932417 0.000000
1.000000 0.932417 0.000000
0.000000 1.000000 0.024006
0.000000 1.000000 0.021763
0.000000 1.000000 0.000000
0.223459 1.000000 0.000000
0.454306 1.000000 0.000000
0.685153 1.000000 0.000000
0.916001 1.000000 0.000000
1.000000 1.000000 0.000000
1.000000 1.000000 0.000000
0.000000 1.000000 0.024006
0.000000 1.000000 0.021763
0.000000 1.000000 0.000000
0.223459 1.000000 0.000000
0.454306 1.000000 0.000000
0.685153 1.000000 0.000000
0.916001 1.000000 0.000000
1.000000 1.000000 0.000000
1.000000 1.000000 0.000000
0.056915 0.056915 0.596915
0.074672 0.054672 0.594673
0.305520 0.025520 0.565520
0.536368 0.000000 0.536368
0.767215 0.000000 0.507215
0.998062 0.000000 0.478063
1.000000 0.000000 0.448910
1.000000 0.000000 0.431867
1.000000 0.000000 0.431867
0.052513 0.072512 0.592513
0.070270 0.070270 0.590270
0.301118 0.041117 0.561118
0.531965 0.011965 0.531965
0.762813 0.000000 0.502813
0.993660 0.000000 0.473660
1.000000 0.000000 0.444508
1.000000 0.000000 0.427465
1.000000 0.000000 0.427465
0.000000 0.275280 0.535280
0.013037 0.273038 0.533038
0.243885 0.243885 0.503885
0.474733 0.214733 0.474733
0.705580 0.185580 0.445580
0.936427 0.156427 0.416428
1.000000 0.127275 0.387275
1.000000 0.110232 0.370232
1.000000 0.110232 0.370232
0.000000 0.478048 0.478048
0.000000 0.475805 0.475805
0.186652 0.446653 0.446653
0.417500 0.417500 0.417500
0.648347 0.388348 0.388348
0.879195 0.359195 0.359195
1.000000 0.330043 0.330043
1.000000 0.313000 0.313000
1.000000 0.313000 0.313000
0.000000 0.680815 0.420815
0.000000 0.678573 0.418573
0.129420 0.649420 0.389420
0.360268 0.620267 0.360268
0.591115 0.591115 0.331115
0.821962 0.561962 0.301963
1.000000 0.532810 0.272810
1.000000 0.515767 0.255767
1.000000 0.515767 0.255767
0.000000 0.883582 0.363583
0.000000 0.881340 0.361340
0.072187 0.852187 0.332188
0.303035 0.823035 0.303035
0.533882 0.793882 0.273883
0.764730 0.764730 0.244730
0.995577 0.735577 0.215578
1.000000 0.718534 0.198535
1.000000 0.718534 0.198535
0.000000 1.000000 0.306350
0.000000 1.000000 0.304108
0.014955 1.000000 0.274955
0.245803 1.000000 0.245803
0.476650 0.996650 0.216650
0.707498 0.967497 0.187498
0.938345 0.938345 0.158345
1.000000 0.921302 0.141302
1.000000 0.921302 0.141302
0.000000 1.000000 0.272891
0.000000 1.000000 0.270649
0.000000 1.000000 0.241496
0.212344 1.000000 0.212344
0.443191 1.000000 0.183191
0.674038 1.000000 0.154039
0.904886 1.000000 0.124886
1.000000 1.000000 0.107843
1.000000 1.000000 0.107843
0.000000 1.000000 0.272891
0.000000 1.000000 0.270649
0.000000 1.000000 0.241496
0.212344 1.000000 0.212344
0.443191 1.000000 0.183191
0.674038 1.000000 0.154039
0.904886 1.000000 0.124886
1.000000 1.000000 0.107843
1.000000 1.000000 0.107843
0.045800 0.045800 0.845800
0.063557 0.043557 0.843557
0.294405 0.014405 0.814405
0.525253 0.000000 0.785252
0.756100 0.000000 0.756100
0.986947 0.000000 0.726947
1.000000 0.000000 0.697795
1.000000 0.000000 0.680752
1.000000 0.000000 0.680752
0.041398 0.061397 0.841398
0.059155 0.059155 0.839155
0.290003 0.030002 0.810002
0.520850 0.000850 0.780850
0.751697 0.000000 0.751697
0.982545 0.000000 0.722545
1.000000 0.000000 0.693393
1.000000 0.000000 0.676349
1.000000 0.000000 0.676349
0.000000 0.264165 0.784165
0.001922 0.261923 0.781923
0.232770 0.232770 0.752770
0.463618 0.203618 0.723618
0.694465 0.174465 0.694465
0.925312 0.145313 0.665312
1.000000 0.116160 0.636160
1.000000 0.099117 0.619117
1.000000 0.099117 0.619117
0.000000 0.466933 0.726932
0.000000 0.464690 0.724690
0.175538 0.435538 0.695537
0.406385 0.406385 0.666385
0.637232 0.377233 0.637232
0.868080 0.348080 0.608080
1.000000 0.318928 0.578928
1.000000 0.301885 0.561885
1.000000 0.301885 0.561885
0.000000 0.669700 0.669700
0.000000 0.667458 0.667458
0.118305 0.638305 0.638305
0.349153 0.609152 0.609152
0.580000 0.580000 0.580000
0.810847 0.550848 0.550848
1.000000 0.521695 0.521695
1.000000 0.504652 0.504652
1.000000 0.504652 0.504652
0.000000 0.872467 0.612467
0.000000 0.870225 0.610225
0.061073 0.841072 0.581072
0.291920 0.811920 0.551920
0.522767 0.782767 0.522767
0.753615 0.753615 0.493615
0.984463 0.724463 0.464463
1.000000 0.707419 0.447420
1.000000 0.707419 0.447420
0.000000 1.000000 0.555235
0.000000 1.000000 0.552992
0.003840 1.000000 0.523840
0.234688 1.000000 0.494688
0.465535 0.985535 0.465535
0.696383 0.956383 0.436383
0.927230 0.927230 0.407230
1.000000 0.910187 0.390187
1.000000 0.910187 0.390187
0.000000 1.000000 0.521776
0.000000 1.000000 0.519533
0.000000 1.000000 0.490381
0.201229 1.000000 0.461228
0.432076 1.000000 0.432076
0.662923 1.000000 0.402923
0.893771 1.000000 0.373771
1.000000 1.000000 0.356728
1.000000 1.000000 0.356728
0.000000 1.000000 0.521776
0.000000 1.000000 0.519533
0.000000 1.000000 0.490381
0.201229 1.000000 0.461228
0.432076 1.000000 0.432076
0.662923 1.000000 0.402923
0.893771 1.000000 0.373771
1.000000 1.000000 0.356728
1.000000 1.000000 0.356728
0.034685 0.034685 1.000000
0.052442 0.032443 1.000000
0.283290 0.003290 1.000000
0.514138 0.000000 1.000000
0.744985 0.000000 1.000000
0.975832 0.000000 0.975832
1.000000 0.000000 0.946680
1.000000 0.000000 0.929637
1.000000 0.000000 0.929637
0.030283 0.050282 1.000000
0.048040 0.048040 1.000000
0.278888 0.018887 1.000000
0.509735 0.000000 1.000000
0.740582 0.000000 1.000000
0.971430 0.000000 0.971430
1.000000 0.000000 0.942277
1.000000 0.000000 0.925234
1.000000 0.000000 0.925234
0.000000 0.253050 1.000000
0.000000 0.250808 1.000000
0.221655 0.221655 1.000000
0.452503 0.192503 0.972502
0.683350 0.163350 0.943350
0.914197 0.134198 0.914197
1.000000 0.105045 0.885045
1.000000 0.088002 0.868002
1.000000 0.088002 0.868002
0.000000 0.455818 0.975817
0.000000 0.453575 0.973575
0.164422 0.424423 0.944422
0.395270 0.395270 0.915270
0.626117 0.366118 0.886117
0.856965 0.336965 0.856965
1.000000 0.307813 0.827812
1.000000 0.290770 0.810769
1.000000 0.290770 0.810769
0.000000 0.658585 0.918585
0.000000 0.656342 0.916342
0.107190 0.627190 0.887190
0.338038 0.598037 0.858038
0.568885 0.568885 0.828885
0.799732 0.539732 0.799732
1.000000 0.510580 0.770580
1.000000 0.493537 0.753537
1.000000 0.493537 0.753537
0.000000 0.861352 0.861352
0.000000 0.859110 0.859110
0.049957 0.829957 0.829957
0.280805 0.800805 0.800805
0.511652 0.771652 0.771652
0.742500 0.742500 0.742500
0.973348 0.713348 0.713348
1.000000 0.696304 0.696304
1.000000 0.696304 0.696304
0.000000 1.000000 0.804120
0.000000 1.000000 0.801878
0.000000 1.000000 0.772725
0.223573 1.000000 0.743572
0.454420 0.974420 0.714420
0.685268 0.945268 0.685268
0.916115 0.916115 0.656115
1.000000 0.899072 0.639072
1.000000 0.899072 0.639072
0.000000 1.000000 0.770661
0.000000 1.000000 0.768418
0.000000 1.000000 0.739266
0.190114 1.000000 0.710113
0.420961 1.000000 0.680961
0.651809 1.000000 0.651809
0.882656 1.000000 0.622656
1.000000 1.000000 0.605613
1.000000 1.000000 0.605613
0.000000 1.000000 0.770661
0.000000 1.000000 0.768418
0.000000 1.000000 0.739266
0.190114 1.000000 0.710113
0.420961 1.000000 0.680961
0.651809 1.000000 0.651809
0.882656 1.000000 0.622656
1.000000 1.000000 0.605613
1.000000 1.000000 0.605613
0.023570 0.023570 1.000000
0.041327 0.021327 1.000000
0.272175 0.000000 1.000000
0.503023 0.000000 1.000000
0.733870 0.000000 1.000000
0.964717 0.000000 1.000000
1.000000 0.000000 1.000000
1.000000 0.000000 1.000000
1.000000 0.000000 1.000000
0.019168 0.039167 1.000000
0.036925 0.036925 1.000000
0.267773 0.007772 1.000000
0.498620 0.000000 1.000000
0.729467 0.000000 1.000000
0.960315 0.000000 1.000000
1.000000 0.000000 1.000000
1.000000 0.000000 1.000000
1.000000 0.000000 1.000000
0.000000 0.241935 1.000000
0.000000 0.239693 1.000000
0.210540 0.210540 1.000000
0.441388 0.181388 1.000000
0.672235 0.152235 1.000000
0.903083 0.123082 1.000000
1.000000 0.093930 1.000000
1.000000 0.076887 1.000000
1.000000 0.076887 1.000000
0.000000 0.444703 1.000000
0.000000 0.442460 1.000000
0.153308 0.413308 1.000000
0.384155 0.384155 1.000000
0.615002 0.355002 1.000000
0.845850 0.325850 1.000000
1.000000 0.296698 1.000000
1.000000 0.279655 1.000000
1.000000 0.279655 1.000000
0.000000 0.647470 1.000000
0.000000 0.645228 1.000000
0.096075 0.616075 1.000000
0.326923 0.586922 1.000000
0.557770 0.557770 1.000000
0.788617 0.528617 1.000000
1.000000 0.499465 1.000000
1.000000 0.482422 1.000000
1.000000 0.482422 1.000000
0.000000 0.850237 1.000000
0.000000 0.847995 1.000000
0.038843 0.818842 1.000000
0.269690 0.789690 1.000000
0.500537 0.760537 1.000000
0.731385 0.731385 0.991385
0.962232 0.702233 0.962232
1.000000 0.685190 0.945189
1.000000 0.685190 0.945189
0.000000 1.000000 1.000000
0.000000 1.000000 1.000000
0.000000 1.000000 1.000000
0.212458 0.992457 0.992457
0.443305 0.963305 0.963305
0.674153 0.934152 0.934152
0.905000 0.905000 0.905000
1.000000 0.887957 0.887957
1.000000 0.887957 0.887957
0.000000 1.000000 1.000000
0.000000 1.000000 1.000000
0.000000 1.000000 0.988151
0.178999 1.000000 0.958998
0.409846 1.000000 0.929846
0.640694 1.000000 0.900693
0.871541 1.000000 0.871541
1.000000 1.000000 0.854498
1.000000 1.000000 0.854498
0.000000 1.000000 1.000000
0.000000 1.000000 1.000000
0.000000 1.000000 0.988151
0.178999 1.000000 0.958998
0.409846 1.000000 0.929846
0.640694 1.000000 0.900693
0.871541 1.000000 0.871541
1.000000 1.000000 0.854498
1.000000 1.000000 0.854498
0.017072 0.017072 1.000000
0.034829 0.014829 1.000000
0.265677 0.000000 1.000000
0.496525 0.000000 1.000000
0.727372 0.000000 1.000000
0.958220 0.000000 1.000000
1.000000 0.000000 1.000000
1.000000 0.000000 1.000000
1.000000 0.000000 1.000000
0.012670 0.032669 1.000000
0.030427 0.030427 1.000000
0.261275 0.001274 1.000000
0.492122 0.000000 1.000000
0.722970 0.000000 1.000000
0.953817 0.000000 1.000000
1.000000 0.000000 1.000000
1.000000 0.000000 1.000000
1.000000 0.000000 1.000000
0.000000 0.235437 1.000000
0.000000 0.233195 1.000000
0.204042 0.204042 1.000000
0.434890 0.174890 1.000000
0.665737 0.145737 1.000000
0.896584 0.116584 1.000000
1.000000 0.087432 1.000000
1.000000 0.070389 1.000000
1.000000 0.070389 1.000000
0.000000 0.438205 1.000000
0.000000 0.435962 1.000000
0.146810 0.406810 1.000000
0.377657 0.377657 1.000000
0.608504 0.348504 1.000000
0.839352 0.319352 1.000000
1.000000 0.290200 1.000000
1.000000 0.273157 1.000000
1.000000 0.273157 1.000000
0.000000 0.640972 1.000000
0.000000 0.638729 1.000000
0.089577 0.609577 1.000000
0.320425 0.580424 1.000000
0.551272 0.551272 1.000000
0.782119 0.522119 1.000000
1.000000 0.492967 1.000000
1.000000 0.475924 1.000000
1.000000 0.475924 1.000000
0.000000 0.843739 1.000000
0.000000 0.841497 1.000000
0.032344 0.812344 1.000000
0.263192 0.783192 1.000000
0.494039 0.754039 1.000000
0.724887 0.724887 1.000000
0.955734 0.695734 1.000000
1.000000 0.678692 1.000000
1.000000 0.678692 1.000000
0.000000 1.000000 1.000000
0.000000 1.000000 1.000000
0.000000 1.000000 1.000000
0.205960 0.985959 1.000000
0.436807 0.956807 1.000000
0.667655 0.927654 1.000000
0.898502 0.898502 1.000000
1.000000 0.881459 1.000000
1.000000 0.881459 1.000000
0.000000 1.000000 1.000000
0.000000 1.000000 1.000000
0.000000 1.000000 1.000000
0.172501 1.000000 1.000000
0.403348 1.000000 1.000000
0.634195 1.000000 1.000000
0.865043 1.000000 1.000000
1.000000 1.000000 1.000000
1.000000 1.000000 1.000000
0.000000 1.000000 1.000000
0.000000 1.000000 1.000000
0.000000 1.000000 1.000000
0.172501 1.000000 1.000000
0.403348 1.000000 1.000000
0.634195 1.000000 1.000000
0.865043 1.000000 1.000000
1.000000 1.000000 1.000000
1.000000 1.000000 1.000000
0.017072 0.017072 1.000000
0.034829 0.014829 1.000000
0.265677 0.000000 1.000000
0.496525 0.000000 1.000000
0.727372 0.000000 1.000000
0.958220 0.000000 1.000000
1.000000 0.000000 1.000000
1.000000 0.000000 1.000000
1.000000 0.000000 1.000000
0.012670 0.032669 1.000000
0.030427 0.030427 1.000000
0.261275 0.001274 1.000000
0.492122 0.000000 1.000000
0.722970 0.000000 1.000000
0.953817 0.000000 1.000000
1.000000 0.000000 1.000000
1.000000 0.000000 1.000000
1.000000 0.000000 1.000000
0.000000 0.235437 1.000000
0.000000 0.233195 1.000000
0.204042 0.204042 1.000000
0.434890 0.174890 1.000000
0.665737 0.145737 1.000000
0.896584 0.116584 1.000000
1.000000 0.087432 1.000000
1.000000 0.070389 1.000000
1.000000 0.070389 1.000000
0.000000 0.438205 1.000000
0.000000 0.435962 1.000000
0.146810 0.406810 1.000000
0.377657 0.377657 1.000000
0.608504 0.348504 1.000000
0.839352 0.319352 1.000000
1.000000 0.290200 1.000000
1.000000 0.273157 1.000000
1.000000 0.273157 1.000000
0.000000 0.640972 1.000000
0.000000 0.638729 1.000000
0.089577 0.609577 1.000000
0.320425 0.580424 1.000000
0.551272 0.551272 1.000000
0.782119 0.522119 1.000000
1.000000 0.492967 1.000000
1.000000 0.475924 1.000000
1.000000 0.475924 1.000000
0.000000 0.843739 1.000000
0.000000 0.841497 1.000000
0.032344 0.812344 1.000000
0.263192 0.783192 1.000000
0.494039 0.754039 1.000000
0.724887 0.724887 1.000000
0.955734 0.695734 1.000000
1.000000 0.678692 1.000000
1.000000 0.678692 1.000000
0.000000 1.000000 1.000000
0.000000 1.000000 1.000000
0.000000 1.000000 1.000000
0.205960 0.985959 1.000000
0.436807 0.956807 1.000000
0.667655 0.927654 1.000000
0.898502 0.898502 1.000000
1.000000 0.881459 1.000000
1.000000 0.881459 1.000000
0.000000 1.000000 1.000000
0.000000 1.000000 1.000000
0.000000 1.000000 1.000000
0.172501 1.000000 1.000000
0.403348 1.000000 1.000000
0.634195 1.000000 1.000000
0.865043 1.000000 1.000000
1.000000 1.000000 1.000000
1.000000 1.000000 1.000000
0.000000 1.000000 1.000000
0.000000 1.000000 1.000000
0.000000 1.000000 1.000000
0.172501 1.000000 1.000000
0.403348 1.000000 1.000000
0.634195 1.000000 1.000000
0.865043 1.000000 1.000000
1.000000 1.000000 1.000000
1.000000 1.000000 1.000000
