server/luts/neon.cube
TITLE "Neon"
LUT_3D_SIZE 17
0.050000 0.050000 0.050000
0.050000 0.050000 0.050000
0.050000 0.050000 0.050000
0.147550 0.035050 0.035050
0.284120 0.014120 0.014120
0.420690 0.000000 0.000000
0.557260 0.000000 0.000000
0.693830 0.000000 0.000000
0.830400 0.000000 0.000000
0.966970 0.000000 0.000000
1.000000 0.000000 0.000000
1.000000 0.000000 0.000000
1.000000 0.000000 0.000000
1.000000 0.000000 0.000000
1.000000 0.000000 0.000000
1.000000 0.000000 0.000000
1.000000 0.000000 0.000000
0.050000 0.050000 0.050000
0.050000 0.050000 0.050000
0.050000 0.050000 0.050000
0.147550 0.035050 0.035050
0.284120 0.014120 0.014120
0.420690 0.000000 0.000000
0.557260 0.000000 0.000000
0.693830 0.000000 0.000000
0.830400 0.000000 0.000000
0.966970 0.000000 0.000000
1.000000 0.000000 0.000000
1.000000 0.000000 0.000000
1.000000 0.000000 0.000000
1.000000 0.000000 0.000000
1.000000 0.000000 0.000000
1.000000 0.000000 0.000000
1.000000 0.000000 0.000000
0.050000 0.050000 0.050000
0.050000 0.050000 0.050000
0.050000 0.050000 0.050000
0.147550 0.035050 0.035050
0.284120 0.014120 0.014120
0.420690 0.000000 0.000000
0.557260 0.000000 0.000000
0.693830 0.000000 0.000000
0.830400 0.000000 0.000000
0.966970 0.000000 0.000000
1.000000 0.000000 0.000000
1.000000 0.000000 0.000000
1.000000 0.000000 0.000000
1.000000 0.000000 0.000000
1.000000 0.000000 0.000000
1.000000 0.000000 0.000000
1.000000 0.000000 0.000000
0.020650 0.133150 0.020650
0.020650 0.133150 0.020650
0.020650 0.133150 0.020650
0.118200 0.118200 0.005700
0.254770 0.097270 0.000000
0.391340 0.076340 0.000000
0.527910 0.055410 0.000000
0.664480 0.034480 0.000000
0.801050 0.013550 0.000000
0.937620 0.000000 0.000000
1.000000 0.000000 0.000000
1.000000 0.000000 0.000000
1.000000 0.000000 0.000000
1.000000 0.000000 0.000000
1.000000 0.000000 0.000000
1.000000 0.000000 0.000000
1.000000 0.000000 0.000000
0.000000 0.249560 0.000000
0.000000 0.249560 0.000000
0.000000 0.249560 0.000000
0.077110 0.234610 0.000000
0.213680 0.213680 0.000000
0.350250 0.192750 0.000000
0.486820 0.171820 0.000000
0.623390 0.150890 0.000000
0.759960 0.129960 0.000000
0.896530 0.109030 0.000000
1.000000 0.088100 0.000000
1.000000 0.067170 0.000000
1.000000 0.046240 0.000000
1.000000 0.025310 0.000000
1.000000 0.022320 0.000000
1.000000 0.022320 0.000000
1.000000 0.022320 0.000000
0.000000 0.365970 0.000000
0.000000 0.365970 0.000000
0.000000 0.365970 0.000000
0.036020 0.351020 0.000000
0.172590 0.330090 0.000000
0.309160 0.309160 0.000000
0.445730 0.288230 0.000000
0.582300 0.267300 0.000000
0.718870 0.246370 0.000000
0.855440 0.225440 0.000000
0.992010 0.204510 0.000000
1.000000 0.183580 0.000000
1.000000 0.162650 0.000000
1.000000 0.141720 0.000000
1.000000 0.138730 0.000000
1.000000 0.138730 0.000000
1.000000 0.138730 0.000000
0.000000 0.482380 0.000000
0.000000 0.482380 0.000000
0.000000 0.482380 0.000000
0.000000 0.467430 0.000000
0.131500 0.446500 0.000000
0.268070 0.425570 0.000000
0.404640 0.404640 0.000000
0.541210 0.383710 0.000000
0.677780 0.362780 0.000000
0.814350 0.341850 0.000000
0.950920 0.320920 0.000000
1.000000 0.299990 0.000000
1.000000 0.279060 0.000000
1.000000 0.258130 0.000000
1.000000 0.255140 0.000000
1.000000 0.255140 0.000000
1.000000 0.255140 0.000000
0.000000 0.598790 0.000000
0.000000 0.598790 0.000000
0.000000 0.598790 0.000000
0.000000 0.583840 0.000000
0.090410 0.562910 0.000000
0.226980 0.541980 0.000000
0.363550 0.521050 0.000000
0.500120 0.500120 0.000000
0.636690 0.479190 0.000000
0.773260 0.458260 0.000000
0.909830 0.437330 0.000000
1.000000 0.416400 0.000000
1.000000 0.395470 0.000000
1.000000 0.374540 0.000000
1.000000 0.371550 0.000000
1.000000 0.371550 0.000000
1.000000 0.371550 0.000000
0.000000 0.715200 0.000000
0.000000 0.715200 0.000000
0.000000 0.715200 0.000000
0.000000 0.700250 0.000000
0.049320 0.679320 0.000000
0.185890 0.658390 0.000000
0.322460 0.637460 0.000000
0.459030 0.616530 0.000000
0.595600 0.595600 0.000000
0.732170 0.574670 0.000000
0.868740 0.553740 0.000000
1.000000 0.532810 0.000000
1.000000 0.511880 0.000000
1.000000 0.490950 0.000000
1.000000 0.487960 0.000000
1.000000 0.487960 0.000000
1.000000 0.487960 0.000000
0.000000 0.831610 0.000000
0.000000 0.831610 0.000000
0.000000 0.831610 0.000000
0.000000 0.816660 0.000000
0.008230 0.795730 0.000000
0.144800 0.774800 0.000000
0.281370 0.753870 0.000000
0.417940 0.732940 0.000000
0.554510 0.712010 0.000000
0.691080 0.691080 0.000000
0.827650 0.670150 0.000000
0.964220 0.649220 0.000000
1.000000 0.628290 0.000000
1.000000 0.607360 0.000000
1.000000 0.604370 0.000000
1.000000 0.604370 0.000000
1.000000 0.604370 0.000000
0.000000 0.948020 0.000000
0.000000 0.948020 0.000000
0.000000 0.948020 0.000000
0.000000 0.933070 0.000000
0.000000 0.912140 0.000000
0.103710 0.891210 0.000000
0.240280 0.870280 0.000000
0.376850 0.849350 0.000000
0.513420 0.828420 0.000000
0.649990 0.807490 0.000000
0.786560 0.786560 0.000000
0.923130 0.765630 0.000000
1.000000 0.744700 0.000000
1.000000 0.723770 0.000000
1.000000 0.720780 0.000000
1.000000 0.720780 0.000000
1.000000 0.720780 0.000000
0.000000 1.000000 0.000000
0.000000 1.000000 0.000000
0.000000 1.000000 0.000000
0.000000 1.000000 0.000000
0.000000 1.000000 0.000000
0.062620 1.000000 0.000000
0.199190 0.986690 0.000000
0.335760 0.965760 0.000000
0.472330 0.944830 0.000000
0.608900 0.923900 0.000000
0.745470 0.902970 0.000000
0.882040 0.882040 0.000000
1.000000 0.861110 0.000000
1.000000 0.840180 0.000000
1.000000 0.837190 0.000000
1.000000 0.837190 0.000000
1.000000 0.837190 0.000000
0.000000 1.000000 0.000000
0.000000 1.000000 0.000000
0.000000 1.000000 0.000000
0.000000 1.000000 0.000000
0.000000 1.000000 0.000000
0.021530 1.000000 0.000000
0.158100 1.000000 0.000000
0.294670 1.000000 0.000000
0.431240 1.000000 0.000000
0.567810 1.000000 0.000000
0.704380 1.000000 0.000000
0.840950 0.998450 0.000000
0.977520 0.977520 0.000000
1.000000 0.956590 0.000000
1.000000 0.953600 0.000000
1.000000 0.953600 0.000000
1.000000 0.953600 0.000000
0.000000 1.000000 0.000000
0.000000 1.000000 0.000000
0.000000 1.000000 0.000000
0.000000 1.000000 0.000000
0.000000 1.000000 0.000000
0.000000 1.000000 0.000000
0.117010 1.000000 0.000000
0.253580 1.000000 0.000000
0.390150 1.000000 0.000000
0.526720 1.000000 0.000000
0.663290 1.000000 0.000000
0.799860 1.000000 0.000000
0.936430 1.000000 0.000000
1.000000 1.000000 0.000000
1.000000 1.000000 0.000000
1.000000 1.000000 0.000000
1.000000 1.000000 0.000000
0.000000 1.000000 0.000000
0.000000 1.000000 0.000000
0.000000 1.000000 0.000000
0.000000 1.000000 0.000000
0.000000 1.000000 0.000000
0.000000 1.000000 0.000000
0.111140 1.000000 0.000000
0.247710 1.000000 0.000000
0.384280 1.000000 0.000000
0.520850 1.000000 0.000000
0.657420 1.000000 0.000000
0.793990 1.000000 0.000000
0.930560 1.000000 0.000000
1.000000 1.000000 0.000000
1.000000 1.000000 0.000000
1.000000 1.000000 0.000000
1.000000 1.000000 0.000000
0.000000 1.000000 0.000000
0.000000 1.000000 0.000000
0.000000 1.000000 0.000000
0.000000 1.000000 0.000000
0.000000 1.000000 0.000000
0.000000 1.000000 0.000000
0.111140 1.000000 0.000000
0.247710 1.000000 0.000000
0.384280 1.000000 0.000000
0.520850 1.000000 0.000000
0.657420 1.000000 0.000000
0.793990 1.000000 0.000000
0.930560 1.000000 0.000000
1.000000 1.000000 0.000000
1.000000 1.000000 0.000000
1.000000 1.000000 0.000000
1.000000 1.000000 0.000000
0.000000 1.000000 0.000000
0.000000 1.000000 0.000000
0.000000 1.000000 0.000000
0.000000 1.000000 0.000000
0.000000 1.000000 0.000000
0.000000 1.000000 0.000000
0.111140 1.000000 0.000000
0.247710 1.000000 0.000000
0.384280 1.000000 0.000000
0.520850 1.000000 0.000000
0.657420 1.000000 0.000000
0.793990 1.000000 0.000000
0.930560 1.000000 0.000000
1.000000 1.000000 0.000000
1.000000 1.000000 0.000000
1.000000 1.000000 0.000000
1.000000 1.000000 0.000000
0.050000 0.050000 0.050000
0.050000 0.050000 0.050000
0.050000 0.050000 0.050000
0.147550 0.035050 0.035050
0.284120 0.014120 0.014120
0.420690 0.000000 0.000000
0.557260 0.000000 0.000000
0.693830 0.000000 0.000000
0.830400 0.000000 0.000000
0.966970 0.000000 0.000000
1.000000 0.000000 0.000000
1.000000 0.000000 0.000000
1.000000 0.000000 0.000000
1.000000 0.000000 0.000000
1.000000 0.000000 0.000000
1.000000 0.000000 0.000000
1.000000 0.000000 0.000000
0.050000 0.050000 0.050000
0.050000 0.050000 0.050000
0.050000 0.050000 0.050000
0.147550 0.035050 0.035050
0.284120 0.014120 0.014120
0.420690 0.000000 0.000000
0.557260 0.000000 0.000000
0.693830 0.000000 0.000000
0.830400 0.000000 0.000000
0.966970 0.000000 0.000000
1.000000 0.000000 0.000000
1.000000 0.000000 0.000000
1.000000 0.000000 0.000000
1.000000 0.000000 0.000000
1.000000 0.000000 0.000000
1.000000 0.000000 0.000000
1.000000 0.000000 0.000000
0.050000 0.050000 0.050000
0.050000 0.050000 0.050000
0.050000 0.050000 0.050000
0.147550 0.035050 0.035050
0.284120 0.014120 0.014120
0.420690 0.000000 0.000000
0.557260 0.000000 0.000000
0.693830 0.000000 0.000000
0.830400 0.000000 0.000000
0.966970 0.000000 0.000000
1.000000 0.000000 0.000000
1.000000 0.000000 0.000000
1.000000 0.000000 0.000000
1.000000 0.000000 0.000000
1.000000 0.000000 0.000000
1.000000 0.000000 0.000000
1.000000 0.000000 0.000000
0.020650 0.133150 0.020650
0.020650 0.133150 0.020650
0.020650 0.133150 0.020650
0.118200 0.118200 0.005700
0.254770 0.097270 0.000000
0.391340 0.076340 0.000000
0.527910 0.055410 0.000000
0.664480 0.034480 0.000000
0.801050 0.013550 0.000000
0.937620 0.000000 0.000000
1.000000 0.000000 0.000000
1.000000 0.000000 0.000000
1.000000 0.000000 0.000000
1.000000 0.000000 0.000000
1.000000 0.000000 0.000000
1.000000 0.000000 0.000000
1.000000 0.000000 0.000000
0.000000 0.249560 0.000000
0.000000 0.249560 0.000000
0.000000 0.249560 0.000000
0.077110 0.234610 0.000000
0.213680 0.213680 0.000000
0.350250 0.192750 0.000000
0.486820 0.171820 0.000000
0.623390 0.150890 0.000000
0.759960 0.129960 0.000000
0.896530 0.109030 0.000000
1.000000 0.088100 0.000000
1.000000 0.067170 0.000000
1.000000 0.046240 0.000000
1.000000 0.025310 0.000000
1.000000 0.022320 0.000000
1.000000 0.022320 0.000000
1.000000 0.022320 0.000000
0.000000 0.365970 0.000000
0.000000 0.365970 0.000000
0.000000 0.365970 0.000000
0.036020 0.351020 0.000000
0.172590 0.330090 0.000000
0.309160 0.309160 0.000000
0.445730 0.288230 0.000000
0.582300 0.267300 0.000000
0.718870 0.246370 0.000000
0.855440 0.225440 0.000000
0.992010 0.204510 0.000000
1.000000 0.183580 0.000000
1.000000 0.162650 0.000000
1.000000 0.141720 0.000000
1.000000 0.138730 0.000000
1.000000 0.138730 0.000000
1.000000 0.138730 0.000000
0.000000 0.482380 0.000000
0.000000 0.482380 0.000000
0.000000 0.482380 0.000000
0.000000 0.467430 0.000000
0.131500 0.446500 0.000000
0.268070 0.425570 0.000000
0.404640 0.404640 0.000000
0.541210 0.383710 0.000000
0.677780 0.362780 0.000000
0.814350 0.341850 0.000000
0.950920 0.320920 0.000000
1.000000 0.299990 0.000000
1.000000 0.279060 0.000000
1.000000 0.258130 0.000000
1.000000 0.255140 0.000000
1.000000 0.255140 0.000000
1.000000 0.255140 0.000000
0.000000 0.598790 0.000000
0.000000 0.598790 0.000000
0.000000 0.598790 0.000000
0.000000 0.583840 0.000000
0.090410 0.562910 0.000000
0.226980 0.541980 0.000000
0.363550 0.521050 0.000000
0.500120 0.500120 0.000000
0.636690 0.479190 0.000000
0.773260 0.458260 0.000000
0.909830 0.437330 0.000000
1.000000 0.416400 0.000000
1.000000 0.395470 0.000000
1.000000 0.374540 0.000000
1.000000 0.371550 0.000000
1.000000 0.371550 0.000000
1.000000 0.371550 0.000000
0.000000 0.715200 0.000000
0.000000 0.715200 0.000000
0.000000 0.715200 0.000000
0.000000 0.700250 0.000000
0.049320 0.679320 0.000000
0.185890 0.658390 0.000000
0.322460 0.637460 0.000000
0.459030 0.616530 0.000000
0.595600 0.595600 0.000000
0.732170 0.574670 0.000000
0.868740 0.553740 0.000000
1.000000 0.532810 0.000000
1.000000 0.511880 0.000000
1.000000 0.490950 0.000000
1.000000 0.487960 0.000000
1.000000 0.487960 0.000000
1.000000 0.487960 0.000000
0.000000 0.831610 0.000000
0.000000 0.831610 0.000000
0.000000 0.831610 0.000000
0.000000 0.816660 0.000000
0.008230 0.795730 0.000000
0.144800 0.774800 0.000000
0.281370 0.753870 0.000000
0.417940 0.732940 0.000000
0.554510 0.712010 0.000000
0.691080 0.691080 0.000000
0.827650 0.670150 0.000000
0.964220 0.649220 0.000000
1.000000 0.628290 0.000000
1.000000 0.607360 0.000000
1.000000 0.604370 0.000000
1.000000 0.604370 0.000000
1.000000 0.604370 0.000000
0.000000 0.948020 0.000000
0.000000 0.948020 0.000000
0.000000 0.948020 0.000000
0.000000 0.933070 0.000000
0.000000 0.912140 0.000000
0.103710 0.891210 0.000000
0.240280 0.870280 0.000000
0.376850 0.849350 0.000000
0.513420 0.828420 0.000000
0.649990 0.807490 0.000000
0.786560 0.786560 0.000000
0.923130 0.765630 0.000000
1.000000 0.744700 0.000000
1.000000 0.723770 0.000000
1.000000 0.720780 0.000000
1.000000 0.720780 0.000000
1.000000 0.720780 0.000000
0.000000 1.000000 0.000000
0.000000 1.000000 0.000000
0.000000 1.000000 0.000000
0.000000 1.000000 0.000000
0.000000 1.000000 0.000000
0.062620 1.000000 0.000000
0.199190 0.986690 0.000000
0.335760 0.965760 0.000000
0.472330 0.944830 0.000000
0.608900 0.923900 0.000000
0.745470 0.902970 0.000000
0.882040 0.882040 0.000000
1.000000 0.861110 0.000000
1.000000 0.840180 0.000000
1.000000 0.837190 0.000000
1.000000 0.837190 0.000000
1.000000 0.837190 0.000000
0.000000 1.000000 0.000000
0.000000 1.000000 0.000000
0.000000 1.000000 0.000000
0.000000 1.000000 0.000000
0.000000 1.000000 0.000000
0.021530 1.000000 0.000000
0.158100 1.000000 0.000000
0.294670 1.000000 0.000000
0.431240 1.000000 0.000000
0.567810 1.000000 0.000000
0.704380 1.000000 0.000000
0.840950 0.998450 0.000000
0.977520 0.977520 0.000000
1.000000 0.956590 0.000000
1.000000 0.953600 0.000000
1.000000 0.953600 0.000000
1.000000 0.953600 0.000000
0.000000 1.000000 0.000000
0.000000 1.000000 0.000000
0.000000 1.000000 0.000000
0.000000 1.000000 0.000000
0.000000 1.000000 0.000000
0.000000 1.000000 0.000000
0.117010 1.000000 0.000000
0.253580 1.000000 0.000000
0.390150 1.000000 0.000000
0.526720 1.000000 0.000000
0.663290 1.000000 0.000000
0.799860 1.000000 0.000000
0.936430 1.000000 0.000000
1.000000 1.000000 0.000000
1.000000 1.000000 0.000000
1.000000 1.000000 0.000000
1.000000 1.000000 0.000000
0.000000 1.000000 0.000000
0.000000 1.000000 0.000000
0.000000 1.000000 0.000000
0.000000 1.000000 0.000000
0.000000 1.000000 0.000000
0.000000 1.000000 0.000000
0.111140 1.000000 0.000000
0.247710 1.000000 0.000000
0.384280 1.000000 0.000000
0.520850 1.000000 0.000000
0.657420 1.000000 0.000000
0.793990 1.000000 0.000000
0.930560 1.000000 0.000000
1.000000 1.000000 0.000000
1.000000 1.000000 0.000000
1.000000 1.000000 0.000000
1.000000 1.000000 0.000000
0.000000 1.000000 0.000000
0.000000 1.000000 0.000000
0.000000 1.000000 0.000000
0.000000 1.000000 0.000000
0.000000 1.000000 0.000000
0.000000 1.000000 0.000000
0.111140 1.000000 0.000000
0.247710 1.000000 0.000000
0.384280 1.000000 0.000000
0.520850 1.000000 0.000000
0.657420 1.000000 0.000000
0.793990 1.000000 0.000000
0.930560 1.000000 0.000000
1.000000 1.000000 0.000000
1.000000 1.000000 0.000000
1.000000 1.000000 0.000000
1.000000 1.000000 0.000000
0.000000 1.000000 0.000000
0.000000 1.000000 0.000000
0.000000 1.000000 0.000000
0.000000 1.000000 0.000000
0.000000 1.000000 0.000000
0.000000 1.000000 0.000000
0.111140 1.000000 0.000000
0.247710 1.000000 0.000000
0.384280 1.000000 0.000000
0.520850 1.000000 0.000000
0.657420 1.000000 0.000000
0.793990 1.000000 0.000000
0.930560 1.000000 0.000000
1.000000 1.000000 0.000000
1.000000 1.000000 0.000000
1.000000 1.000000 0.000000
1.000000 1.000000 0.000000
0.050000 0.050000 0.050000
0.050000 0.050000 0.050000
0.050000 0.050000 0.050000
0.147550 0.035050 0.035050
0.284120 0.014120 0.014120
0.420690 0.000000 0.000000
0.557260 0.000000 0.000000
0.693830 0.000000 0.000000
0.830400 0.000000 0.000000
0.966970 0.000000 0.000000
1.000000 0.000000 0.000000
1.000000 0.000000 0.000000
1.000000 0.000000 0.000000
1.000000 0.000000 0.000000
1.000000 0.000000 0.000000
1.000000 0.000000 0.000000
1.000000 0.000000 0.000000
0.050000 0.050000 0.050000
0.050000 0.050000 0.050000
0.050000 0.050000 0.050000
0.147550 0.035050 0.035050
0.284120 0.014120 0.014120
0.420690 0.000000 0.000000
0.557260 0.000000 0.000000
0.693830 0.000000 0.000000
0.830400 0.000000 0.000000
0.966970 0.000000 0.000000
1.000000 0.000000 0.000000
1.000000 0.000000 0.000000
1.000000 0.000000 0.000000
1.000000 0.000000 0.000000
1.000000 0.000000 0.000000
1.000000 0.000000 0.000000
1.000000 0.000000 0.000000
0.050000 0.050000 0.050000
0.050000 0.050000 0.050000
0.050000 0.050000 0.050000
0.147550 0.035050 0.035050
0.284120 0.014120 0.014120
0.420690 0.000000 0.000000
0.557260 0.000000 0.000000
0.693830 0.000000 0.000000
0.830400 0.000000 0.000000
0.966970 0.000000 0.000000
1.000000 0.000000 0.000000
1.000000 0.000000 0.000000
1.000000 0.000000 0.000000
1.000000 0.000000 0.000000
1.000000 0.000000 0.000000
1.000000 0.000000 0.000000
1.000000 0.000000 0.000000
0.020650 0.133150 0.020650
0.020650 0.133150 0.020650
0.020650 0.133150 0.020650
0.118200 0.118200 0.005700
0.254770 0.097270 0.000000
0.391340 0.076340 0.000000
0.527910 0.055410 0.000000
0.664480 0.034480 0.000000
0.801050 0.013550 0.000000
0.937620 0.000000 0.000000
1.000000 0.000000 0.000000
1.000000 0.000000 0.000000
1.000000 0.000000 0.000000
1.000000 0.000000 0.000000
1.000000 0.000000 0.000000
1.000000 0.000000 0.000000
1.000000 0.000000 0.000000
0.000000 0.249560 0.000000
0.000000 0.249560 0.000000
0.000000 0.249560 0.000000
0.077110 0.234610 0.000000
0.213680 0.213680 0.000000
0.350250 0.192750 0.000000
0.486820 0.171820 0.000000
0.623390 0.150890 0.000000
0.759960 0.129960 0.000000
0.896530 0.109030 0.000000
1.000000 0.088100 0.000000
1.000000 0.067170 0.000000
1.000000 0.046240 0.000000
1.000000 0.025310 0.000000
1.000000 0.022320 0.000000
1.000000 0.022320 0.000000
1.000000 0.022320 0.000000
0.000000 0.365970 0.000000
0.000000 0.365970 0.000000
0.000000 0.365970 0.000000
0.036020 0.351020 0.000000
0.172590 0.330090 0.000000
0.309160 0.309160 0.000000
0.445730 0.288230 0.000000
0.582300 0.267300 0.000000
0.718870 0.246370 0.000000
0.855440 0.225440 0.000000
0.992010 0.204510 0.000000
1.000000 0.183580 0.000000
1.000000 0.162650 0.000000
1.000000 0.141720 0.000000
1.000000 0.138730 0.000000
1.000000 0.138730 0.000000
1.000000 0.138730 0.000000
0.000000 0.482380 0.000000
0.000000 0.482380 0.000000
0.000000 0.482380 0.000000
0.000000 0.467430 0.000000
0.131500 0.446500 0.000000
0.268070 0.425570 0.000000
0.404640 0.404640 0.000000
0.541210 0.383710 0.000000
0.677780 0.362780 0.000000
0.814350 0.341850 0.000000
0.950920 0.320920 0.000000
1.000000 0.299990 0.000000
1.000000 0.279060 0.000000
1.000000 0.258130 0.000000
1.000000 0.255140 0.000000
1.000000 0.255140 0.000000
1.000000 0.255140 0.000000
0.000000 0.598790 0.000000
0.000000 0.598790 0.000000
0.000000 0.598790 0.000000
0.000000 0.583840 0.000000
0.090410 0.562910 0.000000
0.226980 0.541980 0.000000
0.363550 0.521050 0.000000
0.500120 0.500120 0.000000
0.636690 0.479190 0.000000
0.773260 0.458260 0.000000
0.909830 0.437330 0.000000
1.000000 0.416400 0.000000
1.000000 0.395470 0.000000
1.000000 0.374540 0.000000
1.000000 0.371550 0.000000
1.000000 0.371550 0.000000
1.000000 0.371550 0.000000
0.000000 0.715200 0.000000
0.000000 0.715200 0.000000
0.000000 0.715200 0.000000
0.000000 0.700250 0.000000
0.049320 0.679320 0.000000
0.185890 0.658390 0.000000
0.322460 0.637460 0.000000
0.459030 0.616530 0.000000
0.595600 0.595600 0.000000
0.732170 0.574670 0.000000
0.868740 0.553740 0.000000
1.000000 0.532810 0.000000
1.000000 0.511880 0.000000
1.000000 0.490950 0.000000
1.000000 0.487960 0.000000
1.000000 0.487960 0.000000
1.000000 0.487960 0.000000
0.000000 0.831610 0.000000
0.000000 0.831610 0.000000
0.000000 0.831610 0.000000
0.000000 0.816660 0.000000
0.008230 0.795730 0.000000
0.144800 0.774800 0.000000
0.281370 0.753870 0.000000
0.417940 0.732940 0.000000
0.554510 0.712010 0.000000
0.691080 0.691080 0.000000
0.827650 0.670150 0.000000
0.964220 0.649220 0.000000
1.000000 0.628290 0.000000
1.000000 0.607360 0.000000
1.000000 0.604370 0.000000
1.000000 0.604370 0.000000
1.000000 0.604370 0.000000
0.000000 0.948020 0.000000
0.000000 0.948020 0.000000
0.000000 0.948020 0.000000
0.000000 0.933070 0.000000
0.000000 0.912140 0.000000
0.103710 0.891210 0.000000
0.240280 0.870280 0.000000
0.376850 0.849350 0.000000
0.513420 0.828420 0.000000
0.649990 0.807490 0.000000
0.786560 0.786560 0.000000
0.923130 0.765630 0.000000
1.000000 0.744700 0.000000
1.000000 0.723770 0.000000
1.000000 0.720780 0.000000
1.000000 0.720780 0.000000
1.000000 0.720780 0.000000
0.000000 1.000000 0.000000
0.000000 1.000000 0.000000
0.000000 1.000000 0.000000
0.000000 1.000000 0.000000
0.000000 1.000000 0.000000
0.062620 1.000000 0.000000
0.199190 0.986690 0.000000
0.335760 0.965760 0.000000
0.472330 0.944830 0.000000
0.608900 0.923900 0.000000
0.745470 0.902970 0.000000
0.882040 0.882040 0.000000
1.000000 0.861110 0.000000
1.000000 0.840180 0.000000
1.000000 0.837190 0.000000
1.000000 0.837190 0.000000
1.000000 0.837190 0.000000
0.000000 1.000000 0.000000
0.000000 1.000000 0.000000
0.000000 1.000000 0.000000
0.000000 1.000000 0.000000
0.000000 1.000000 0.000000
0.021530 1.000000 0.000000
0.158100 1.000000 0.000000
0.294670 1.000000 0.000000
0.431240 1.000000 0.000000
0.567810 1.000000 0.000000
0.704380 1.000000 0.000000
0.840950 0.998450 0.000000
0.977520 0.977520 0.000000
1.000000 0.956590 0.000000
1.000000 0.953600 0.000000
1.000000 0.953600 0.000000
1.000000 0.953600 0.000000
0.000000 1.000000 0.000000
0.000000 1.000000 0.000000
0.000000 1.000000 0.000000
0.000000 1.000000 0.000000
0.000000 1.000000 0.000000
0.000000 1.000000 0.000000
0.117010 1.000000 0.000000
0.253580 1.000000 0.000000
0.390150 1.000000 0.000000
0.526720 1.000000 0.000000
0.663290 1.000000 0.000000
0.799860 1.000000 0.000000
0.936430 1.000000 0.000000
1.000000 1.000000 0.000000
1.000000 1.000000 0.000000
1.000000 1.000000 0.000000
1.000000 1.000000 0.000000
0.000000 1.000000 0.000000
0.000000 1.000000 0.000000
0.000000 1.000000 0.000000
0.000000 1.000000 0.000000
0.000000 1.000000 0.000000
0.000000 1.000000 0.000000
0.111140 1.000000 0.000000
0.247710 1.000000 0.000000
0.384280 1.000000 0.000000
0.520850 1.000000 0.000000
0.657420 1.000000 0.000000
0.793990 1.000000 0.000000
0.930560 1.000000 0.000000
1.000000 1.000000 0.000000
1.000000 1.000000 0.000000
1.000000 1.000000 0.000000
1.000000 1.000000 0.000000
0.000000 1.000000 0.000000
0.000000 1.000000 0.000000
0.000000 1.000000 0.000000
0.000000 1.000000 0.000000
0.000000 1.000000 0.000000
0.000000 1.000000 0.000000
0.111140 1.000000 0.000000
0.247710 1.000000 0.000000
0.384280 1.000000 0.000000
0.520850 1.000000 0.000000
0.657420 1.000000 0.000000
0.793990 1.000000 0.000000
0.930560 1.000000 0.000000
1.000000 1.000000 0.000000
1.000000 1.000000 0.000000
1.000000 1.000000 0.000000
1.000000 1.000000 0.000000
0.000000 1.000000 0.000000
0.000000 1.000000 0.000000
0.000000 1.000000 0.000000
0.000000 1.000000 0.000000
0.000000 1.000000 0.000000
0.000000 1.000000 0.000000
0.111140 1.000000 0.000000
0.247710 1.000000 0.000000
0.384280 1.000000 0.000000
0.520850 1.000000 0.000000
0.657420 1.000000 0.000000
0.793990 1.000000 0.000000
0.930560 1.000000 0.000000
1.000000 1.000000 0.000000
1.000000 1.000000 0.000000
1.000000 1.000000 0.000000
1.000000 1.000000 0.000000
0.044300 0.044300 0.156800
0.044300 0.044300 0.156800
0.044300 0.044300 0.156800
0.141850 0.029350 0.141850
0.278420 0.008420 0.120920
0.414990 0.000000 0.099990
0.551560 0.000000 0.079060
0.688130 0.000000 0.058130
0.824700 0.000000 0.037200
0.961270 0.000000 0.016270
1.000000 0.000000 0.000000
1.000000 0.000000 0.000000
1.000000 0.000000 0.000000
1.000000 0.000000 0.000000
1.000000 0.000000 0.000000
1.000000 0.000000 0.000000
1.000000 0.000000 0.000000
0.044300 0.044300 0.156800
0.044300 0.044300 0.156800
0.044300 0.044300 0.156800
