server/luts/neon.cube
TITLE "Neon"
LUT_3D_SIZE 5
0.050000 0.050000 0.050000
0.284120 0.014120 0.014120
0.830400 0.000000 0.000000
1.000000 0.000000 0.000000
1.000000 0.000000 0.000000
0.000000 0.249560 0.000000
0.213680 0.213680 0.000000
0.759960 0.129960 0.000000
1.000000 0.046240 0.000000
1.000000 0.022320 0.000000
0.000000 0.715200 0.000000
0.049320 0.679320 0.000000
0.595600 0.595600 0.000000
1.000000 0.511880 0.000000
1.000000 0.487960 0.000000
0.000000 1.000000 0.000000
0.000000 1.000000 0.000000
0.431240 1.000000 0.000000
0.977520 0.977520 0.000000
1.000000 0.953600 0.000000
0.000000 1.000000 0.000000
0.000000 1.000000 0.000000
0.384280 1.000000 0.000000
0.930560 1.000000 0.000000
1.000000 1.000000 0.000000
0.036320 0.036320 0.306320
0.270440 0.000440 0.270440
0.816720 0.000000 0.186720
1.000000 0.000000 0.103000
1.000000 0.000000 0.079080
0.000000 0.235880 0.235880
0.200000 0.200000 0.200000
0.746280 0.116280 0.116280
1.000000 0.032560 0.032560
1.000000 0.008640 0.008640
0.000000 0.701520 0.071520
0.035640 0.665640 0.035640
0.581920 0.581920 0.000000
1.000000 0.498200 0.000000
1.000000 0.474280 0.000000
0.000000 1.000000 0.000000
0.000000 1.000000 0.000000
0.417560 1.000000 0.000000
0.963840 0.963840 0.000000
1.000000 0.939920 0.000000
0.000000 1.000000 0.000000
0.000000 1.000000 0.000000
0.370600 1.000000 0.000000
0.916880 1.000000 0.000000
1.000000 1.000000 0.000000
0.004400 0.004400 0.904400
0.238520 0.000000 0.868520
0.784800 0.000000 0.784800
1.000000 0.000000 0.701080
1.000000 0.000000 0.677160
0.000000 0.203960 0.833960
0.168080 0.168080 0.798080
0.714360 0.084360 0.714360
1.000000 0.000640 0.630640
1.000000 0.000000 0.606720
0.000000 0.669600 0.669600
0.003720 0.633720 0.633720
0.550000 0.550000 0.550000
1.000000 0.466280 0.466280
1.000000 0.442360 0.442360
0.000000 1.000000 0.505240
0.000000 1.000000 0.469360
0.385640 1.000000 0.385640
0.931920 0.931920 0.301920
1.000000 0.908000 0.278000
0.000000 1.000000 0.458280
0.000000 1.000000 0.422400
0.338680 1.000000 0.338680
0.884960 1.000000 0.254960
1.000000 1.000000 0.231040
0.000000 0.000000 1.000000
0.206600 0.000000 1.000000
0.752880 0.000000 1.000000
1.000000 0.000000 1.000000
1.000000 0.000000 1.000000
0.000000 0.172040 1.000000
0.136160 0.136160 1.000000
0.682440 0.052440 1.000000
1.000000 0.000000 1.000000
1.000000 0.000000 1.000000
0.000000 0.637680 1.000000
0.000000 0.601800 1.000000
0.518080 0.518080 1.000000
1.000000 0.434360 1.000000
1.000000 0.410440 1.000000
0.000000 1.000000 1.000000
0.000000 1.000000 1.000000
0.353720 0.983720 0.983720
0.900000 0.900000 0.900000
1.000000 0.876080 0.876080
0.000000 1.000000 1.000000
0.000000 1.000000 1.000000
0.306760 1.000000 0.936760
0.853040 1.000000 0.853040
1.000000 1.000000 0.829120
0.000000 0.000000 1.000000
0.197480 0.000000 1.000000
0.743760 0.000000 1.000000
1.000000 0.000000 1.000000
1.000000 0.000000 1.000000
0.000000 0.162920 1.000000
0.127040 0.127040 1.000000
0.673320 0.043320 1.000000
1.000000 0.000000 1.000000
1.000000 0.000000 1.000000
0.000000 0.628560 1.000000
0.000000 0.592680 1.000000
0.508960 0.508960 1.000000
1.000000 0.425240 1.000000
1.000000 0.401320 1.000000
0.000000 1.000000 1.000000
0.000000 1.000000 1.000000
0.344600 0.974600 1.000000
0.890880 0.890880 1.000000
1.000000 0.866960 1.000000
0.000000 1.000000 1.000000
0.000000 1.000000 1.000000
0.297640 1.000000 1.000000
0.843920 1.000000 1.000000
1.000000 1.000000 1.000000
