server/luts/neon.cube
TITLE "Neon"
LUT_3D_SIZE 9
0.050000 0.050000 0.050000
0.050000 0.050000 0.050000
0.284120 0.014120 0.014120
0.557260 0.000000 0.000000
0.830400 0.000000 0.000000
1.000000 0.000000 0.000000
1.000000 0.000000 0.000000
1.000000 0.000000 0.000000
1.000000 0.000000 0.000000
0.050000 0.050000 0.050000
0.050000 0.050000 0.050000
0.284120 0.014120 0.014120
0.557260 0.000000 0.000000
0.830400 0.000000 0.000000
1.000000 0.000000 0.000000
1.000000 0.000000 0.000000
1.000000 0.000000 0.000000
1.000000 0.000000 0.000000
0.000000 0.249560 0.000000
0.000000 0.249560 0.000000
0.213680 0.213680 0.000000
0.486820 0.171820 0.000000
0.759960 0.129960 0.000000
1.000000 0.088100 0.000000
1.000000 0.046240 0.000000
1.000000 0.022320 0.000000
1.000000 0.022320 0.000000
0.000000 0.482380 0.000000
0.000000 0.482380 0.000000
0.131500 0.446500 0.000000
0.404640 0.404640 0.000000
0.677780 0.362780 0.000000
0.950920 0.320920 0.000000
1.000000 0.279060 0.000000
1.000000 0.255140 0.000000
1.000000 0.255140 0.000000
0.000000 0.715200 0.000000
0.000000 0.715200 0.000000
0.049320 0.679320 0.000000
0.322460 0.637460 0.000000
0.595600 0.595600 0.000000
0.868740 0.553740 0.000000
1.000000 0.511880 0.000000
1.000000 0.487960 0.000000
1.000000 0.487960 0.000000
0.000000 0.948020 0.000000
0.000000 0.948020 0.000000
0.000000 0.912140 0.000000
0.240280 0.870280 0.000000
0.513420 0.828420 0.000000
0.786560 0.786560 0.000000
1.000000 0.744700 0.000000
1.000000 0.720780 0.000000
1.000000 0.720780 0.000000
0.000000 1.000000 0.000000
0.000000 1.000000 0.000000
0.000000 1.000000 0.000000
0.158100 1.000000 0.000000
0.431240 1.000000 0.000000
0.704380 1.000000 0.000000
0.977520 0.977520 0.000000
1.000000 0.953600 0.000000
1.000000 0.953600 0.000000
0.000000 1.000000 0.000000
0.000000 1.000000 0.000000
0.000000 1.000000 0.000000
0.111140 1.000000 0.000000
0.384280 1.000000 0.000000
0.657420 1.000000 0.000000
0.930560 1.000000 0.000000
1.000000 1.000000 0.000000
1.000000 1.000000 0.000000
0.000000 1.000000 0.000000
0.000000 1.000000 0.000000
0.000000 1.000000 0.000000
0.111140 1.000000 0.000000
0.384280 1.000000 0.000000
0.657420 1.000000 0.000000
0.930560 1.000000 0.000000
1.000000 1.000000 0.000000
1.000000 1.000000 0.000000
0.050000 0.050000 0.050000
0.050000 0.050000 0.050000
0.284120 0.014120 0.014120
0.557260 0.000000 0.000000
0.830400 0.000000 0.000000
1.000000 0.000000 0.000000
1.000000 0.000000 0.000000
1.000000 0.000000 0.000000
1.000000 0.000000 0.000000
0.050000 0.050000 0.050000
0.050000 0.050000 0.050000
0.284120 0.014120 0.014120
0.557260 0.000000 0.000000
0.830400 0.000000 0.000000
1.000000 0.000000 0.000000
1.000000 0.000000 0.000000
1.000000 0.000000 0.000000
1.000000 0.000000 0.000000
0.000000 0.249560 0.000000
0.000000 0.249560 0.000000
0.213680 0.213680 0.000000
0.486820 0.171820 0.000000
0.759960 0.129960 0.000000
1.000000 0.088100 0.000000
1.000000 0.046240 0.000000
1.000000 0.022320 0.000000
1.000000 0.022320 0.000000
0.000000 0.482380 0.000000
0.000000 0.482380 0.000000
0.131500 0.446500 0.000000
0.404640 0.404640 0.000000
0.677780 0.362780 0.000000
0.950920 0.320920 0.000000
1.000000 0.279060 0.000000
1.000000 0.255140 0.000000
1.000000 0.255140 0.000000
0.000000 0.715200 0.000000
0.000000 0.715200 0.000000
0.049320 0.679320 0.000000
0.322460 0.637460 0.000000
0.595600 0.595600 0.000000
0.868740 0.553740 0.000000
1.000000 0.511880 0.000000
1.000000 0.487960 0.000000
1.000000 0.487960 0.000000
0.000000 0.948020 0.000000
0.000000 0.948020 0.000000
0.000000 0.912140 0.000000
0.240280 0.870280 0.000000
0.513420 0.828420 0.000000
0.786560 0.786560 0.000000
1.000000 0.744700 0.000000
1.000000 0.720780 0.000000
1.000000 0.720780 0.000000
0.000000 1.000000 0.000000
0.000000 1.000000 0.000000
0.000000 1.000000 0.000000
0.158100 1.000000 0.000000
0.431240 1.000000 0.000000
0.704380 1.000000 0.000000
0.977520 0.977520 0.000000
1.000000 0.953600 0.000000
1.000000 0.953600 0.000000
0.000000 1.000000 0.000000
0.000000 1.000000 0.000000
0.000000 1.000000 0.000000
0.111140 1.000000 0.000000
0.384280 1.000000 0.000000
0.657420 1.000000 0.000000
0.930560 1.000000 0.000000
1.000000 1.000000 0.000000
1.000000 1.000000 0.000000
0.000000 1.000000 0.000000
0.000000 1.000000 0.000000
0.000000 1.000000 0.000000
0.111140 1.000000 0.000000
0.384280 1.000000 0.000000
0.657420 1.000000 0.000000
0.930560 1.000000 0.000000
1.000000 1.000000 0.000000
1.000000 1.000000 0.000000
0.036320 0.036320 0.306320
0.036320 0.036320 0.306320
0.270440 0.000440 0.270440
0.543580 0.000000 0.228580
0.816720 0.000000 0.186720
1.000000 0.000000 0.144860
1.000000 0.000000 0.103000
1.000000 0.000000 0.079080
1.000000 0.000000 0.079080
0.036320 0.036320 0.306320
0.036320 0.036320 0.306320
0.270440 0.000440 0.270440
0.543580 0.000000 0.228580
0.816720 0.000000 0.186720
1.000000 0.000000 0.144860
1.000000 0.000000 0.103000
1.000000 0.000000 0.079080
1.000000 0.000000 0.079080
0.000000 0.235880 0.235880
0.000000 0.235880 0.235880
0.200000 0.200000 0.200000
0.473140 0.158140 0.158140
0.746280 0.116280 0.116280
1.000000 0.074420 0.074420
1.000000 0.032560 0.032560
1.000000 0.008640 0.008640
1.000000 0.008640 0.008640
0.000000 0.468700 0.153700
0.000000 0.468700 0.153700
0.117820 0.432820 0.117820
0.390960 0.390960 0.075960
0.664100 0.349100 0.034100
0.937240 0.307240 0.000000
1.000000 0.265380 0.000000
1.000000 0.241460 0.000000
1.000000 0.241460 0.000000
0.000000 0.701520 0.071520
0.000000 0.701520 0.071520
0.035640 0.665640 0.035640
0.308780 0.623780 0.000000
0.581920 0.581920 0.000000
0.855060 0.540060 0.000000
1.000000 0.498200 0.000000
1.000000 0.474280 0.000000
1.000000 0.474280 0.000000
0.000000 0.934340 0.000000
0.000000 0.934340 0.000000
0.000000 0.898460 0.000000
0.226600 0.856600 0.000000
0.499740 0.814740 0.000000
0.772880 0.772880 0.000000
1.000000 0.731020 0.000000
1.000000 0.707100 0.000000
1.000000 0.707100 0.000000
0.000000 1.000000 0.000000
0.000000 1.000000 0.000000
0.000000 1.000000 0.000000
0.144420 1.000000 0.000000
0.417560 1.000000 0.000000
0.690700 1.000000 0.000000
0.963840 0.963840 0.000000
1.000000 0.939920 0.000000
1.000000 0.939920 0.000000
0.000000 1.000000 0.000000
0.000000 1.000000 0.000000
0.000000 1.000000 0.000000
0.097460 1.000000 0.000000
0.370600 1.000000 0.000000
0.643740 1.000000 0.000000
0.916880 1.000000 0.000000
1.000000 1.000000 0.000000
1.000000 1.000000 0.000000
0.000000 1.000000 0.000000
0.000000 1.000000 0.000000
0.000000 1.000000 0.000000
0.097460 1.000000 0.000000
0.370600 1.000000 0.000000
0.643740 1.000000 0.000000
0.916880 1.000000 0.000000
1.000000 1.000000 0.000000
1.000000 1.000000 0.000000
0.020360 0.020360 0.605360
0.020360 0.020360 0.605360
0.254480 0.000000 0.569480
0.527620 0.000000 0.527620
0.800760 0.000000 0.485760
1.000000 0.000000 0.443900
1.000000 0.000000 0.402040
1.000000 0.000000 0.378120
1.000000 0.000000 0.378120
0.020360 0.020360 0.605360
0.020360 0.020360 0.605360
0.254480 0.000000 0.569480
0.527620 0.000000 0.527620
0.800760 0.000000 0.485760
1.000000 0.000000 0.443900
1.000000 0.000000 0.402040
1.000000 0.000000 0.378120
1.000000 0.000000 0.378120
0.000000 0.219920 0.534920
0.000000 0.219920 0.534920
0.184040 0.184040 0.499040
0.457180 0.142180 0.457180
0.730320 0.100320 0.415320
1.000000 0.058460 0.373460
1.000000 0.016600 0.331600
1.000000 0.000000 0.307680
1.000000 0.000000 0.307680
0.000000 0.452740 0.452740
0.000000 0.452740 0.452740
0.101860 0.416860 0.416860
0.375000 0.375000 0.375000
0.648140 0.333140 0.333140
0.921280 0.291280 0.291280
1.000000 0.249420 0.249420
1.000000 0.225500 0.225500
1.000000 0.225500 0.225500
0.000000 0.685560 0.370560
0.000000 0.685560 0.370560
0.019680 0.649680 0.334680
0.292820 0.607820 0.292820
0.565960 0.565960 0.250960
0.839100 0.524100 0.209100
1.000000 0.482240 0.167240
1.000000 0.458320 0.143320
1.000000 0.458320 0.143320
0.000000 0.918380 0.288380
0.000000 0.918380 0.288380
0.000000 0.882500 0.252500
0.210640 0.840640 0.210640
0.483780 0.798780 0.168780
0.756920 0.756920 0.126920
1.000000 0.715060 0.085060
1.000000 0.691140 0.061140
1.000000 0.691140 0.061140
0.000000 1.000000 0.206200
0.000000 1.000000 0.206200
0.000000 1.000000 0.170320
0.128460 1.000000 0.128460
0.401600 1.000000 0.086600
0.674740 0.989740 0.044740
0.947880 0.947880 0.002880
1.000000 0.923960 0.000000
1.000000 0.923960 0.000000
0.000000 1.000000 0.159240
0.000000 1.000000 0.159240
0.000000 1.000000 0.123360
0.081500 1.000000 0.081500
0.354640 1.000000 0.039640
0.627780 1.000000 0.000000
0.900920 1.000000 0.000000
1.000000 1.000000 0.000000
1.000000 1.000000 0.000000
0.000000 1.000000 0.159240
0.000000 1.000000 0.159240
0.000000 1.000000 0.123360
0.081500 1.000000 0.081500
0.354640 1.000000 0.039640
0.627780 1.000000 0.000000
0.900920 1.000000 0.000000
1.000000 1.000000 0.000000
1.000000 1.000000 0.000000
0.004400 0.004400 0.904400
0.004400 0.004400 0.904400
0.238520 0.000000 0.868520
0.511660 0.000000 0.826660
0.784800 0.000000 0.784800
1.000000 0.000000 0.742940
1.000000 0.000000 0.701080
1.000000 0.000000 0.677160
1.000000 0.000000 0.677160
0.004400 0.004400 0.904400
0.004400 0.004400 0.904400
0.238520 0.000000 0.868520
0.511660 0.000000 0.826660
0.784800 0.000000 0.784800
1.000000 0.000000 0.742940
1.000000 0.000000 0.701080
1.000000 0.000000 0.677160
1.000000 0.000000 0.677160
0.000000 0.203960 0.833960
0.000000 0.203960 0.833960
0.168080 0.168080 0.798080
0.441220 0.126220 0.756220
0.714360 0.084360 0.714360
0.987500 0.042500 0.672500
1.000000 0.000640 0.630640
1.000000 0.000000 0.606720
1.000000 0.000000 0.606720
0.000000 0.436780 0.751780
0.000000 0.436780 0.751780
0.085900 0.400900 0.715900
0.359040 0.359040 0.674040
0.632180 0.317180 0.632180
0.905320 0.275320 0.590320
1.000000 0.233460 0.548460
1.000000 0.209540 0.524540
1.000000 0.209540 0.524540
0.000000 0.669600 0.669600
0.000000 0.669600 0.669600
0.003720 0.633720 0.633720
0.276860 0.591860 0.591860
0.550000 0.550000 0.550000
0.823140 0.508140 0.508140
1.000000 0.466280 0.466280
1.000000 0.442360 0.442360
1.000000 0.442360 0.442360
0.000000 0.902420 0.587420
0.000000 0.902420 0.587420
0.000000 0.866540 0.551540
0.194680 0.824680 0.509680
0.467820 0.782820 0.467820
0.740960 0.740960 0.425960
1.000000 0.699100 0.384100
1.000000 0.675180 0.360180
1.000000 0.675180 0.360180
0.000000 1.000000 0.505240
0.000000 1.000000 0.505240
0.000000 1.000000 0.469360
0.112500 1.000000 0.427500
0.385640 1.000000 0.385640
0.658780 0.973780 0.343780
0.931920 0.931920 0.301920
1.000000 0.908000 0.278000
1.000000 0.908000 0.278000
0.000000 1.000000 0.458280
0.000000 1.000000 0.458280
0.000000 1.000000 0.422400
0.065540 1.000000 0.380540
0.338680 1.000000 0.338680
0.611820 1.000000 0.296820
0.884960 1.000000 0.254960
1.000000 1.000000 0.231040
1.000000 1.000000 0.231040
0.000000 1.000000 0.458280
0.000000 1.000000 0.458280
0.000000 1.000000 0.422400
0.065540 1.000000 0.380540
0.338680 1.000000 0.338680
0.611820 1.000000 0.296820
0.884960 1.000000 0.254960
1.000000 1.000000 0.231040
1.000000 1.000000 0.231040
0.000000 0.000000 1.000000
0.000000 0.000000 1.000000
0.222560 0.000000 1.000000
0.495700 0.000000 1.000000
0.768840 0.000000 1.000000
1.000000 0.000000 1.000000
1.000000 0.000000 1.000000
1.000000 0.000000 0.976200
1.000000 0.000000 0.976200
0.000000 0.000000 1.000000
0.000000 0.000000 1.000000
0.222560 0.000000 1.000000
0.495700 0.000000 1.000000
0.768840 0.000000 1.000000
1.000000 0.000000 1.000000
1.000000 0.000000 1.000000
1.000000 0.000000 0.976200
1.000000 0.000000 0.976200
0.000000 0.188000 1.000000
0.000000 0.188000 1.000000
0.152120 0.152120 1.000000
0.425260 0.110260 1.000000
0.698400 0.068400 1.000000
0.971540 0.026540 0.971540
1.000000 0.000000 0.929680
1.000000 0.000000 0.905760
1.000000 0.000000 0.905760
0.000000 0.420820 1.000000
0.000000 0.420820 1.000000
0.069940 0.384940 1.000000
0.343080 0.343080 0.973080
0.616220 0.301220 0.931220
0.889360 0.259360 0.889360
1.000000 0.217500 0.847500
1.000000 0.193580 0.823580
1.000000 0.193580 0.823580
0.000000 0.653640 0.968640
0.000000 0.653640 0.968640
0.000000 0.617760 0.932760
0.260900 0.575900 0.890900
0.534040 0.534040 0.849040
0.807180 0.492180 0.807180
1.000000 0.450320 0.765320
1.000000 0.426400 0.741400
1.000000 0.426400 0.741400
0.000000 0.886460 0.886460
0.000000 0.886460 0.886460
0.000000 0.850580 0.850580
0.178720 0.808720 0.808720
0.451860 0.766860 0.766860
0.725000 0.725000 0.725000
0.998140 0.683140 0.683140
1.000000 0.659220 0.659220
1.000000 0.659220 0.659220
0.000000 1.000000 0.804280
0.000000 1.000000 0.804280
0.000000 1.000000 0.768400
0.096540 1.000000 0.726540
0.369680 0.999680 0.684680
0.642820 0.957820 0.642820
0.915960 0.915960 0.600960
1.000000 0.892040 0.577040
1.000000 0.892040 0.577040
0.000000 1.000000 0.757320
0.000000 1.000000 0.757320
0.000000 1.000000 0.721440
0.049580 1.000000 0.679580
0.322720 1.000000 0.637720
0.595860 1.000000 0.595860
0.869000 1.000000 0.554000
1.000000 1.000000 0.530080
1.000000 1.000000 0.530080
0.000000 1.000000 0.757320
0.000000 1.000000 0.757320
0.000000 1.000000 0.721440
0.049580 1.000000 0.679580
0.322720 1.000000 0.637720
0.595860 1.000000 0.595860
0.869000 1.000000 0.554000
1.000000 1.000000 0.530080
1.000000 1.000000 0.530080
0.000000 0.000000 1.000000
0.000000 0.000000 1.000000
0.206600 0.000000 1.000000
0.479740 0.000000 1.000000
0.752880 0.000000 1.000000
1.000000 0.000000 1.000000
1.000000 0.000000 1.000000
1.000000 0.000000 1.000000
1.000000 0.000000 1.000000
0.000000 0.000000 1.000000
0.000000 0.000000 1.000000
0.206600 0.000000 1.000000
0.479740 0.000000 1.000000
0.752880 0.000000 1.000000
1.000000 0.000000 1.000000
1.000000 0.000000 1.000000
1.000000 0.000000 1.000000
1.000000 0.000000 1.000000
0.000000 0.172040 1.000000
0.000000 0.172040 1.000000
0.136160 0.136160 1.000000
0.409300 0.094300 1.000000
0.682440 0.052440 1.000000
0.955580 0.010580 1.000000
1.000000 0.000000 1.000000
1.000000 0.000000 1.000000
1.000000 0.000000 1.000000
0.000000 0.404860 1.000000
0.000000 0.404860 1.000000
0.053980 0.368980 1.000000
0.327120 0.327120 1.000000
0.600260 0.285260 1.000000
0.873400 0.243400 1.000000
1.000000 0.201540 1.000000
1.000000 0.177620 1.000000
1.000000 0.177620 1.000000
0.000000 0.637680 1.000000
0.000000 0.637680 1.000000
0.000000 0.601800 1.000000
0.244940 0.559940 1.000000
0.518080 0.518080 1.000000
0.791220 0.476220 1.000000
1.000000 0.434360 1.000000
1.000000 0.410440 1.000000
1.000000 0.410440 1.000000
0.000000 0.870500 1.000000
0.000000 0.870500 1.000000
0.000000 0.834620 1.000000
0.162760 0.792760 1.000000
0.435900 0.750900 1.000000
0.709040 0.709040 1.000000
0.982180 0.667180 0.982180
1.000000 0.643260 0.958260
1.000000 0.643260 0.958260
0.000000 1.000000 1.000000
0.000000 1.000000 1.000000
0.000000 1.000000 1.000000
0.080580 1.000000 1.000000
0.353720 0.983720 0.983720
0.626860 0.941860 0.941860
0.900000 0.900000 0.900000
1.000000 0.876080 0.876080
1.000000 0.876080 0.876080
0.000000 1.000000 1.000000
0.000000 1.000000 1.000000
0.000000 1.000000 1.000000
0.033620 1.000000 0.978620
0.306760 1.000000 0.936760
0.579900 1.000000 0.894900
0.853040 1.000000 0.853040
1.000000 1.000000 0.829120
1.000000 1.000000 0.829120
0.000000 1.000000 1.000000
0.000000 1.000000 1.000000
0.000000 1.000000 1.000000
0.033620 1.000000 0.978620
0.306760 1.000000 0.936760
0.579900 1.000000 0.894900
0.853040 1.000000 0.853040
1.000000 1.000000 0.829120
1.000000 1.000000 0.829120
0.000000 0.000000 1.000000
0.000000 0.000000 1.000000
0.197480 0.000000 1.000000
0.470620 0.000000 1.000000
0.743760 0.000000 1.000000
1.000000 0.000000 1.000000
1.000000 0.000000 1.000000
1.000000 0.000000 1.000000
1.000000 0.000000 1.000000
0.000000 0.000000 1.000000
0.000000 0.000000 1.000000
0.197480 0.000000 1.000000
0.470620 0.000000 1.000000
0.743760 0.000000 1.000000
1.000000 0.000000 1.000000
1.000000 0.000000 1.000000
1.000000 0.000000 1.000000
1.000000 0.000000 1.000000
0.000000 0.162920 1.000000
0.000000 0.162920 1.000000
0.127040 0.127040 1.000000
0.400180 0.085180 1.000000
0.673320 0.043320 1.000000
0.946460 0.001460 1.000000
1.000000 0.000000 1.000000
1.000000 0.000000 1.000000
1.000000 0.000000 1.000000
0.000000 0.395740 1.000000
0.000000 0.395740 1.000000
0.044860 0.359860 1.000000
0.318000 0.318000 1.000000
0.591140 0.276140 1.000000
0.864280 0.234280 1.000000
1.000000 0.192420 1.000000
1.000000 0.168500 1.000000
1.000000 0.168500 1.000000
0.000000 0.628560 1.000000
0.000000 0.628560 1.000000
0.000000 0.592680 1.000000
0.235820 0.550820 1.000000
0.508960 0.508960 1.000000
0.782100 0.467100 1.000000
1.000000 0.425240 1.000000
1.000000 0.401320 1.000000
1.000000 0.401320 1.000000
0.000000 0.861380 1.000000
0.000000 0.861380 1.000000
0.000000 0.825500 1.000000
0.153640 0.783640 1.000000
0.426780 0.741780 1.000000
0.699920 0.699920 1.000000
0.973060 0.658060 1.000000
1.000000 0.634140 1.000000
1.000000 0.634140 1.000000
0.000000 1.000000 1.000000
0.000000 1.000000 1.000000
0.000000 1.000000 1.000000
0.071460 1.000000 1.000000
0.344600 0.974600 1.000000
0.617740 0.932740 1.000000
0.890880 0.890880 1.000000
1.000000 0.866960 1.000000
1.000000 0.866960 1.000000
0.000000 1.000000 1.000000
0.000000 1.000000 1.000000
0.000000 1.000000 1.000000
0.024500 1.000000 1.000000
0.297640 1.000000 1.000000
0.570780 1.000000 1.000000
0.843920 1.000000 1.000000
1.000000 1.000000 1.000000
1.000000 1.000000 1.000000
0.000000 1.000000 1.000000
0.000000 1.000000 1.000000
0.000000 1.000000 1.000000
0.024500 1.000000 1.000000
0.297640 1.000000 1.000000
0.570780 1.000000 1.000000
0.843920 1.000000 1.000000
1.000000 1.000000 1.000000
1.000000 1.000000 1.000000
0.000000 0.000000 1.000000
0.000000 0.000000 1.000000
0.197480 0.000000 1.000000
0.470620 0.000000 1.000000
0.743760 0.000000 1.000000
1.000000 0.000000 1.000000
1.000000 0.000000 1.000000
1.000000 0.000000 1.000000
1.000000 0.000000 1.000000
0.000000 0.000000 1.000000
0.000000 0.000000 1.000000
0.197480 0.000000 1.000000
0.470620 0.000000 1.000000
0.743760 0.000000 1.000000
1.000000 0.000000 1.000000
1.000000 0.000000 1.000000
1.000000 0.000000 1.000000
1.000000 0.000000 1.000000
0.000000 0.162920 1.000000
0.000000 0.162920 1.000000
0.127040 0.127040 1.000000
0.400180 0.085180 1.000000
0.673320 0.043320 1.000000
0.946460 0.001460 1.000000
1.000000 0.000000 1.000000
1.000000 0.000000 1.000000
1.000000 0.000000 1.000000
0.000000 0.395740 1.000000
0.000000 0.395740 1.000000
0.044860 0.359860 1.000000
0.318000 0.318000 1.000000
0.591140 0.276140 1.000000
0.864280 0.234280 1.000000
1.000000 0.192420 1.000000
1.000000 0.168500 1.000000
1.000000 0.168500 1.000000
0.000000 0.628560 1.000000
0.000000 0.628560 1.000000
0.000000 0.592680 1.000000
0.235820 0.550820 1.000000
0.508960 0.508960 1.000000
0.782100 0.467100 1.000000
1.000000 0.425240 1.000000
1.000000 0.401320 1.000000
1.000000 0.401320 1.000000
0.000000 0.861380 1.000000
0.000000 0.861380 1.000000
0.000000 0.825500 1.000000
0.153640 0.783640 1.000000
0.426780 0.741780 1.000000
0.699920 0.699920 1.000000
0.973060 0.658060 1.000000
1.000000 0.634140 1.000000
1.000000 0.634140 1.000000
0.000000 1.000000 1.000000
0.000000 1.000000 1.000000
0.000000 1.000000 1.000000
0.071460 1.000000 1.000000
0.344600 0.974600 1.000000
0.617740 0.932740 1.000000
0.890880 0.890880 1.000000
1.000000 0.866960 1.000000
1.000000 0.866960 1.000000
0.000000 1.000000 1.000000
0.000000 1.000000 1.000000
0.000000 1.000000 1.000000
0.024500 1.000000 1.000000
0.297640 1.000000 1.000000
0.570780 1.000000 1.000000
0.843920 1.000000 1.000000
1.000000 1.000000 1.000000
1.000000 1.000000 1.000000
0.000000 1.000000 1.000000
0.000000 1.000000 1.000000
0.000000 1.000000 1.000000
0.024500 1.000000 1.000000
0.297640 1.000000 1.000000
0.570780 1.000000 1.000000
0.843920 1.000000 1.000000
1.000000 1.000000 1.000000
1.000000 1.000000 1.000000
