server/luts/noir.cube
TITLE "Noir"
LUT_3D_SIZE 17
0.000000 0.000000 0.000000
0.000000 0.000000 0.000000
0.000000 0.000000 0.000000
0.009344 0.009344 0.009344
0.037375 0.037375 0.037375
0.065406 0.065406 0.065406
0.093437 0.093437 0.093437
0.121469 0.121469 0.121469
0.149500 0.149500 0.149500
0.177531 0.177531 0.177531
0.205562 0.205562 0.205562
0.233594 0.233594 0.233594
0.261625 0.261625 0.261625
0.289656 0.289656 0.289656
0.299000 0.299000 0.299000
0.299000 0.299000 0.299000
0.299000 0.299000 0.299000
0.000000 0.000000 0.000000
0.000000 0.000000 0.000000
0.000000 0.000000 0.000000
0.009344 0.009344 0.009344
0.037375 0.037375 0.037375
0.065406 0.065406 0.065406
0.093437 0.093437 0.093437
0.121469 0.121469 0.121469
0.149500 0.149500 0.149500
0.177531 0.177531 0.177531
0.205562 0.205562 0.205562
0.233594 0.233594 0.233594
0.261625 0.261625 0.261625
0.289656 0.289656 0.289656
0.299000 0.299000 0.299000
0.299000 0.299000 0.299000
0.299000 0.299000 0.299000
0.000000 0.000000 0.000000
0.000000 0.000000 0.000000
0.000000 0.000000 0.000000
0.009344 0.009344 0.009344
0.037375 0.037375 0.037375
0.065406 0.065406 0.065406
0.093437 0.093437 0.093437
0.121469 0.121469 0.121469
0.149500 0.149500 0.149500
0.177531 0.177531 0.177531
0.205562 0.205562 0.205562
0.233594 0.233594 0.233594
0.261625 0.261625 0.261625
0.289656 0.289656 0.289656
0.299000 0.299000 0.299000
0.299000 0.299000 0.299000
0.299000 0.299000 0.299000
0.018344 0.018344 0.018344
0.018344 0.018344 0.018344
0.018344 0.018344 0.018344
0.027687 0.027687 0.027687
0.055719 0.055719 0.055719
0.083750 0.083750 0.083750
0.111781 0.111781 0.111781
0.139813 0.139813 0.139813
0.167844 0.167844 0.167844
0.195875 0.195875 0.195875
0.223906 0.223906 0.223906
0.251937 0.251937 0.251937
0.279969 0.279969 0.279969
0.308000 0.308000 0.308000
0.317344 0.317344 0.317344
0.317344 0.317344 0.317344
0.317344 0.317344 0.317344
0.073375 0.073375 0.073375
0.073375 0.073375 0.073375
0.073375 0.073375 0.073375
0.082719 0.082719 0.082719
0.110750 0.110750 0.110750
0.138781 0.138781 0.138781
0.166812 0.166812 0.166812
0.194844 0.194844 0.194844
0.222875 0.222875 0.222875
0.250906 0.250906 0.250906
0.278937 0.278937 0.278937
0.306969 0.306969 0.306969
0.335000 0.335000 0.335000
0.363031 0.363031 0.363031
0.372375 0.372375 0.372375
0.372375 0.372375 0.372375
0.372375 0.372375 0.372375
0.128406 0.128406 0.128406
0.128406 0.128406 0.128406
0.128406 0.128406 0.128406
0.137750 0.137750 0.137750
0.165781 0.165781 0.165781
0.193812 0.193812 0.193812
0.221844 0.221844 0.221844
0.249875 0.249875 0.249875
0.277906 0.277906 0.277906
0.305937 0.305937 0.305937
0.333969 0.333969 0.333969
0.362000 0.362000 0.362000
0.390031 0.390031 0.390031
0.418063 0.418063 0.418063
0.427406 0.427406 0.427406
0.427406 0.427406 0.427406
0.427406 0.427406 0.427406
0.183437 0.183437 0.183437
0.183437 0.183437 0.183437
0.183437 0.183437 0.183437
0.192781 0.192781 0.192781
0.220812 0.220812 0.220812
0.248844 0.248844 0.248844
0.276875 0.276875 0.276875
0.304906 0.304906 0.304906
0.332937 0.332937 0.332937
0.360969 0.360969 0.360969
0.389000 0.389000 0.389000
0.417031 0.417031 0.417031
0.445062 0.445062 0.445062
0.473094 0.473094 0.473094
0.482437 0.482437 0.482437
0.482437 0.482437 0.482437
0.482437 0.482437 0.482437
0.238469 0.238469 0.238469
0.238469 0.238469 0.238469
0.238469 0.238469 0.238469
0.247812 0.247812 0.247812
0.275844 0.275844 0.275844
0.303875 0.303875 0.303875
0.331906 0.331906 0.331906
0.359937 0.359937 0.359937
0.387969 0.387969 0.387969
0.416000 0.416000 0.416000
0.444031 0.444031 0.444031
0.472062 0.472062 0.472062
0.500094 0.500094 0.500094
0.528125 0.528125 0.528125
0.537469 0.537469 0.537469
0.537469 0.537469 0.537469
0.537469 0.537469 0.537469
0.293500 0.293500 0.293500
0.293500 0.293500 0.293500
0.293500 0.293500 0.293500
0.302844 0.302844 0.302844
0.330875 0.330875 0.330875
0.358906 0.358906 0.358906
0.386937 0.386937 0.386937
0.414969 0.414969 0.414969
0.443000 0.443000 0.443000
0.471031 0.471031 0.471031
0.499062 0.499062 0.499062
0.527094 0.527094 0.527094
0.555125 0.555125 0.555125
0.583156 0.583156 0.583156
0.592500 0.592500 0.592500
0.592500 0.592500 0.592500
0.592500 0.592500 0.592500
0.348531 0.348531 0.348531
0.348531 0.348531 0.348531
0.348531 0.348531 0.348531
0.357875 0.357875 0.357875
0.385906 0.385906 0.385906
0.413937 0.413937 0.413937
0.441969 0.441969 0.441969
0.470000 0.470000 0.470000
0.498031 0.498031 0.498031
0.526062 0.526062 0.526062
0.554094 0.554094 0.554094
0.582125 0.582125 0.582125
0.610156 0.610156 0.610156
0.638187 0.638187 0.638187
0.647531 0.647531 0.647531
0.647531 0.647531 0.647531
0.647531 0.647531 0.647531
0.403562 0.403562 0.403562
0.403562 0.403562 0.403562
0.403562 0.403562 0.403562
0.412906 0.412906 0.412906
0.440937 0.440937 0.440937
0.468969 0.468969 0.468969
0.497000 0.497000 0.497000
0.525031 0.525031 0.525031
0.553063 0.553063 0.553063
0.581094 0.581094 0.581094
0.609125 0.609125 0.609125
0.637156 0.637156 0.637156
0.665188 0.665188 0.665188
0.693219 0.693219 0.693219
0.702562 0.702562 0.702562
0.702562 0.702562 0.702562
0.702562 0.702562 0.702562
0.458594 0.458594 0.458594
0.458594 0.458594 0.458594
0.458594 0.458594 0.458594
0.467937 0.467937 0.467937
0.495969 0.495969 0.495969
0.524000 0.524000 0.524000
0.552031 0.552031 0.552031
0.580062 0.580062 0.580062
0.608094 0.608094 0.608094
0.636125 0.636125 0.636125
0.664156 0.664156 0.664156
0.692187 0.692187 0.692187
0.720219 0.720219 0.720219
0.748250 0.748250 0.748250
0.757594 0.757594 0.757594
0.757594 0.757594 0.757594
0.757594 0.757594 0.757594
0.513625 0.513625 0.513625
0.513625 0.513625 0.513625
0.513625 0.513625 0.513625
0.522969 0.522969 0.522969
0.551000 0.551000 0.551000
0.579031 0.579031 0.579031
0.607062 0.607062 0.607062
0.635094 0.635094 0.635094
0.663125 0.663125 0.663125
0.691156 0.691156 0.691156
0.719187 0.719187 0.719187
0.747219 0.747219 0.747219
0.775250 0.775250 0.775250
0.803281 0.803281 0.803281
0.812625 0.812625 0.812625
0.812625 0.812625 0.812625
0.812625 0.812625 0.812625
0.568656 0.568656 0.568656
0.568656 0.568656 0.568656
0.568656 0.568656 0.568656
0.578000 0.578000 0.578000
0.606031 0.606031 0.606031
0.634062 0.634062 0.634062
0.662094 0.662094 0.662094
0.690125 0.690125 0.690125
0.718156 0.718156 0.718156
0.746188 0.746188 0.746188
0.774219 0.774219 0.774219
0.802250 0.802250 0.802250
0.830281 0.830281 0.830281
0.858313 0.858313 0.858313
0.867656 0.867656 0.867656
0.867656 0.867656 0.867656
0.867656 0.867656 0.867656
0.587000 0.587000 0.587000
0.587000 0.587000 0.587000
0.587000 0.587000 0.587000
0.596344 0.596344 0.596344
0.624375 0.624375 0.624375
0.652406 0.652406 0.652406
0.680437 0.680437 0.680437
0.708469 0.708469 0.708469
0.736500 0.736500 0.736500
0.764531 0.764531 0.764531
0.792562 0.792562 0.792562
0.820594 0.820594 0.820594
0.848625 0.848625 0.848625
0.876656 0.876656 0.876656
0.886000 0.886000 0.886000
0.886000 0.886000 0.886000
0.886000 0.886000 0.886000
0.587000 0.587000 0.587000
0.587000 0.587000 0.587000
0.587000 0.587000 0.587000
0.596344 0.596344 0.596344
0.624375 0.624375 0.624375
0.652406 0.652406 0.652406
0.680437 0.680437 0.680437
0.708469 0.708469 0.708469
0.736500 0.736500 0.736500
0.764531 0.764531 0.764531
0.792562 0.792562 0.792562
0.820594 0.820594 0.820594
0.848625 0.848625 0.848625
0.876656 0.876656 0.876656
0.886000 0.886000 0.886000
0.886000 0.886000 0.886000
0.886000 0.886000 0.886000
0.587000 0.587000 0.587000
0.587000 0.587000 0.587000
0.587000 0.587000 0.587000
0.596344 0.596344 0.596344
0.624375 0.624375 0.624375
0.652406 0.652406 0.652406
0.680437 0.680437 0.680437
0.708469 0.708469 0.708469
0.736500 0.736500 0.736500
0.764531 0.764531 0.764531
0.792562 0.792562 0.792562
0.820594 0.820594 0.820594
0.848625 0.848625 0.848625
0.876656 0.876656 0.876656
0.886000 0.886000 0.886000
0.886000 0.886000 0.886000
0.886000 0.886000 0.886000
0.000000 0.000000 0.000000
0.000000 0.000000 0.000000
0.000000 0.000000 0.000000
0.009344 0.009344 0.009344
0.037375 0.037375 0.037375
0.065406 0.065406 0.065406
0.093437 0.093437 0.093437
0.121469 0.121469 0.121469
0.149500 0.149500 0.149500
0.177531 0.177531 0.177531
0.205562 0.205562 0.205562
0.233594 0.233594 0.233594
0.261625 0.261625 0.261625
0.289656 0.289656 0.289656
0.299000 0.299000 0.299000
0.299000 0.299000 0.299000
0.299000 0.299000 0.299000
0.000000 0.000000 0.000000
0.000000 0.000000 0.000000
0.000000 0.000000 0.000000
0.009344 0.009344 0.009344
0.037375 0.037375 0.037375
0.065406 0.065406 0.065406
0.093437 0.093437 0.093437
0.121469 0.121469 0.121469
0.149500 0.149500 0.149500
0.177531 0.177531 0.177531
0.205562 0.205562 0.205562
0.233594 0.233594 0.233594
0.261625 0.261625 0.261625
0.289656 0.289656 0.289656
0.299000 0.299000 0.299000
0.299000 0.299000 0.299000
0.299000 0.299000 0.299000
0.000000 0.000000 0.000000
0.000000 0.000000 0.000000
0.000000 0.000000 0.000000
0.009344 0.009344 0.009344
0.037375 0.037375 0.037375
0.065406 0.065406 0.065406
0.093437 0.093437 0.093437
0.121469 0.121469 0.121469
0.149500 0.149500 0.149500
0.177531 0.177531 0.177531
0.205562 0.205562 0.205562
0.233594 0.233594 0.233594
0.261625 0.261625 0.261625
0.289656 0.289656 0.289656
0.299000 0.299000 0.299000
0.299000 0.299000 0.299000
0.299000 0.299000 0.299000
0.018344 0.018344 0.018344
0.018344 0.018344 0.018344
0.018344 0.018344 0.018344
0.027687 0.027687 0.027687
0.055719 0.055719 0.055719
0.083750 0.083750 0.083750
0.111781 0.111781 0.111781
0.139813 0.139813 0.139813
0.167844 0.167844 0.167844
0.195875 0.195875 0.195875
0.223906 0.223906 0.223906
0.251937 0.251937 0.251937
0.279969 0.279969 0.279969
0.308000 0.308000 0.308000
0.317344 0.317344 0.317344
0.317344 0.317344 0.317344
0.317344 0.317344 0.317344
0.073375 0.073375 0.073375
0.073375 0.073375 0.073375
0.073375 0.073375 0.073375
0.082719 0.082719 0.082719
0.110750 0.110750 0.110750
0.138781 0.138781 0.138781
0.166812 0.166812 0.166812
0.194844 0.194844 0.194844
0.222875 0.222875 0.222875
0.250906 0.250906 0.250906
0.278937 0.278937 0.278937
0.306969 0.306969 0.306969
0.335000 0.335000 0.335000
0.363031 0.363031 0.363031
0.372375 0.372375 0.372375
0.372375 0.372375 0.372375
0.372375 0.372375 0.372375
0.128406 0.128406 0.128406
0.128406 0.128406 0.128406
0.128406 0.128406 0.128406
0.137750 0.137750 0.137750
0.165781 0.165781 0.165781
0.193812 0.193812 0.193812
0.221844 0.221844 0.221844
0.249875 0.249875 0.249875
0.277906 0.277906 0.277906
0.305937 0.305937 0.305937
0.333969 0.333969 0.333969
0.362000 0.362000 0.362000
0.390031 0.390031 0.390031
0.418063 0.418063 0.418063
0.427406 0.427406 0.427406
0.427406 0.427406 0.427406
0.427406 0.427406 0.427406
0.183437 0.183437 0.183437
0.183437 0.183437 0.183437
0.183437 0.183437 0.183437
0.192781 0.192781 0.192781
0.220812 0.220812 0.220812
0.248844 0.248844 0.248844
0.276875 0.276875 0.276875
0.304906 0.304906 0.304906
0.332937 0.332937 0.332937
0.360969 0.360969 0.360969
0.389000 0.389000 0.389000
0.417031 0.417031 0.417031
0.445062 0.445062 0.445062
0.473094 0.473094 0.473094
0.482437 0.482437 0.482437
0.482437 0.482437 0.482437
0.482437 0.482437 0.482437
0.238469 0.238469 0.238469
0.238469 0.238469 0.238469
0.238469 0.238469 0.238469
0.247812 0.247812 0.247812
0.275844 0.275844 0.275844
0.303875 0.303875 0.303875
0.331906 0.331906 0.331906
0.359937 0.359937 0.359937
0.387969 0.387969 0.387969
0.416000 0.416000 0.416000
0.444031 0.444031 0.444031
0.472062 0.472062 0.472062
0.500094 0.500094 0.500094
0.528125 0.528125 0.528125
0.537469 0.537469 0.537469
0.537469 0.537469 0.537469
0.537469 0.537469 0.537469
0.293500 0.293500 0.293500
0.293500 0.293500 0.293500
0.293500 0.293500 0.293500
0.302844 0.302844 0.302844
0.330875 0.330875 0.330875
0.358906 0.358906 0.358906
0.386937 0.386937 0.386937
0.414969 0.414969 0.414969
0.443000 0.443000 0.443000
0.471031 0.471031 0.471031
0.499062 0.499062 0.499062
0.527094 0.527094 0.527094
0.555125 0.555125 0.555125
0.583156 0.583156 0.583156
0.592500 0.592500 0.592500
0.592500 0.592500 0.592500
0.592500 0.592500 0.592500
0.348531 0.348531 0.348531
0.348531 0.348531 0.348531
0.348531 0.348531 0.348531
0.357875 0.357875 0.357875
0.385906 0.385906 0.385906
0.413937 0.413937 0.413937
0.441969 0.441969 0.441969
0.470000 0.470000 0.470000
0.498031 0.498031 0.498031
0.526062 0.526062 0.526062
0.554094 0.554094 0.554094
0.582125 0.582125 0.582125
0.610156 0.610156 0.610156
0.638187 0.638187 0.638187
0.647531 0.647531 0.647531
0.647531 0.647531 0.647531
0.647531 0.647531 0.647531
0.403562 0.403562 0.403562
0.403562 0.403562 0.403562
0.403562 0.403562 0.403562
0.412906 0.412906 0.412906
0.440937 0.440937 0.440937
0.468969 0.468969 0.468969
0.497000 0.497000 0.497000
0.525031 0.525031 0.525031
0.553063 0.553063 0.553063
0.581094 0.581094 0.581094
0.609125 0.609125 0.609125
0.637156 0.637156 0.637156
0.665188 0.665188 0.665188
0.693219 0.693219 0.693219
0.702562 0.702562 0.702562
0.702562 0.702562 0.702562
0.702562 0.702562 0.702562
0.458594 0.458594 0.458594
0.458594 0.458594 0.458594
0.458594 0.458594 0.458594
0.467937 0.467937 0.467937
0.495969 0.495969 0.495969
0.524000 0.524000 0.524000
0.552031 0.552031 0.552031
0.580062 0.580062 0.580062
0.608094 0.608094 0.608094
0.636125 0.636125 0.636125
0.664156 0.664156 0.664156
0.692187 0.692187 0.692187
0.720219 0.720219 0.720219
0.748250 0.748250 0.748250
0.757594 0.757594 0.757594
0.757594 0.757594 0.757594
0.757594 0.757594 0.757594
0.513625 0.513625 0.513625
0.513625 0.513625 0.513625
0.513625 0.513625 0.513625
0.522969 0.522969 0.522969
0.551000 0.551000 0.551000
0.579031 0.579031 0.579031
0.607062 0.607062 0.607062
0.635094 0.635094 0.635094
0.663125 0.663125 0.663125
0.691156 0.691156 0.691156
0.719187 0.719187 0.719187
0.747219 0.747219 0.747219
0.775250 0.775250 0.775250
0.803281 0.803281 0.803281
0.812625 0.812625 0.812625
0.812625 0.812625 0.812625
0.812625 0.812625 0.812625
0.568656 0.568656 0.568656
0.568656 0.568656 0.568656
0.568656 0.568656 0.568656
0.578000 0.578000 0.578000
0.606031 0.606031 0.606031
0.634062 0.634062 0.634062
0.662094 0.662094 0.662094
0.690125 0.690125 0.690125
0.718156 0.718156 0.718156
0.746188 0.746188 0.746188
0.774219 0.774219 0.774219
0.802250 0.802250 0.802250
0.830281 0.830281 0.830281
0.858313 0.858313 0.858313
0.867656 0.867656 0.867656
0.867656 0.867656 0.867656
0.867656 0.867656 0.867656
0.587000 0.587000 0.587000
0.587000 0.587000 0.587000
0.587000 0.587000 0.587000
0.596344 0.596344 0.596344
0.624375 0.624375 0.624375
0.652406 0.652406 0.652406
0.680437 0.680437 0.680437
0.708469 0.708469 0.708469
0.736500 0.736500 0.736500
0.764531 0.764531 0.764531
0.792562 0.792562 0.792562
0.820594 0.820594 0.820594
0.848625 0.848625 0.848625
0.876656 0.876656 0.876656
0.886000 0.886000 0.886000
0.886000 0.886000 0.886000
0.886000 0.886000 0.886000
0.587000 0.587000 0.587000
0.587000 0.587000 0.587000
0.587000 0.587000 0.587000
0.596344 0.596344 0.596344
0.624375 0.624375 0.624375
0.652406 0.652406 0.652406
0.680437 0.680437 0.680437
0.708469 0.708469 0.708469
0.736500 0.736500 0.736500
0.764531 0.764531 0.764531
0.792562 0.792562 0.792562
0.820594 0.820594 0.820594
0.848625 0.848625 0.848625
0.876656 0.876656 0.876656
0.886000 0.886000 0.886000
0.886000 0.886000 0.886000
0.886000 0.886000 0.886000
0.587000 0.587000 0.587000
0.587000 0.587000 0.587000
0.587000 0.587000 0.587000
0.596344 0.596344 0.596344
0.624375 0.624375 0.624375
0.652406 0.652406 0.652406
0.680437 0.680437 0.680437
0.708469 0.708469 0.708469
0.736500 0.736500 0.736500
0.764531 0.764531 0.764531
0.792562 0.792562 0.792562
0.820594 0.820594 0.820594
0.848625 0.848625 0.848625
0.876656 0.876656 0.876656
0.886000 0.886000 0.886000
0.886000 0.886000 0.886000
0.886000 0.886000 0.886000
0.000000 0.000000 0.000000
0.000000 0.000000 0.000000
0.000000 0.000000 0.000000
0.009344 0.009344 0.009344
0.037375 0.037375 0.037375
0.065406 0.065406 0.065406
0.093437 0.093437 0.093437
0.121469 0.121469 0.121469
0.149500 0.149500 0.149500
0.177531 0.177531 0.177531
0.205562 0.205562 0.205562
0.233594 0.233594 0.233594
0.261625 0.261625 0.261625
0.289656 0.289656 0.289656
0.299000 0.299000 0.299000
0.299000 0.299000 0.299000
0.299000 0.299000 0.299000
0.000000 0.000000 0.000000
0.000000 0.000000 0.000000
0.000000 0.000000 0.000000
0.009344 0.009344 0.009344
0.037375 0.037375 0.037375
0.065406 0.065406 0.065406
0.093437 0.093437 0.093437
0.121469 0.121469 0.121469
0.149500 0.149500 0.149500
0.177531 0.177531 0.177531
0.205562 0.205562 0.205562
0.233594 0.233594 0.233594
0.261625 0.261625 0.261625
0.289656 0.289656 0.289656
0.299000 0.299000 0.299000
0.299000 0.299000 0.299000
0.299000 0.299000 0.299000
0.000000 0.000000 0.000000
0.000000 0.000000 0.000000
0.000000 0.000000 0.000000
0.009344 0.009344 0.009344
0.037375 0.037375 0.037375
0.065406 0.065406 0.065406
0.093437 0.093437 0.093437
0.121469 0.121469 0.121469
0.149500 0.149500 0.149500
0.177531 0.177531 0.177531
0.205562 0.205562 0.205562
0.233594 0.233594 0.233594
0.261625 0.261625 0.261625
0.289656 0.289656 0.289656
0.299000 0.299000 0.299000
0.299000 0.299000 0.299000
0.299000 0.299000 0.299000
0.018344 0.018344 0.018344
0.018344 0.018344 0.018344
0.018344 0.018344 0.018344
0.027687 0.027687 0.027687
0.055719 0.055719 0.055719
0.083750 0.083750 0.083750
0.111781 0.111781 0.111781
0.139813 0.139813 0.139813
0.167844 0.167844 0.167844
0.195875 0.195875 0.195875
0.223906 0.223906 0.223906
0.251937 0.251937 0.251937
0.279969 0.279969 0.279969
0.308000 0.308000 0.308000
0.317344 0.317344 0.317344
0.317344 0.317344 0.317344
0.317344 0.317344 0.317344
0.073375 0.073375 0.073375
0.073375 0.073375 0.073375
0.073375 0.073375 0.073375
0.082719 0.082719 0.082719
0.110750 0.110750 0.110750
0.138781 0.138781 0.138781
0.166812 0.166812 0.166812
0.194844 0.194844 0.194844
0.222875 0.222875 0.222875
0.250906 0.250906 0.250906
0.278937 0.278937 0.278937
0.306969 0.306969 0.306969
0.335000 0.335000 0.335000
0.363031 0.363031 0.363031
0.372375 0.372375 0.372375
0.372375 0.372375 0.372375
0.372375 0.372375 0.372375
0.128406 0.128406 0.128406
0.128406 0.128406 0.128406
0.128406 0.128406 0.128406
0.137750 0.137750 0.137750
0.165781 0.165781 0.165781
0.193812 0.193812 0.193812
0.221844 0.221844 0.221844
0.249875 0.249875 0.249875
0.277906 0.277906 0.277906
0.305937 0.305937 0.305937
0.333969 0.333969 0.333969
0.362000 0.362000 0.362000
0.390031 0.390031 0.390031
0.418063 0.418063 0.418063
0.427406 0.427406 0.427406
0.427406 0.427406 0.427406
0.427406 0.427406 0.427406
0.183437 0.183437 0.183437
0.183437 0.183437 0.183437
0.183437 0.183437 0.183437
0.192781 0.192781 0.192781
0.220812 0.220812 0.220812
0.248844 0.248844 0.248844
0.276875 0.276875 0.276875
0.304906 0.304906 0.304906
0.332937 0.332937 0.332937
0.360969 0.360969 0.360969
0.389000 0.389000 0.389000
0.417031 0.417031 0.417031
0.445062 0.445062 0.445062
0.473094 0.473094 0.473094
0.482437 0.482437 0.482437
0.482437 0.482437 0.482437
0.482437 0.482437 0.482437
0.238469 0.238469 0.238469
0.238469 0.238469 0.238469
0.238469 0.238469 0.238469
0.247812 0.247812 0.247812
0.275844 0.275844 0.275844
0.303875 0.303875 0.303875
0.331906 0.331906 0.331906
0.359937 0.359937 0.359937
0.387969 0.387969 0.387969
0.416000 0.416000 0.416000
0.444031 0.444031 0.444031
0.472062 0.472062 0.472062
0.500094 0.500094 0.500094
0.528125 0.528125 0.528125
0.537469 0.537469 0.537469
0.537469 0.537469 0.537469
0.537469 0.537469 0.537469
0.293500 0.293500 0.293500
0.293500 0.293500 0.293500
0.293500 0.293500 0.293500
0.302844 0.302844 0.302844
0.330875 0.330875 0.330875
0.358906 0.358906 0.358906
0.386937 0.386937 0.386937
0.414969 0.414969 0.414969
0.443000 0.443000 0.443000
0.471031 0.471031 0.471031
0.499062 0.499062 0.499062
0.527094 0.527094 0.527094
0.555125 0.555125 0.555125
0.583156 0.583156 0.583156
0.592500 0.592500 0.592500
0.592500 0.592500 0.592500
0.592500 0.592500 0.592500
0.348531 0.348531 0.348531
0.348531 0.348531 0.348531
0.348531 0.348531 0.348531
0.357875 0.357875 0.357875
0.385906 0.385906 0.385906
0.413937 0.413937 0.413937
0.441969 0.441969 0.441969
0.470000 0.470000 0.470000
0.498031 0.498031 0.498031
0.526062 0.526062 0.526062
0.554094 0.554094 0.554094
0.582125 0.582125 0.582125
0.610156 0.610156 0.610156
0.638187 0.638187 0.638187
0.647531 0.647531 0.647531
0.647531 0.647531 0.647531
0.647531 0.647531 0.647531
0.403562 0.403562 0.403562
0.403562 0.403562 0.403562
0.403562 0.403562 0.403562
0.412906 0.412906 0.412906
0.440937 0.440937 0.440937
0.468969 0.468969 0.468969
0.497000 0.497000 0.497000
0.525031 0.525031 0.525031
0.553063 0.553063 0.553063
0.581094 0.581094 0.581094
0.609125 0.609125 0.609125
0.637156 0.637156 0.637156
0.665188 0.665188 0.665188
0.693219 0.693219 0.693219
0.702562 0.702562 0.702562
0.702562 0.702562 0.702562
0.702562 0.702562 0.702562
0.458594 0.458594 0.458594
0.458594 0.458594 0.458594
0.458594 0.458594 0.458594
0.467937 0.467937 0.467937
0.495969 0.495969 0.495969
0.524000 0.524000 0.524000
0.552031 0.552031 0.552031
0.580062 0.580062 0.580062
0.608094 0.608094 0.608094
0.636125 0.636125 0.636125
0.664156 0.664156 0.664156
0.692187 0.692187 0.692187
0.720219 0.720219 0.720219
0.748250 0.748250 0.748250
0.757594 0.757594 0.757594
0.757594 0.757594 0.757594
0.757594 0.757594 0.757594
0.513625 0.513625 0.513625
0.513625 0.513625 0.513625
0.513625 0.513625 0.513625
0.522969 0.522969 0.522969
0.551000 0.551000 0.551000
0.579031 0.579031 0.579031
0.607062 0.607062 0.607062
0.635094 0.635094 0.635094
0.663125 0.663125 0.663125
0.691156 0.691156 0.691156
0.719187 0.719187 0.719187
0.747219 0.747219 0.747219
0.775250 0.775250 0.775250
0.803281 0.803281 0.803281
0.812625 0.812625 0.812625
0.812625 0.812625 0.812625
0.812625 0.812625 0.812625
0.568656 0.568656 0.568656
0.568656 0.568656 0.568656
0.568656 0.568656 0.568656
0.578000 0.578000 0.578000
0.606031 0.606031 0.606031
0.634062 0.634062 0.634062
0.662094 0.662094 0.662094
0.690125 0.690125 0.690125
0.718156 0.718156 0.718156
0.746188 0.746188 0.746188
0.774219 0.774219 0.774219
0.802250 0.802250 0.802250
0.830281 0.830281 0.830281
0.858313 0.858313 0.858313
0.867656 0.867656 0.867656
0.867656 0.867656 0.867656
0.867656 0.867656 0.867656
0.587000 0.587000 0.587000
0.587000 0.587000 0.587000
0.587000 0.587000 0.587000
0.596344 0.596344 0.596344
0.624375 0.624375 0.624375
0.652406 0.652406 0.652406
0.680437 0.680437 0.680437
0.708469 0.708469 0.708469
0.736500 0.736500 0.736500
0.764531 0.764531 0.764531
0.792562 0.792562 0.792562
0.820594 0.820594 0.820594
0.848625 0.848625 0.848625
0.876656 0.876656 0.876656
0.886000 0.886000 0.886000
0.886000 0.886000 0.886000
0.886000 0.886000 0.886000
0.587000 0.587000 0.587000
0.587000 0.587000 0.587000
0.587000 0.587000 0.587000
0.596344 0.596344 0.596344
0.624375 0.624375 0.624375
0.652406 0.652406 0.652406
0.680437 0.680437 0.680437
0.708469 0.708469 0.708469
0.736500 0.736500 0.736500
0.764531 0.764531 0.764531
0.792562 0.792562 0.792562
0.820594 0.820594 0.820594
0.848625 0.848625 0.848625
0.876656 0.876656 0.876656
0.886000 0.886000 0.886000
0.886000 0.886000 0.886000
0.886000 0.886000 0.886000
0.587000 0.587000 0.587000
0.587000 0.587000 0.587000
0.587000 0.587000 0.587000
0.596344 0.596344 0.596344
0.624375 0.624375 0.624375
0.652406 0.652406 0.652406
0.680437 0.680437 0.680437
0.708469 0.708469 0.708469
0.736500 0.736500 0.736500
0.764531 0.764531 0.764531
0.792562 0.792562 0.792562
0.820594 0.820594 0.820594
0.848625 0.848625 0.848625
0.876656 0.876656 0.876656
0.886000 0.886000 0.886000
0.886000 0.886000 0.886000
0.886000 0.886000 0.886000
0.003563 0.003563 0.003563
0.003563 0.003563 0.003563
0.003563 0.003563 0.003563
0.012906 0.012906 0.012906
0.040938 0.040938 0.040938
0.068969 0.068969 0.068969
0.097000 0.097000 0.097000
0.125031 0.125031 0.125031
0.153062 0.153062 0.153062
0.181094 0.181094 0.181094
0.209125 0.209125 0.209125
0.237156 0.237156 0.237156
0.265188 0.265188 0.265188
0.293219 0.293219 0.293219
0.302563 0.302563 0.302563
0.302563 0.302563 0.302563
0.302563 0.302563 0.302563
0.003563 0.003563 0.003563
0.003563 0.003563 0.003563
0.003563 0.003563 0.003563
