server/luts/noir.cube
TITLE "Noir"
LUT_3D_SIZE 5
0.000000 0.000000 0.000000
0.037375 0.037375 0.037375
0.149500 0.149500 0.149500
0.261625 0.261625 0.261625
0.299000 0.299000 0.299000
0.073375 0.073375 0.073375
0.110750 0.110750 0.110750
0.222875 0.222875 0.222875
0.335000 0.335000 0.335000
0.372375 0.372375 0.372375
0.293500 0.293500 0.293500
0.330875 0.330875 0.330875
0.443000 0.443000 0.443000
0.555125 0.555125 0.555125
0.592500 0.592500 0.592500
0.513625 0.513625 0.513625
0.551000 0.551000 0.551000
0.663125 0.663125 0.663125
0.775250 0.775250 0.775250
0.812625 0.812625 0.812625
0.587000 0.587000 0.587000
0.624375 0.624375 0.624375
0.736500 0.736500 0.736500
0.848625 0.848625 0.848625
0.886000 0.886000 0.886000
0.014250 0.014250 0.014250
0.051625 0.051625 0.051625
0.163750 0.163750 0.163750
0.275875 0.275875 0.275875
0.313250 0.313250 0.313250
0.087625 0.087625 0.087625
0.125000 0.125000 0.125000
0.237125 0.237125 0.237125
0.349250 0.349250 0.349250
0.386625 0.386625 0.386625
0.307750 0.307750 0.307750
0.345125 0.345125 0.345125
0.457250 0.457250 0.457250
0.569375 0.569375 0.569375
0.606750 0.606750 0.606750
0.527875 0.527875 0.527875
0.565250 0.565250 0.565250
0.677375 0.677375 0.677375
0.789500 0.789500 0.789500
0.826875 0.826875 0.826875
0.601250 0.601250 0.601250
0.638625 0.638625 0.638625
0.750750 0.750750 0.750750
0.862875 0.862875 0.862875
0.900250 0.900250 0.900250
0.057000 0.057000 0.057000
0.094375 0.094375 0.094375
0.206500 0.206500 0.206500
0.318625 0.318625 0.318625
0.356000 0.356000 0.356000
0.130375 0.130375 0.130375
0.167750 0.167750 0.167750
0.279875 0.279875 0.279875
0.392000 0.392000 0.392000
0.429375 0.429375 0.429375
0.350500 0.350500 0.350500
0.387875 0.387875 0.387875
0.500000 0.500000 0.500000
0.612125 0.612125 0.612125
0.649500 0.649500 0.649500
0.570625 0.570625 0.570625
0.608000 0.608000 0.608000
0.720125 0.720125 0.720125
0.832250 0.832250 0.832250
0.869625 0.869625 0.869625
0.644000 0.644000 0.644000
0.681375 0.681375 0.681375
0.793500 0.793500 0.793500
0.905625 0.905625 0.905625
0.943000 0.943000 0.943000
0.099750 0.099750 0.099750
0.137125 0.137125 0.137125
0.249250 0.249250 0.249250
0.361375 0.361375 0.361375
0.398750 0.398750 0.398750
0.173125 0.173125 0.173125
0.210500 0.210500 0.210500
0.322625 0.322625 0.322625
0.434750 0.434750 0.434750
0.472125 0.472125 0.472125
0.393250 0.393250 0.393250
0.430625 0.430625 0.430625
0.542750 0.542750 0.542750
0.654875 0.654875 0.654875
0.692250 0.692250 0.692250
0.613375 0.613375 0.613375
0.650750 0.650750 0.650750
0.762875 0.762875 0.762875
0.875000 0.875000 0.875000
0.912375 0.912375 0.912375
0.686750 0.686750 0.686750
0.724125 0.724125 0.724125
0.836250 0.836250 0.836250
0.948375 0.948375 0.948375
0.985750 0.985750 0.985750
0.114000 0.114000 0.114000
0.151375 0.151375 0.151375
0.263500 0.263500 0.263500
0.375625 0.375625 0.375625
0.413000 0.413000 0.413000
0.187375 0.187375 0.187375
0.224750 0.224750 0.224750
0.336875 0.336875 0.336875
0.449000 0.449000 0.449000
0.486375 0.486375 0.486375
0.407500 0.407500 0.407500
0.444875 0.444875 0.444875
0.557000 0.557000 0.557000
0.669125 0.669125 0.669125
0.706500 0.706500 0.706500
0.627625 0.627625 0.627625
0.665000 0.665000 0.665000
0.777125 0.777125 0.777125
0.889250 0.889250 0.889250
0.926625 0.926625 0.926625
0.701000 0.701000 0.701000
0.738375 0.738375 0.738375
0.850500 0.850500 0.850500
0.962625 0.962625 0.962625
1.000000 1.000000 1.000000
