server/luts/noir.cube
TITLE "Noir"
LUT_3D_SIZE 9
0.000000 0.000000 0.000000
0.000000 0.000000 0.000000
0.037375 0.037375 0.037375
0.093437 0.093437 0.093437
0.149500 0.149500 0.149500
0.205562 0.205562 0.205562
0.261625 0.261625 0.261625
0.299000 0.299000 0.299000
0.299000 0.299000 0.299000
0.000000 0.000000 0.000000
0.000000 0.000000 0.000000
0.037375 0.037375 0.037375
0.093437 0.093437 0.093437
0.149500 0.149500 0.149500
0.205562 0.205562 0.205562
0.261625 0.261625 0.261625
0.299000 0.299000 0.299000
0.299000 0.299000 0.299000
0.073375 0.073375 0.073375
0.073375 0.073375 0.073375
0.110750 0.110750 0.110750
0.166812 0.166812 0.166812
0.222875 0.222875 0.222875
0.278937 0.278937 0.278937
0.335000 0.335000 0.335000
0.372375 0.372375 0.372375
0.372375 0.372375 0.372375
0.183437 0.183437 0.183437
0.183437 0.183437 0.183437
0.220812 0.220812 0.220812
0.276875 0.276875 0.276875
0.332937 0.332937 0.332937
0.389000 0.389000 0.389000
0.445062 0.445062 0.445062
0.482437 0.482437 0.482437
0.482437 0.482437 0.482437
0.293500 0.293500 0.293500
0.293500 0.293500 0.293500
0.330875 0.330875 0.330875
0.386937 0.386937 0.386937
0.443000 0.443000 0.443000
0.499062 0.499062 0.499062
0.555125 0.555125 0.555125
0.592500 0.592500 0.592500
0.592500 0.592500 0.592500
0.403562 0.403562 0.403562
0.403562 0.403562 0.403562
0.440937 0.440937 0.440937
0.497000 0.497000 0.497000
0.553063 0.553063 0.553063
0.609125 0.609125 0.609125
0.665188 0.665188 0.665188
0.702562 0.702562 0.702562
0.702562 0.702562 0.702562
0.513625 0.513625 0.513625
0.513625 0.513625 0.513625
0.551000 0.551000 0.551000
0.607062 0.607062 0.607062
0.663125 0.663125 0.663125
0.719187 0.719187 0.719187
0.775250 0.775250 0.775250
0.812625 0.812625 0.812625
0.812625 0.812625 0.812625
0.587000 0.587000 0.587000
0.587000 0.587000 0.587000
0.624375 0.624375 0.624375
0.680437 0.680437 0.680437
0.736500 0.736500 0.736500
0.792562 0.792562 0.792562
0.848625 0.848625 0.848625
0.886000 0.886000 0.886000
0.886000 0.886000 0.886000
0.587000 0.587000 0.587000
0.587000 0.587000 0.587000
0.624375 0.624375 0.624375
0.680437 0.680437 0.680437
0.736500 0.736500 0.736500
0.792562 0.792562 0.792562
0.848625 0.848625 0.848625
0.886000 0.886000 0.886000
0.886000 0.886000 0.886000
0.000000 0.000000 0.000000
0.000000 0.000000 0.000000
0.037375 0.037375 0.037375
0.093437 0.093437 0.093437
0.149500 0.149500 0.149500
0.205562 0.205562 0.205562
0.261625 0.261625 0.261625
0.299000 0.299000 0.299000
0.299000 0.299000 0.299000
0.000000 0.000000 0.000000
0.000000 0.000000 0.000000
0.037375 0.037375 0.037375
0.093437 0.093437 0.093437
0.149500 0.149500 0.149500
0.205562 0.205562 0.205562
0.261625 0.261625 0.261625
0.299000 0.299000 0.299000
0.299000 0.299000 0.299000
0.073375 0.073375 0.073375
0.073375 0.073375 0.073375
0.110750 0.110750 0.110750
0.166812 0.166812 0.166812
0.222875 0.222875 0.222875
0.278937 0.278937 0.278937
0.335000 0.335000 0.335000
0.372375 0.372375 0.372375
0.372375 0.372375 0.372375
0.183437 0.183437 0.183437
0.183437 0.183437 0.183437
0.220812 0.220812 0.220812
0.276875 0.276875 0.276875
0.332937 0.332937 0.332937
0.389000 0.389000 0.389000
0.445062 0.445062 0.445062
0.482437 0.482437 0.482437
0.482437 0.482437 0.482437
0.293500 0.293500 0.293500
0.293500 0.293500 0.293500
0.330875 0.330875 0.330875
0.386937 0.386937 0.386937
0.443000 0.443000 0.443000
0.499062 0.499062 0.499062
0.555125 0.555125 0.555125
0.592500 0.592500 0.592500
0.592500 0.592500 0.592500
0.403562 0.403562 0.403562
0.403562 0.403562 0.403562
0.440937 0.440937 0.440937
0.497000 0.497000 0.497000
0.553063 0.553063 0.553063
0.609125 0.609125 0.609125
0.665188 0.665188 0.665188
0.702562 0.702562 0.702562
0.702562 0.702562 0.702562
0.513625 0.513625 0.513625
0.513625 0.513625 0.513625
0.551000 0.551000 0.551000
0.607062 0.607062 0.607062
0.663125 0.663125 0.663125
0.719187 0.719187 0.719187
0.775250 0.775250 0.775250
0.812625 0.812625 0.812625
0.812625 0.812625 0.812625
0.587000 0.587000 0.587000
0.587000 0.587000 0.587000
0.624375 0.624375 0.624375
0.680437 0.680437 0.680437
0.736500 0.736500 0.736500
0.792562 0.792562 0.792562
0.848625 0.848625 0.848625
0.886000 0.886000 0.886000
0.886000 0.886000 0.886000
0.587000 0.587000 0.587000
0.587000 0.587000 0.587000
0.624375 0.624375 0.624375
0.680437 0.680437 0.680437
0.736500 0.736500 0.736500
0.792562 0.792562 0.792562
0.848625 0.848625 0.848625
0.886000 0.886000 0.886000
0.886000 0.886000 0.886000
0.014250 0.014250 0.014250
0.014250 0.014250 0.014250
0.051625 0.051625 0.051625
0.107687 0.107687 0.107687
0.163750 0.163750 0.163750
0.219812 0.219812 0.219812
0.275875 0.275875 0.275875
0.313250 0.313250 0.313250
0.313250 0.313250 0.313250
0.014250 0.014250 0.014250
0.014250 0.014250 0.014250
0.051625 0.051625 0.051625
0.107687 0.107687 0.107687
0.163750 0.163750 0.163750
0.219812 0.219812 0.219812
0.275875 0.275875 0.275875
0.313250 0.313250 0.313250
0.313250 0.313250 0.313250
0.087625 0.087625 0.087625
0.087625 0.087625 0.087625
0.125000 0.125000 0.125000
0.181062 0.181062 0.181062
0.237125 0.237125 0.237125
0.293187 0.293187 0.293187
0.349250 0.349250 0.349250
0.386625 0.386625 0.386625
0.386625 0.386625 0.386625
0.197687 0.197687 0.197687
0.197687 0.197687 0.197687
0.235062 0.235062 0.235062
0.291125 0.291125 0.291125
0.347187 0.347187 0.347187
0.403250 0.403250 0.403250
0.459312 0.459312 0.459312
0.496687 0.496687 0.496687
0.496687 0.496687 0.496687
0.307750 0.307750 0.307750
0.307750 0.307750 0.307750
0.345125 0.345125 0.345125
0.401187 0.401187 0.401187
0.457250 0.457250 0.457250
0.513312 0.513312 0.513312
0.569375 0.569375 0.569375
0.606750 0.606750 0.606750
0.606750 0.606750 0.606750
0.417812 0.417812 0.417812
0.417812 0.417812 0.417812
0.455187 0.455187 0.455187
0.511250 0.511250 0.511250
0.567312 0.567312 0.567312
0.623375 0.623375 0.623375
0.679438 0.679438 0.679438
0.716812 0.716812 0.716812
0.716812 0.716812 0.716812
0.527875 0.527875 0.527875
0.527875 0.527875 0.527875
0.565250 0.565250 0.565250
0.621312 0.621312 0.621312
0.677375 0.677375 0.677375
0.733437 0.733437 0.733437
0.789500 0.789500 0.789500
0.826875 0.826875 0.826875
0.826875 0.826875 0.826875
0.601250 0.601250 0.601250
0.601250 0.601250 0.601250
0.638625 0.638625 0.638625
0.694687 0.694687 0.694687
0.750750 0.750750 0.750750
0.806812 0.806812 0.806812
0.862875 0.862875 0.862875
0.900250 0.900250 0.900250
0.900250 0.900250 0.900250
0.601250 0.601250 0.601250
0.601250 0.601250 0.601250
0.638625 0.638625 0.638625
0.694687 0.694687 0.694687
0.750750 0.750750 0.750750
0.806812 0.806812 0.806812
0.862875 0.862875 0.862875
0.900250 0.900250 0.900250
0.900250 0.900250 0.900250
0.035625 0.035625 0.035625
0.035625 0.035625 0.035625
0.073000 0.073000 0.073000
0.129062 0.129062 0.129062
0.185125 0.185125 0.185125
0.241187 0.241187 0.241187
0.297250 0.297250 0.297250
0.334625 0.334625 0.334625
0.334625 0.334625 0.334625
0.035625 0.035625 0.035625
0.035625 0.035625 0.035625
0.073000 0.073000 0.073000
0.129062 0.129062 0.129062
0.185125 0.185125 0.185125
0.241187 0.241187 0.241187
0.297250 0.297250 0.297250
0.334625 0.334625 0.334625
0.334625 0.334625 0.334625
0.109000 0.109000 0.109000
0.109000 0.109000 0.109000
0.146375 0.146375 0.146375
0.202437 0.202437 0.202437
0.258500 0.258500 0.258500
0.314562 0.314562 0.314562
0.370625 0.370625 0.370625
0.408000 0.408000 0.408000
0.408000 0.408000 0.408000
0.219062 0.219062 0.219062
0.219062 0.219062 0.219062
0.256437 0.256437 0.256437
0.312500 0.312500 0.312500
0.368563 0.368563 0.368563
0.424625 0.424625 0.424625
0.480687 0.480687 0.480687
0.518062 0.518062 0.518062
0.518062 0.518062 0.518062
0.329125 0.329125 0.329125
0.329125 0.329125 0.329125
0.366500 0.366500 0.366500
0.422563 0.422563 0.422563
0.478625 0.478625 0.478625
0.534687 0.534687 0.534687
0.590750 0.590750 0.590750
0.628125 0.628125 0.628125
0.628125 0.628125 0.628125
0.439188 0.439188 0.439188
0.439188 0.439188 0.439188
0.476563 0.476563 0.476563
0.532625 0.532625 0.532625
0.588688 0.588688 0.588688
0.644750 0.644750 0.644750
0.700813 0.700813 0.700813
0.738187 0.738187 0.738187
0.738187 0.738187 0.738187
0.549250 0.549250 0.549250
0.549250 0.549250 0.549250
0.586625 0.586625 0.586625
0.642687 0.642687 0.642687
0.698750 0.698750 0.698750
0.754812 0.754812 0.754812
0.810875 0.810875 0.810875
0.848250 0.848250 0.848250
0.848250 0.848250 0.848250
0.622625 0.622625 0.622625
0.622625 0.622625 0.622625
0.660000 0.660000 0.660000
0.716062 0.716062 0.716062
0.772125 0.772125 0.772125
0.828187 0.828187 0.828187
0.884250 0.884250 0.884250
0.921625 0.921625 0.921625
0.921625 0.921625 0.921625
0.622625 0.622625 0.622625
0.622625 0.622625 0.622625
0.660000 0.660000 0.660000
0.716062 0.716062 0.716062
0.772125 0.772125 0.772125
0.828187 0.828187 0.828187
0.884250 0.884250 0.884250
0.921625 0.921625 0.921625
0.921625 0.921625 0.921625
0.057000 0.057000 0.057000
0.057000 0.057000 0.057000
0.094375 0.094375 0.094375
0.150438 0.150438 0.150438
0.206500 0.206500 0.206500
0.262562 0.262562 0.262562
0.318625 0.318625 0.318625
0.356000 0.356000 0.356000
0.356000 0.356000 0.356000
0.057000 0.057000 0.057000
0.057000 0.057000 0.057000
0.094375 0.094375 0.094375
0.150438 0.150438 0.150438
0.206500 0.206500 0.206500
0.262562 0.262562 0.262562
0.318625 0.318625 0.318625
0.356000 0.356000 0.356000
0.356000 0.356000 0.356000
0.130375 0.130375 0.130375
0.130375 0.130375 0.130375
0.167750 0.167750 0.167750
0.223812 0.223812 0.223812
0.279875 0.279875 0.279875
0.335937 0.335937 0.335937
0.392000 0.392000 0.392000
0.429375 0.429375 0.429375
0.429375 0.429375 0.429375
0.240437 0.240437 0.240437
0.240437 0.240437 0.240437
0.277812 0.277812 0.277812
0.333875 0.333875 0.333875
0.389937 0.389937 0.389937
0.446000 0.446000 0.446000
0.502062 0.502062 0.502062
0.539438 0.539438 0.539438
0.539438 0.539438 0.539438
0.350500 0.350500 0.350500
0.350500 0.350500 0.350500
0.387875 0.387875 0.387875
0.443937 0.443937 0.443937
0.500000 0.500000 0.500000
0.556063 0.556063 0.556063
0.612125 0.612125 0.612125
0.649500 0.649500 0.649500
0.649500 0.649500 0.649500
0.460562 0.460562 0.460562
0.460562 0.460562 0.460562
0.497937 0.497937 0.497937
0.554000 0.554000 0.554000
0.610063 0.610063 0.610063
0.666125 0.666125 0.666125
0.722188 0.722188 0.722188
0.759563 0.759563 0.759563
0.759563 0.759563 0.759563
0.570625 0.570625 0.570625
0.570625 0.570625 0.570625
0.608000 0.608000 0.608000
0.664063 0.664063 0.664063
0.720125 0.720125 0.720125
0.776188 0.776188 0.776188
0.832250 0.832250 0.832250
0.869625 0.869625 0.869625
0.869625 0.869625 0.869625
0.644000 0.644000 0.644000
0.644000 0.644000 0.644000
0.681375 0.681375 0.681375
0.737437 0.737437 0.737437
0.793500 0.793500 0.793500
0.849562 0.849562 0.849562
0.905625 0.905625 0.905625
0.943000 0.943000 0.943000
0.943000 0.943000 0.943000
0.644000 0.644000 0.644000
0.644000 0.644000 0.644000
0.681375 0.681375 0.681375
0.737437 0.737437 0.737437
0.793500 0.793500 0.793500
0.849562 0.849562 0.849562
0.905625 0.905625 0.905625
0.943000 0.943000 0.943000
0.943000 0.943000 0.943000
0.078375 0.078375 0.078375
0.078375 0.078375 0.078375
0.115750 0.115750 0.115750
0.171812 0.171812 0.171812
0.227875 0.227875 0.227875
0.283937 0.283937 0.283937
0.340000 0.340000 0.340000
0.377375 0.377375 0.377375
0.377375 0.377375 0.377375
0.078375 0.078375 0.078375
0.078375 0.078375 0.078375
0.115750 0.115750 0.115750
0.171812 0.171812 0.171812
0.227875 0.227875 0.227875
0.283937 0.283937 0.283937
0.340000 0.340000 0.340000
0.377375 0.377375 0.377375
0.377375 0.377375 0.377375
0.151750 0.151750 0.151750
0.151750 0.151750 0.151750
0.189125 0.189125 0.189125
0.245187 0.245187 0.245187
0.301250 0.301250 0.301250
0.357312 0.357312 0.357312
0.413375 0.413375 0.413375
0.450750 0.450750 0.450750
0.450750 0.450750 0.450750
0.261813 0.261813 0.261813
0.261813 0.261813 0.261813
0.299187 0.299187 0.299187
0.355250 0.355250 0.355250
0.411312 0.411312 0.411312
0.467375 0.467375 0.467375
0.523438 0.523438 0.523438
0.560812 0.560812 0.560812
0.560812 0.560812 0.560812
0.371875 0.371875 0.371875
0.371875 0.371875 0.371875
0.409250 0.409250 0.409250
0.465313 0.465313 0.465313
0.521375 0.521375 0.521375
0.577437 0.577437 0.577437
0.633500 0.633500 0.633500
0.670875 0.670875 0.670875
0.670875 0.670875 0.670875
0.481938 0.481938 0.481938
0.481938 0.481938 0.481938
0.519312 0.519312 0.519312
0.575375 0.575375 0.575375
0.631437 0.631437 0.631437
0.687500 0.687500 0.687500
0.743563 0.743563 0.743563
0.780937 0.780937 0.780937
0.780937 0.780937 0.780937
0.592000 0.592000 0.592000
0.592000 0.592000 0.592000
0.629375 0.629375 0.629375
0.685437 0.685437 0.685437
0.741500 0.741500 0.741500
0.797562 0.797562 0.797562
0.853625 0.853625 0.853625
0.891000 0.891000 0.891000
0.891000 0.891000 0.891000
0.665375 0.665375 0.665375
0.665375 0.665375 0.665375
0.702750 0.702750 0.702750
0.758812 0.758812 0.758812
0.814875 0.814875 0.814875
0.870937 0.870937 0.870937
0.927000 0.927000 0.927000
0.964375 0.964375 0.964375
0.964375 0.964375 0.964375
0.665375 0.665375 0.665375
0.665375 0.665375 0.665375
0.702750 0.702750 0.702750
0.758812 0.758812 0.758812
0.814875 0.814875 0.814875
0.870937 0.870937 0.870937
0.927000 0.927000 0.927000
0.964375 0.964375 0.964375
0.964375 0.964375 0.964375
0.099750 0.099750 0.099750
0.099750 0.099750 0.099750
0.137125 0.137125 0.137125
0.193188 0.193188 0.193188
0.249250 0.249250 0.249250
0.305312 0.305312 0.305312
0.361375 0.361375 0.361375
0.398750 0.398750 0.398750
0.398750 0.398750 0.398750
0.099750 0.099750 0.099750
0.099750 0.099750 0.099750
0.137125 0.137125 0.137125
0.193188 0.193188 0.193188
0.249250 0.249250 0.249250
0.305312 0.305312 0.305312
0.361375 0.361375 0.361375
0.398750 0.398750 0.398750
0.398750 0.398750 0.398750
0.173125 0.173125 0.173125
0.173125 0.173125 0.173125
0.210500 0.210500 0.210500
0.266562 0.266562 0.266562
0.322625 0.322625 0.322625
0.378687 0.378687 0.378687
0.434750 0.434750 0.434750
0.472125 0.472125 0.472125
0.472125 0.472125 0.472125
0.283187 0.283187 0.283187
0.283187 0.283187 0.283187
0.320562 0.320562 0.320562
0.376625 0.376625 0.376625
0.432688 0.432688 0.432688
0.488750 0.488750 0.488750
0.544812 0.544812 0.544812
0.582187 0.582187 0.582187
0.582187 0.582187 0.582187
0.393250 0.393250 0.393250
0.393250 0.393250 0.393250
0.430625 0.430625 0.430625
0.486687 0.486687 0.486687
0.542750 0.542750 0.542750
0.598812 0.598812 0.598812
0.654875 0.654875 0.654875
0.692250 0.692250 0.692250
0.692250 0.692250 0.692250
0.503313 0.503313 0.503313
0.503313 0.503313 0.503313
0.540687 0.540687 0.540687
0.596750 0.596750 0.596750
0.652813 0.652813 0.652813
0.708875 0.708875 0.708875
0.764938 0.764938 0.764938
0.802312 0.802312 0.802312
0.802312 0.802312 0.802312
0.613375 0.613375 0.613375
0.613375 0.613375 0.613375
0.650750 0.650750 0.650750
0.706812 0.706812 0.706812
0.762875 0.762875 0.762875
0.818937 0.818937 0.818937
0.875000 0.875000 0.875000
0.912375 0.912375 0.912375
0.912375 0.912375 0.912375
0.686750 0.686750 0.686750
0.686750 0.686750 0.686750
0.724125 0.724125 0.724125
0.780187 0.780187 0.780187
0.836250 0.836250 0.836250
0.892312 0.892312 0.892312
0.948375 0.948375 0.948375
0.985750 0.985750 0.985750
0.985750 0.985750 0.985750
0.686750 0.686750 0.686750
0.686750 0.686750 0.686750
0.724125 0.724125 0.724125
0.780187 0.780187 0.780187
0.836250 0.836250 0.836250
0.892312 0.892312 0.892312
0.948375 0.948375 0.948375
0.985750 0.985750 0.985750
0.985750 0.985750 0.985750
0.114000 0.114000 0.114000
0.114000 0.114000 0.114000
0.151375 0.151375 0.151375
0.207437 0.207437 0.207437
0.263500 0.263500 0.263500
0.319562 0.319562 0.319562
0.375625 0.375625 0.375625
0.413000 0.413000 0.413000
0.413000 0.413000 0.413000
0.114000 0.114000 0.114000
0.114000 0.114000 0.114000
0.151375 0.151375 0.151375
0.207437 0.207437 0.207437
0.263500 0.263500 0.263500
0.319562 0.319562 0.319562
0.375625 0.375625 0.375625
0.413000 0.413000 0.413000
0.413000 0.413000 0.413000
0.187375 0.187375 0.187375
0.187375 0.187375 0.187375
0.224750 0.224750 0.224750
0.280812 0.280812 0.280812
0.336875 0.336875 0.336875
0.392937 0.392937 0.392937
0.449000 0.449000 0.449000
0.486375 0.486375 0.486375
0.486375 0.486375 0.486375
0.297437 0.297437 0.297437
0.297437 0.297437 0.297437
0.334812 0.334812 0.334812
0.390875 0.390875 0.390875
0.446937 0.446937 0.446937
0.503000 0.503000 0.503000
0.559063 0.559063 0.559063
0.596437 0.596437 0.596437
0.596437 0.596437 0.596437
0.407500 0.407500 0.407500
0.407500 0.407500 0.407500
0.444875 0.444875 0.444875
0.500938 0.500938 0.500938
0.557000 0.557000 0.557000
0.613062 0.613062 0.613062
0.669125 0.669125 0.669125
0.706500 0.706500 0.706500
0.706500 0.706500 0.706500
0.517563 0.517563 0.517563
0.517563 0.517563 0.517563
0.554937 0.554937 0.554937
0.611000 0.611000 0.611000
0.667063 0.667063 0.667063
0.723125 0.723125 0.723125
0.779188 0.779188 0.779188
0.816562 0.816562 0.816562
0.816562 0.816562 0.816562
0.627625 0.627625 0.627625
0.627625 0.627625 0.627625
0.665000 0.665000 0.665000
0.721062 0.721062 0.721062
0.777125 0.777125 0.777125
0.833187 0.833187 0.833187
0.889250 0.889250 0.889250
0.926625 0.926625 0.926625
0.926625 0.926625 0.926625
0.701000 0.701000 0.701000
0.701000 0.701000 0.701000
0.738375 0.738375 0.738375
0.794437 0.794437 0.794437
0.850500 0.850500 0.850500
0.906562 0.906562 0.906562
0.962625 0.962625 0.962625
1.000000 1.000000 1.000000
1.000000 1.000000 1.000000
0.701000 0.701000 0.701000
0.701000 0.701000 0.701000
0.738375 0.738375 0.738375
0.794437 0.794437 0.794437
0.850500 0.850500 0.850500
0.906562 0.906562 0.906562
0.962625 0.962625 0.962625
1.000000 1.000000 1.000000
1.000000 1.000000 1.000000
0.114000 0.114000 0.114000
0.114000 0.114000 0.114000
0.151375 0.151375 0.151375
0.207437 0.207437 0.207437
0.263500 0.263500 0.263500
0.319562 0.319562 0.319562
0.375625 0.375625 0.375625
0.413000 0.413000 0.413000
0.413000 0.413000 0.413000
0.114000 0.114000 0.114000
0.114000 0.114000 0.114000
0.151375 0.151375 0.151375
0.207437 0.207437 0.207437
0.263500 0.263500 0.263500
0.319562 0.319562 0.319562
0.375625 0.375625 0.375625
0.413000 0.413000 0.413000
0.413000 0.413000 0.413000
0.187375 0.187375 0.187375
0.187375 0.187375 0.187375
0.224750 0.224750 0.224750
0.280812 0.280812 0.280812
0.336875 0.336875 0.336875
0.392937 0.392937 0.392937
0.449000 0.449000 0.449000
0.486375 0.486375 0.486375
0.486375 0.486375 0.486375
0.297437 0.297437 0.297437
0.297437 0.297437 0.297437
0.334812 0.334812 0.334812
0.390875 0.390875 0.390875
0.446937 0.446937 0.446937
0.503000 0.503000 0.503000
0.559063 0.559063 0.559063
0.596437 0.596437 0.596437
0.596437 0.596437 0.596437
0.407500 0.407500 0.407500
0.407500 0.407500 0.407500
0.444875 0.444875 0.444875
0.500938 0.500938 0.500938
0.557000 0.557000 0.557000
0.613062 0.613062 0.613062
0.669125 0.669125 0.669125
0.706500 0.706500 0.706500
0.706500 0.706500 0.706500
0.517563 0.517563 0.517563
0.517563 0.517563 0.517563
0.554937 0.554937 0.554937
0.611000 0.611000 0.611000
0.667063 0.667063 0.667063
0.723125 0.723125 0.723125
0.779188 0.779188 0.779188
0.816562 0.816562 0.816562
0.816562 0.816562 0.816562
0.627625 0.627625 0.627625
0.627625 0.627625 0.627625
0.665000 0.665000 0.665000
0.721062 0.721062 0.721062
0.777125 0.777125 0.777125
0.833187 0.833187 0.833187
0.889250 0.889250 0.889250
0.926625 0.926625 0.926625
0.926625 0.926625 0.926625
0.701000 0.701000 0.701000
0.701000 0.701000 0.701000
0.738375 0.738375 0.738375
0.794437 0.794437 0.794437
0.850500 0.850500 0.850500
0.906562 0.906562 0.906562
0.962625 0.962625 0.962625
1.000000 1.000000 1.000000
1.000000 1.000000 1.000000
0.701000 0.701000 0.701000
0.701000 0.701000 0.701000
0.738375 0.738375 0.738375
0.794437 0.794437 0.794437
0.850500 0.850500 0.850500
0.906562 0.906562 0.906562
0.962625 0.962625 0.962625
1.000000 1.000000 1.000000
1.000000 1.000000 1.000000
