server/luts/pastel.cube
TITLE "Pastel"
LUT_3D_SIZE 9
0.170000 0.170000 0.170000
0.254898 0.181773 0.181773
0.339796 0.193546 0.193546
0.424694 0.205319 0.205319
0.509593 0.217092 0.217092
0.594491 0.228866 0.228866
0.679389 0.240639 0.240639
0.764287 0.252412 0.252412
0.796360 0.256860 0.256860
0.193113 0.266238 0.193113
0.278011 0.278011 0.204886
0.362909 0.289784 0.216659
0.447808 0.301557 0.228432
0.532706 0.313331 0.240206
0.617604 0.325104 0.251979
0.702502 0.336877 0.263752
0.787400 0.348650 0.275525
0.819473 0.353098 0.279973
0.216226 0.362476 0.216226
0.301124 0.374249 0.227999
0.386022 0.386022 0.239772
0.470921 0.397796 0.251546
0.555819 0.409569 0.263319
0.640717 0.421342 0.275092
0.725615 0.433115 0.286865
0.810513 0.444888 0.298638
0.842586 0.449336 0.303086
0.239339 0.458714 0.239339
0.324237 0.470488 0.251112
0.409136 0.482261 0.262886
0.494034 0.494034 0.274659
0.578932 0.505807 0.286432
0.663830 0.517580 0.298205
0.748728 0.529353 0.309978
0.833626 0.541126 0.321751
0.865699 0.545574 0.326199
0.262452 0.554952 0.262452
0.347351 0.566726 0.274226
0.432249 0.578499 0.285999
0.517147 0.590272 0.297772
0.602045 0.602045 0.309545
0.686943 0.613818 0.321318
0.771841 0.625591 0.333091
0.856739 0.637364 0.344864
0.888812 0.641812 0.349312
0.285566 0.651191 0.285566
0.370464 0.662964 0.297339
0.455362 0.674737 0.309112
0.540260 0.686510 0.320885
0.625158 0.698283 0.332658
0.710056 0.710056 0.344431
0.794954 0.721829 0.356204
0.879852 0.733603 0.367977
0.911925 0.738050 0.372425
0.308679 0.747429 0.308679
0.393577 0.759202 0.320452
0.478475 0.770975 0.332225
0.563373 0.782748 0.343998
0.648271 0.794521 0.355771
0.733169 0.806294 0.367544
0.818067 0.818067 0.379317
0.902966 0.829841 0.391091
0.935038 0.834288 0.395538
0.331792 0.843667 0.331792
0.416690 0.855440 0.343565
0.501588 0.867213 0.355338
0.586486 0.878986 0.367111
0.671384 0.890759 0.378884
0.756282 0.902532 0.390657
0.841181 0.914306 0.402431
0.926079 0.926079 0.414204
0.958151 0.930526 0.418651
0.340523 0.880023 0.340523
0.425422 0.891797 0.352297
0.510320 0.903570 0.364070
0.595218 0.915343 0.375843
0.680116 0.927116 0.387616
0.765014 0.938889 0.399389
0.849912 0.950662 0.411162
0.934810 0.962435 0.422935
0.966883 0.966883 0.427383
0.174489 0.174489 0.247614
0.259387 0.186262 0.259387
0.344285 0.198035 0.271160
0.429183 0.209808 0.282933
0.514081 0.221581 0.294706
0.598979 0.233354 0.306479
0.683877 0.245127 0.318252
0.768776 0.256901 0.330026
0.800848 0.261348 0.334473
0.197602 0.270727 0.270727
0.282500 0.282500 0.282500
0.367398 0.294273 0.294273
0.452296 0.306046 0.306046
0.537194 0.317819 0.317819
0.622093 0.329592 0.329592
0.706991 0.341366 0.341366
0.791889 0.353139 0.353139
0.823961 0.357586 0.357586
0.220715 0.366965 0.293840
0.305613 0.378738 0.305613
0.390511 0.390511 0.317386
0.475409 0.402284 0.329159
0.560307 0.414057 0.340932
0.645206 0.425831 0.352706
0.730104 0.437604 0.364479
0.815002 0.449377 0.376252
0.847074 0.453824 0.380699
0.243828 0.463203 0.316953
0.328726 0.474976 0.328726
0.413624 0.486749 0.340499
0.498523 0.498523 0.352272
0.583421 0.510296 0.364046
0.668319 0.522069 0.375819
0.753217 0.533842 0.387592
0.838115 0.545615 0.399365
0.870188 0.550063 0.403813
0.266941 0.559441 0.340066
0.351839 0.571214 0.351839
0.436738 0.582987 0.363613
0.521636 0.594761 0.375386
0.606534 0.606534 0.387159
0.691432 0.618307 0.398932
0.776330 0.630080 0.410705
0.861228 0.641853 0.422478
0.893301 0.646301 0.426926
0.290054 0.655679 0.363179
0.374953 0.667453 0.374953
0.459851 0.679226 0.386726
0.544749 0.690999 0.398499
0.629647 0.702772 0.410272
0.714545 0.714545 0.422045
0.799443 0.726318 0.433818
0.884341 0.738091 0.445591
0.916414 0.742539 0.450039
0.313167 0.751918 0.386292
0.398066 0.763691 0.398066
0.482964 0.775464 0.409839
0.567862 0.787237 0.421612
0.652760 0.799010 0.433385
0.737658 0.810783 0.445158
0.822556 0.822556 0.456931
0.907454 0.834329 0.468704
0.939527 0.838777 0.473152
0.336281 0.848156 0.409406
0.421179 0.859929 0.421179
0.506077 0.871702 0.432952
0.590975 0.883475 0.444725
0.675873 0.895248 0.456498
0.760771 0.907021 0.468271
0.845669 0.918794 0.480044
0.930567 0.930567 0.491817
0.962640 0.935015 0.496265
0.345012 0.884512 0.418137
0.429910 0.896285 0.429910
0.514809 0.908058 0.441684
0.599707 0.919832 0.453457
0.684605 0.931605 0.465230
0.769503 0.943378 0.477003
0.854401 0.955151 0.488776
0.939299 0.966924 0.500549
0.971372 0.971372 0.504997
0.178977 0.178977 0.325228
0.263876 0.190751 0.337001
0.348774 0.202524 0.348774
0.433672 0.214297 0.360547
0.518570 0.226070 0.372320
0.603468 0.237843 0.384093
0.688366 0.249616 0.395866
0.773264 0.261389 0.407639
0.805337 0.265837 0.412087
0.202091 0.275216 0.348341
0.286989 0.286989 0.360114
0.371887 0.298762 0.371887
0.456785 0.310535 0.383660
0.541683 0.322308 0.395433
0.626581 0.334081 0.407206
0.711479 0.345854 0.418979
0.796377 0.357627 0.430752
0.828450 0.362075 0.435200
0.225204 0.371454 0.371454
0.310102 0.383227 0.383227
0.395000 0.395000 0.395000
0.479898 0.406773 0.406773
0.564796 0.418546 0.418546
0.649694 0.430319 0.430319
0.734592 0.442092 0.442092
0.819491 0.453866 0.453866
0.851563 0.458313 0.458313
0.248317 0.467692 0.394567
0.333215 0.479465 0.406340
0.418113 0.491238 0.418113
0.503011 0.503011 0.429886
0.587909 0.514784 0.441659
0.672808 0.526558 0.453433
0.757706 0.538331 0.465206
0.842604 0.550104 0.476979
0.874676 0.554551 0.481426
0.271430 0.563930 0.417680
0.356328 0.575703 0.429453
0.441226 0.587476 0.441226
0.526124 0.599249 0.452999
0.611023 0.611023 0.464773
0.695921 0.622796 0.476546
0.780819 0.634569 0.488319
0.865717 0.646342 0.500092
0.897790 0.650790 0.504540
0.294543 0.660168 0.440793
0.379441 0.671941 0.452566
0.464339 0.683714 0.464339
0.549238 0.695488 0.476113
0.634136 0.707261 0.487886
0.719034 0.719034 0.499659
0.803932 0.730807 0.511432
0.888830 0.742580 0.523205
0.920903 0.747028 0.527653
0.317656 0.756406 0.463906
0.402554 0.768179 0.475679
0.487452 0.779952 0.487452
0.572351 0.791726 0.499226
0.657249 0.803499 0.510999
0.742147 0.815272 0.522772
0.827045 0.827045 0.534545
0.911943 0.838818 0.546318
0.944016 0.843266 0.550766
0.340769 0.852644 0.487019
0.425667 0.864418 0.498792
0.510566 0.876191 0.510566
0.595464 0.887964 0.522339
0.680362 0.899737 0.534112
0.765260 0.911510 0.545885
0.850158 0.923283 0.557658
0.935056 0.935056 0.569431
0.967129 0.939504 0.573879
0.349501 0.889001 0.495751
0.434399 0.900774 0.507524
0.519297 0.912547 0.519297
0.604195 0.924320 0.531070
0.689094 0.936094 0.542844
0.773992 0.947867 0.554617
0.858890 0.959640 0.566390
0.943788 0.971413 0.578163
0.975861 0.975861 0.582610
0.183466 0.183466 0.402841
0.268364 0.195239 0.414614
0.353263 0.207012 0.426388
0.438161 0.218786 0.438161
0.523059 0.230559 0.449934
0.607957 0.242332 0.461707
0.692855 0.254105 0.473480
0.777753 0.265878 0.485253
0.809826 0.270326 0.489701
0.206579 0.279704 0.425954
0.291477 0.291477 0.437728
0.376376 0.303251 0.449501
0.461274 0.315024 0.461274
0.546172 0.326797 0.473047
0.631070 0.338570 0.484820
0.715968 0.350343 0.496593
0.800866 0.362116 0.508366
0.832939 0.366564 0.512814
0.229692 0.375943 0.449068
0.314591 0.387716 0.460841
0.399489 0.399489 0.472614
0.484387 0.411262 0.484387
0.569285 0.423035 0.496160
0.654183 0.434808 0.507933
0.739081 0.446581 0.519706
0.823979 0.458354 0.531479
0.856052 0.462802 0.535927
0.252806 0.472181 0.472181
0.337704 0.483954 0.483954
0.422602 0.495727 0.495727
0.507500 0.507500 0.507500
0.592398 0.519273 0.519273
0.677296 0.531046 0.531046
0.762194 0.542819 0.542819
0.847093 0.554593 0.554593
0.879165 0.559040 0.559040
0.275919 0.568419 0.495294
0.360817 0.580192 0.507067
0.445715 0.591965 0.518840
0.530613 0.603738 0.530613
0.615511 0.615511 0.542386
0.700409 0.627284 0.554159
0.785307 0.639057 0.565933
0.870206 0.650831 0.577706
0.902278 0.655278 0.582153
0.299032 0.664657 0.518407
0.383930 0.676430 0.530180
0.468828 0.688203 0.541953
0.553726 0.699976 0.553726
0.638624 0.711749 0.565499
0.723523 0.723523 0.577273
0.808421 0.735296 0.589046
0.893319 0.747069 0.600819
0.925391 0.751516 0.605266
0.322145 0.760895 0.541520
0.407043 0.772668 0.553293
0.491941 0.784441 0.565066
0.576839 0.796214 0.576839
0.661737 0.807987 0.588612
0.746636 0.819761 0.600386
0.831534 0.831534 0.612159
0.916432 0.843307 0.623932
0.948504 0.847754 0.628379
0.345258 0.857133 0.564633
0.430156 0.868906 0.576406
0.515054 0.880679 0.588179
0.599952 0.892452 0.599952
0.684851 0.904226 0.611726
0.769749 0.915999 0.623499
0.854647 0.927772 0.635272
0.939545 0.939545 0.647045
0.971618 0.943993 0.651493
0.353990 0.893490 0.573365
0.438888 0.905263 0.585138
0.523786 0.917036 0.596911
0.608684 0.928809 0.608684
0.693582 0.940582 0.620457
0.778480 0.952355 0.632230
0.863378 0.964128 0.644003
0.948277 0.975902 0.655777
0.980349 0.980349 0.660224
0.187955 0.187955 0.480455
0.272853 0.199728 0.492228
0.357751 0.211501 0.504001
0.442649 0.223274 0.515774
0.527548 0.235047 0.527548
0.612446 0.246821 0.539321
0.697344 0.258594 0.551094
0.782242 0.270367 0.562867
0.814315 0.274814 0.567314
0.211068 0.284193 0.503568
0.295966 0.295966 0.515341
0.380864 0.307739 0.527114
0.465763 0.319512 0.538887
0.550661 0.331286 0.550661
0.635559 0.343059 0.562434
0.720457 0.354832 0.574207
0.805355 0.366605 0.585980
0.837428 0.371053 0.590428
0.234181 0.380431 0.526681
0.319079 0.392204 0.538454
0.403978 0.403978 0.550227
0.488876 0.415751 0.562001
0.573774 0.427524 0.573774
0.658672 0.439297 0.585547
0.743570 0.451070 0.597320
0.828468 0.462843 0.609093
0.860541 0.467291 0.613541
0.257294 0.476669 0.549794
0.342193 0.488443 0.561567
0.427091 0.500216 0.573341
0.511989 0.511989 0.585114
0.596887 0.523762 0.596887
0.681785 0.535535 0.608660
0.766683 0.547308 0.620433
0.851581 0.559081 0.632206
0.883654 0.563529 0.636654
0.280407 0.572908 0.572908
0.365306 0.584681 0.584681
0.450204 0.596454 0.596454
0.535102 0.608227 0.608227
0.620000 0.620000 0.620000
0.704898 0.631773 0.631773
0.789796 0.643546 0.643546
0.874694 0.655319 0.655319
0.906767 0.659767 0.659767
0.303521 0.669146 0.596021
0.388419 0.680919 0.607794
0.473317 0.692692 0.619567
0.558215 0.704465 0.631340
0.643113 0.716238 0.643113
0.728011 0.728011 0.654886
0.812909 0.739784 0.666659
0.897807 0.751557 0.678432
0.929880 0.756005 0.682880
0.326634 0.765384 0.619134
0.411532 0.777157 0.630907
0.496430 0.788930 0.642680
0.581328 0.800703 0.654453
0.666226 0.812476 0.666226
0.751124 0.824249 0.677999
0.836023 0.836023 0.689772
0.920921 0.847796 0.701546
0.952993 0.852243 0.705993
0.349747 0.861622 0.642247
0.434645 0.873395 0.654020
0.519543 0.885168 0.665793
0.604441 0.896941 0.677566
0.689339 0.908714 0.689339
0.774238 0.920488 0.701112
0.859136 0.932261 0.712886
0.944034 0.944034 0.724659
0.976106 0.948481 0.729106
0.358478 0.897979 0.650979
0.443377 0.909752 0.662752
0.528275 0.921525 0.674525
0.613173 0.933298 0.686298
0.698071 0.945071 0.698071
0.782969 0.956844 0.709844
0.867867 0.968617 0.721617
0.952765 0.980390 0.733390
0.984838 0.984838 0.737838
0.192444 0.192444 0.558069
0.277342 0.204217 0.569842
0.362240 0.215990 0.581615
0.447138 0.227763 0.593388
0.532036 0.239536 0.605161
0.616934 0.251309 0.616934
0.701832 0.263082 0.628707
0.786731 0.274856 0.640481
0.818803 0.279303 0.644928
0.215557 0.288682 0.581182
0.300455 0.300455 0.592955
0.385353 0.312228 0.604728
0.470251 0.324001 0.616501
0.555149 0.335774 0.628274
0.640047 0.347548 0.640047
0.724946 0.359321 0.651821
0.809844 0.371094 0.663594
0.841916 0.375541 0.668041
0.238670 0.384920 0.604295
0.323568 0.396693 0.616068
0.408466 0.408466 0.627841
0.493364 0.420239 0.639614
0.578263 0.432013 0.651388
0.663161 0.443786 0.663161
0.748059 0.455559 0.674934
0.832957 0.467332 0.686707
0.865030 0.471780 0.691155
0.261783 0.481158 0.627408
0.346681 0.492931 0.639181
0.431579 0.504704 0.650954
0.516478 0.516478 0.662728
0.601376 0.528251 0.674501
0.686274 0.540024 0.686274
0.771172 0.551797 0.698047
0.856070 0.563570 0.709820
0.888143 0.568018 0.714268
0.284896 0.577396 0.650521
0.369794 0.589169 0.662294
0.454692 0.600943 0.674068
0.539591 0.612716 0.685841
0.624489 0.624489 0.697614
0.709387 0.636262 0.709387
0.794285 0.648035 0.721160
0.879183 0.659808 0.732933
0.911256 0.664256 0.737381
0.308009 0.673634 0.673634
0.392908 0.685408 0.685408
0.477806 0.697181 0.697181
0.562704 0.708954 0.708954
0.647602 0.720727 0.720727
0.732500 0.732500 0.732500
0.817398 0.744273 0.744273
0.902296 0.756046 0.756046
0.934369 0.760494 0.760494
0.331122 0.769872 0.696748
0.416021 0.781646 0.708521
0.500919 0.793419 0.720294
0.585817 0.805192 0.732067
0.670715 0.816965 0.743840
0.755613 0.828738 0.755613
0.840511 0.840511 0.767386
0.925409 0.852284 0.779159
0.957482 0.856732 0.783607
0.354236 0.866111 0.719861
0.439134 0.877884 0.731634
0.524032 0.889657 0.743407
0.608930 0.901430 0.755180
0.693828 0.913203 0.766953
0.778726 0.924976 0.778726
0.863624 0.936749 0.790499
0.948523 0.948523 0.802272
0.980595 0.952970 0.806720
0.362967 0.902467 0.728592
0.447865 0.914240 0.740365
0.532763 0.926014 0.752139
0.617662 0.937787 0.763912
0.702560 0.949560 0.775685
0.787458 0.961333 0.787458
0.872356 0.973106 0.799231
0.957254 0.984879 0.811004
0.989327 0.989327 0.815452
0.196932 0.196932 0.635682
0.281831 0.208706 0.647456
0.366729 0.220479 0.659229
0.451627 0.232252 0.671002
0.536525 0.244025 0.682775
0.621423 0.255798 0.694548
0.706321 0.267571 0.706321
0.791219 0.279344 0.718094
0.823292 0.283792 0.722542
0.220046 0.293171 0.658796
0.304944 0.304944 0.670569
0.389842 0.316717 0.682342
0.474740 0.328490 0.694115
0.559638 0.340263 0.705888
0.644536 0.352036 0.717661
0.729434 0.363809 0.729434
0.814333 0.375582 0.741208
0.846405 0.380030 0.745655
0.243159 0.389409 0.681909
0.328057 0.401182 0.693682
0.412955 0.412955 0.705455
0.497853 0.424728 0.717228
0.582751 0.436501 0.729001
0.667649 0.448274 0.740774
0.752547 0.460047 0.752547
0.837446 0.471821 0.764321
0.869518 0.476268 0.768768
0.266272 0.485647 0.705022
0.351170 0.497420 0.716795
0.436068 0.509193 0.728568
0.520966 0.520966 0.740341
0.605864 0.532739 0.752114
0.690763 0.544513 0.763888
0.775661 0.556286 0.775661
0.860559 0.568059 0.787434
0.892631 0.572506 0.791881
0.289385 0.581885 0.728135
0.374283 0.593658 0.739908
0.459181 0.605431 0.751681
0.544079 0.617204 0.763454
0.628977 0.628977 0.775227
0.713876 0.640751 0.787001
0.798774 0.652524 0.798774
0.883672 0.664297 0.810547
0.915744 0.668744 0.814994
0.312498 0.678123 0.751248
0.397396 0.689896 0.763021
0.482294 0.701669 0.774794
0.567193 0.713443 0.786567
0.652091 0.725216 0.798341
0.736989 0.736989 0.810114
0.821887 0.748762 0.821887
0.906785 0.760535 0.833660
0.938858 0.764983 0.838108
0.335611 0.774361 0.774361
0.420509 0.786134 0.786134
0.505408 0.797907 0.797907
0.590306 0.809681 0.809681
0.675204 0.821454 0.821454
0.760102 0.833227 0.833227
0.845000 0.845000 0.845000
0.929898 0.856773 0.856773
0.961971 0.861221 0.861221
0.358724 0.870599 0.797474
0.443622 0.882373 0.809248
0.528521 0.894146 0.821021
0.613419 0.905919 0.832794
0.698317 0.917692 0.844567
0.783215 0.929465 0.856340
0.868113 0.941238 0.868113
0.953011 0.953011 0.879886
0.985084 0.957459 0.884334
0.367456 0.906956 0.806206
0.452354 0.918729 0.817979
0.537252 0.930502 0.829752
0.622150 0.942275 0.841525
0.707048 0.954048 0.853298
0.791947 0.965822 0.865072
0.876845 0.977595 0.876845
0.961743 0.989368 0.888618
0.993815 0.993815 0.893065
0.201421 0.201421 0.713296
0.286319 0.213194 0.725069
0.371218 0.224967 0.736843
0.456116 0.236741 0.748616
0.541014 0.248514 0.760389
0.625912 0.260287 0.772162
0.710810 0.272060 0.783935
0.795708 0.283833 0.795708
0.827781 0.288281 0.800156
0.224534 0.297659 0.736409
0.309432 0.309432 0.748182
0.394331 0.321206 0.759956
0.479229 0.332979 0.771729
0.564127 0.344752 0.783502
0.649025 0.356525 0.795275
0.733923 0.368298 0.807048
0.818821 0.380071 0.818821
0.850894 0.384519 0.823269
0.247647 0.393898 0.759522
0.332546 0.405671 0.771296
0.417444 0.417444 0.783069
0.502342 0.429217 0.794842
0.587240 0.440990 0.806615
0.672138 0.452763 0.818388
0.757036 0.464536 0.830161
0.841934 0.476309 0.841934
0.874007 0.480757 0.846382
0.270761 0.490136 0.782636
0.355659 0.501909 0.794409
0.440557 0.513682 0.806182
0.525455 0.525455 0.817955
0.610353 0.537228 0.829728
0.695251 0.549001 0.841501
0.780149 0.560774 0.853274
0.865047 0.572547 0.865047
0.897120 0.576995 0.869495
0.293874 0.586374 0.805749
0.378772 0.598147 0.817522
0.463670 0.609920 0.829295
0.548568 0.621693 0.841068
0.633466 0.633466 0.852841
0.718364 0.645239 0.864614
0.803262 0.657012 0.876387
0.888161 0.668786 0.888161
0.920233 0.673233 0.892608
0.316987 0.682612 0.828862
0.401885 0.694385 0.840635
0.486783 0.706158 0.852408
0.571681 0.717931 0.864181
0.656579 0.729704 0.875954
0.741478 0.741478 0.887728
0.826376 0.753251 0.899501
0.911274 0.765024 0.911274
0.943346 0.769471 0.915721
0.340100 0.778850 0.851975
0.424998 0.790623 0.863748
0.509896 0.802396 0.875521
0.594794 0.814169 0.887294
0.679693 0.825943 0.899068
0.764591 0.837716 0.910841
0.849489 0.849489 0.922614
0.934387 0.861262 0.934387
0.966460 0.865709 0.938835
0.363213 0.875088 0.875088
0.448111 0.886861 0.886861
0.533009 0.898634 0.898634
0.617908 0.910408 0.910408
0.702806 0.922181 0.922181
0.787704 0.933954 0.933954
0.872602 0.945727 0.945727
0.957500 0.957500 0.957500
0.989573 0.961948 0.961948
0.371945 0.911445 0.883820
0.456843 0.923218 0.895593
0.541741 0.934991 0.907366
0.626639 0.946764 0.919139
0.711537 0.958537 0.930912
0.796435 0.970310 0.942685
0.881333 0.982083 0.954458
0.966232 0.993857 0.966232
0.998304 0.998304 0.970679
0.203117 0.203117 0.742617
0.288015 0.214890 0.754390
0.372913 0.226663 0.766163
0.457811 0.238436 0.777936
0.542709 0.250209 0.789709
0.627608 0.261983 0.801483
0.712506 0.273756 0.813256
0.797404 0.285529 0.825029
0.829476 0.289976 0.829476
0.226230 0.299355 0.765730
0.311128 0.311128 0.777503
0.396026 0.322901 0.789276
0.480925 0.334674 0.801049
0.565823 0.346448 0.812823
0.650721 0.358221 0.824596
0.735619 0.369994 0.836369
0.820517 0.381767 0.848142
0.852590 0.386215 0.852590
0.249343 0.395593 0.788843
0.334241 0.407366 0.800616
0.419139 0.419139 0.812389
0.504038 0.430913 0.824163
0.588936 0.442686 0.835936
0.673834 0.454459 0.847709
0.758732 0.466232 0.859482
0.843630 0.478005 0.871255
0.875703 0.482453 0.875703
0.272456 0.491831 0.811956
0.357354 0.503605 0.823730
0.442253 0.515378 0.835503
0.527151 0.527151 0.847276
0.612049 0.538924 0.859049
0.696947 0.550697 0.870822
0.781845 0.562470 0.882595
0.866743 0.574243 0.894368
0.898816 0.578691 0.898816
0.295569 0.588070 0.835070
0.380468 0.599843 0.846843
0.465366 0.611616 0.858616
0.550264 0.623389 0.870389
0.635162 0.635162 0.882162
0.720060 0.646935 0.893935
0.804958 0.658708 0.905708
0.889856 0.670481 0.917481
0.921929 0.674929 0.921929
0.318683 0.684308 0.858183
0.403581 0.696081 0.869956
0.488479 0.707854 0.881729
0.573377 0.719627 0.893502
0.658275 0.731400 0.905275
0.743173 0.743173 0.917048
0.828071 0.754946 0.928821
0.912969 0.766719 0.940595
0.945042 0.771167 0.945042
0.341796 0.780546 0.881296
0.426694 0.792319 0.893069
0.511592 0.804092 0.904842
0.596490 0.815865 0.916615
0.681388 0.827638 0.928388
0.766286 0.839411 0.940161
0.851185 0.851185 0.951935
0.936083 0.862958 0.963708
0.968155 0.867405 0.968155
0.364909 0.876784 0.904409
0.449807 0.888557 0.916182
0.534705 0.900330 0.927955
0.619603 0.912103 0.939728
0.704501 0.923876 0.951501
0.789400 0.935650 0.963275
0.874298 0.947423 0.975048
0.959196 0.959196 0.986821
0.991268 0.963643 0.991268
0.373640 0.913141 0.913141
0.458539 0.924914 0.924914
0.543437 0.936687 0.936687
0.628335 0.948460 0.948460
0.713233 0.960233 0.960233
0.798131 0.972006 0.972006
0.883029 0.983779 0.983779
0.967927 0.995552 0.995552
1.000000 1.000000 1.000000
