server/luts/pastel.cube
TITLE "Pastel"
LUT_3D_SIZE 5
0.170000 0.170000 0.170000
0.339796 0.193546 0.193546
0.509593 0.217092 0.217092
0.679389 0.240639 0.240639
0.796360 0.256860 0.256860
0.216226 0.362476 0.216226
0.386022 0.386022 0.239772
0.555819 0.409569 0.263319
0.725615 0.433115 0.286865
0.842586 0.449336 0.303086
0.262452 0.554952 0.262452
0.432249 0.578499 0.285999
0.602045 0.602045 0.309545
0.771841 0.625591 0.333091
0.888812 0.641812 0.349312
0.308679 0.747429 0.308679
0.478475 0.770975 0.332225
0.648271 0.794521 0.355771
0.818067 0.818067 0.379317
0.935038 0.834288 0.395538
0.340523 0.880023 0.340523
0.510320 0.903570 0.364070
0.680116 0.927116 0.387616
0.849912 0.950662 0.411162
0.966883 0.966883 0.427383
0.178977 0.178977 0.325228
0.348774 0.202524 0.348774
0.518570 0.226070 0.372320
0.688366 0.249616 0.395866
0.805337 0.265837 0.412087
0.225204 0.371454 0.371454
0.395000 0.395000 0.395000
0.564796 0.418546 0.418546
0.734592 0.442092 0.442092
0.851563 0.458313 0.458313
0.271430 0.563930 0.417680
0.441226 0.587476 0.441226
0.611023 0.611023 0.464773
0.780819 0.634569 0.488319
0.897790 0.650790 0.504540
0.317656 0.756406 0.463906
0.487452 0.779952 0.487452
0.657249 0.803499 0.510999
0.827045 0.827045 0.534545
0.944016 0.843266 0.550766
0.349501 0.889001 0.495751
0.519297 0.912547 0.519297
0.689094 0.936094 0.542844
0.858890 0.959640 0.566390
0.975861 0.975861 0.582610
0.187955 0.187955 0.480455
0.357751 0.211501 0.504001
0.527548 0.235047 0.527548
0.697344 0.258594 0.551094
0.814315 0.274814 0.567314
0.234181 0.380431 0.526681
0.403978 0.403978 0.550227
0.573774 0.427524 0.573774
0.743570 0.451070 0.597320
0.860541 0.467291 0.613541
0.280407 0.572908 0.572908
0.450204 0.596454 0.596454
0.620000 0.620000 0.620000
0.789796 0.643546 0.643546
0.906767 0.659767 0.659767
0.326634 0.765384 0.619134
0.496430 0.788930 0.642680
0.666226 0.812476 0.666226
0.836023 0.836023 0.689772
0.952993 0.852243 0.705993
0.358478 0.897979 0.650979
0.528275 0.921525 0.674525
0.698071 0.945071 0.698071
0.867867 0.968617 0.721617
0.984838 0.984838 0.737838
0.196932 0.196932 0.635682
0.366729 0.220479 0.659229
0.536525 0.244025 0.682775
0.706321 0.267571 0.706321
0.823292 0.283792 0.722542
0.243159 0.389409 0.681909
0.412955 0.412955 0.705455
0.582751 0.436501 0.729001
0.752547 0.460047 0.752547
0.869518 0.476268 0.768768
0.289385 0.581885 0.728135
0.459181 0.605431 0.751681
0.628977 0.628977 0.775227
0.798774 0.652524 0.798774
0.915744 0.668744 0.814994
0.335611 0.774361 0.774361
0.505408 0.797907 0.797907
0.675204 0.821454 0.821454
0.845000 0.845000 0.845000
0.961971 0.861221 0.861221
0.367456 0.906956 0.806206
0.537252 0.930502 0.829752
0.707048 0.954048 0.853298
0.876845 0.977595 0.876845
0.993815 0.993815 0.893065
0.203117 0.203117 0.742617
0.372913 0.226663 0.766163
0.542709 0.250209 0.789709
0.712506 0.273756 0.813256
0.829476 0.289976 0.829476
0.249343 0.395593 0.788843
0.419139 0.419139 0.812389
0.588936 0.442686 0.835936
0.758732 0.466232 0.859482
0.875703 0.482453 0.875703
0.295569 0.588070 0.835070
0.465366 0.611616 0.858616
0.635162 0.635162 0.882162
0.804958 0.658708 0.905708
0.921929 0.674929 0.921929
0.341796 0.780546 0.881296
0.511592 0.804092 0.904842
0.681388 0.827638 0.928388
0.851185 0.851185 0.951935
0.968155 0.867405 0.968155
0.373640 0.913141 0.913141
0.543437 0.936687 0.936687
0.713233 0.960233 0.960233
0.883029 0.983779 0.983779
1.000000 1.000000 1.000000
