server/luts/pastel.cube
TITLE "Pastel"
LUT_3D_SIZE 17
0.170000 0.170000 0.170000
0.212449 0.175887 0.175887
0.254898 0.181773 0.181773
0.297347 0.187660 0.187660
0.339796 0.193546 0.193546
0.382245 0.199433 0.199433
0.424694 0.205319 0.205319
0.467143 0.211206 0.211206
0.509593 0.217092 0.217092
0.552042 0.222979 0.222979
0.594491 0.228866 0.228866
0.636940 0.234752 0.234752
0.679389 0.240639 0.240639
0.721838 0.246525 0.246525
0.764287 0.252412 0.252412
0.796360 0.256860 0.256860
0.796360 0.256860 0.256860
0.181557 0.218119 0.181557
0.224006 0.224006 0.187443
0.266455 0.229892 0.193330
0.308904 0.235779 0.199216
0.351353 0.241665 0.205103
0.393802 0.247552 0.210989
0.436251 0.253438 0.216876
0.478700 0.259325 0.222763
0.521149 0.265212 0.228649
0.563598 0.271098 0.234536
0.606047 0.276985 0.240422
0.648496 0.282871 0.246309
0.690945 0.288758 0.252195
0.733394 0.294644 0.258082
0.775843 0.300531 0.263968
0.807916 0.304979 0.268416
0.807916 0.304979 0.268416
0.193113 0.266238 0.193113
0.235562 0.272125 0.199000
0.278011 0.278011 0.204886
0.320460 0.283898 0.210773
0.362909 0.289784 0.216659
0.405358 0.295671 0.222546
0.447808 0.301557 0.228432
0.490257 0.307444 0.234319
0.532706 0.313331 0.240206
0.575155 0.319217 0.246092
0.617604 0.325104 0.251979
0.660053 0.330990 0.257865
0.702502 0.336877 0.263752
0.744951 0.342763 0.269638
0.787400 0.348650 0.275525
0.819473 0.353098 0.279973
0.819473 0.353098 0.279973
0.204670 0.314357 0.204670
0.247119 0.320244 0.210556
0.289568 0.326130 0.216443
0.332017 0.332017 0.222329
0.374466 0.337903 0.228216
0.416915 0.343790 0.234102
0.459364 0.349677 0.239989
0.501813 0.355563 0.245876
0.544262 0.361450 0.251762
0.586711 0.367336 0.257649
0.629160 0.373223 0.263535
0.671609 0.379109 0.269422
0.714058 0.384996 0.275308
0.756507 0.390882 0.281195
0.798957 0.396769 0.287082
0.831029 0.401217 0.291529
0.831029 0.401217 0.291529
0.216226 0.362476 0.216226
0.258675 0.368363 0.222113
0.301124 0.374249 0.227999
0.343573 0.380136 0.233886
0.386022 0.386022 0.239772
0.428472 0.391909 0.245659
0.470921 0.397796 0.251546
0.513370 0.403682 0.257432
0.555819 0.409569 0.263319
0.598268 0.415455 0.269205
0.640717 0.421342 0.275092
0.683166 0.427228 0.280978
0.725615 0.433115 0.286865
0.768064 0.439002 0.292752
0.810513 0.444888 0.298638
0.842586 0.449336 0.303086
0.842586 0.449336 0.303086
0.227783 0.410595 0.227783
0.270232 0.416482 0.233669
0.312681 0.422368 0.239556
0.355130 0.428255 0.245442
0.397579 0.434142 0.251329
0.440028 0.440028 0.257216
0.482477 0.445915 0.263102
0.524926 0.451801 0.268989
0.567375 0.457688 0.274875
0.609824 0.463574 0.280762
0.652273 0.469461 0.286648
0.694722 0.475347 0.292535
0.737172 0.481234 0.298422
0.779621 0.487121 0.304308
0.822070 0.493007 0.310195
0.854142 0.497455 0.314642
0.854142 0.497455 0.314642
0.239339 0.458714 0.239339
0.281788 0.464601 0.245226
0.324237 0.470488 0.251112
0.366687 0.476374 0.256999
0.409136 0.482261 0.262886
0.451585 0.488147 0.268772
0.494034 0.494034 0.274659
0.536483 0.499920 0.280545
0.578932 0.505807 0.286432
0.621381 0.511693 0.292318
0.663830 0.517580 0.298205
0.706279 0.523467 0.304092
0.748728 0.529353 0.309978
0.791177 0.535240 0.315865
0.833626 0.541126 0.321751
0.865699 0.545574 0.326199
0.865699 0.545574 0.326199
0.250896 0.506833 0.250896
0.293345 0.512720 0.256782
0.335794 0.518607 0.262669
0.378243 0.524493 0.268556
0.420692 0.530380 0.274442
0.463141 0.536266 0.280329
0.505590 0.542153 0.286215
0.548039 0.548039 0.292102
0.590488 0.553926 0.297988
0.632937 0.559812 0.303875
0.675387 0.565699 0.309762
0.717836 0.571586 0.315648
0.760285 0.577472 0.321535
0.802734 0.583359 0.327421
0.845183 0.589245 0.333308
0.877255 0.593693 0.337755
0.877255 0.593693 0.337755
0.262452 0.554952 0.262452
0.304902 0.560839 0.268339
0.347351 0.566726 0.274226
0.389800 0.572612 0.280112
0.432249 0.578499 0.285999
0.474698 0.584385 0.291885
0.517147 0.590272 0.297772
0.559596 0.596158 0.303658
0.602045 0.602045 0.309545
0.644494 0.607932 0.315432
0.686943 0.613818 0.321318
0.729392 0.619705 0.327205
0.771841 0.625591 0.333091
0.814290 0.631478 0.338978
0.856739 0.637364 0.344864
0.888812 0.641812 0.349312
0.888812 0.641812 0.349312
0.274009 0.603072 0.274009
0.316458 0.608958 0.279896
0.358907 0.614845 0.285782
0.401356 0.620731 0.291669
0.443805 0.626618 0.297555
0.486254 0.632504 0.303442
0.528703 0.638391 0.309328
0.571152 0.644278 0.315215
0.613602 0.650164 0.321102
0.656051 0.656051 0.326988
0.698500 0.661937 0.332875
0.740949 0.667824 0.338761
0.783398 0.673710 0.344648
0.825847 0.679597 0.350534
0.868296 0.685483 0.356421
0.900369 0.689931 0.360869
0.900369 0.689931 0.360869
0.285566 0.651191 0.285566
0.328015 0.657077 0.291452
0.370464 0.662964 0.297339
0.412913 0.668850 0.303225
0.455362 0.674737 0.309112
0.497811 0.680623 0.314998
0.540260 0.686510 0.320885
0.582709 0.692397 0.326772
0.625158 0.698283 0.332658
0.667607 0.704170 0.338545
0.710056 0.710056 0.344431
0.752505 0.715943 0.350318
0.794954 0.721829 0.356204
0.837403 0.727716 0.362091
0.879852 0.733603 0.367977
0.911925 0.738050 0.372425
0.911925 0.738050 0.372425
0.297122 0.699310 0.297122
0.339571 0.705196 0.303009
0.382020 0.711083 0.308895
0.424469 0.716969 0.314782
0.466918 0.722856 0.320668
0.509367 0.728742 0.326555
0.551817 0.734629 0.332442
0.594266 0.740516 0.338328
0.636715 0.746402 0.344215
0.679164 0.752289 0.350101
0.721613 0.758175 0.355988
0.764062 0.764062 0.361874
0.806511 0.769948 0.367761
0.848960 0.775835 0.373647
0.891409 0.781722 0.379534
0.923482 0.786169 0.383982
0.923482 0.786169 0.383982
0.308679 0.747429 0.308679
0.351128 0.753315 0.314565
0.393577 0.759202 0.320452
0.436026 0.765088 0.326338
0.478475 0.770975 0.332225
0.520924 0.776862 0.338112
0.563373 0.782748 0.343998
0.605822 0.788635 0.349885
0.648271 0.794521 0.355771
0.690720 0.800408 0.361658
0.733169 0.806294 0.367544
0.775618 0.812181 0.373431
0.818067 0.818067 0.379317
0.860517 0.823954 0.385204
0.902966 0.829841 0.391091
0.935038 0.834288 0.395538
0.935038 0.834288 0.395538
0.320235 0.795548 0.320235
0.362684 0.801434 0.326122
0.405133 0.807321 0.332008
0.447582 0.813207 0.337895
0.490032 0.819094 0.343782
0.532481 0.824981 0.349668
0.574930 0.830867 0.355555
0.617379 0.836754 0.361441
0.659828 0.842640 0.367328
0.702277 0.848527 0.373214
0.744726 0.854413 0.379101
0.787175 0.860300 0.384987
0.829624 0.866187 0.390874
0.872073 0.872073 0.396761
0.914522 0.877960 0.402647
0.946595 0.882407 0.407095
0.946595 0.882407 0.407095
0.331792 0.843667 0.331792
0.374241 0.849553 0.337678
0.416690 0.855440 0.343565
0.459139 0.861327 0.349452
0.501588 0.867213 0.355338
0.544037 0.873100 0.361225
0.586486 0.878986 0.367111
0.628935 0.884873 0.372998
0.671384 0.890759 0.378884
0.713833 0.896646 0.384771
0.756282 0.902532 0.390657
0.798732 0.908419 0.396544
0.841181 0.914306 0.402431
0.883630 0.920192 0.408317
0.926079 0.926079 0.414204
0.958151 0.930526 0.418651
0.958151 0.930526 0.418651
0.340523 0.880023 0.340523
0.382973 0.885910 0.346410
0.425422 0.891797 0.352297
0.467871 0.897683 0.358183
0.510320 0.903570 0.364070
0.552769 0.909456 0.369956
0.595218 0.915343 0.375843
0.637667 0.921229 0.381729
0.680116 0.927116 0.387616
0.722565 0.933003 0.393503
0.765014 0.938889 0.399389
0.807463 0.944776 0.405276
0.849912 0.950662 0.411162
0.892361 0.956549 0.417049
0.934810 0.962435 0.422935
0.966883 0.966883 0.427383
0.966883 0.966883 0.427383
0.340523 0.880023 0.340523
0.382973 0.885910 0.346410
0.425422 0.891797 0.352297
0.467871 0.897683 0.358183
0.510320 0.903570 0.364070
0.552769 0.909456 0.369956
0.595218 0.915343 0.375843
0.637667 0.921229 0.381729
0.680116 0.927116 0.387616
0.722565 0.933003 0.393503
0.765014 0.938889 0.399389
0.807463 0.944776 0.405276
0.849912 0.950662 0.411162
0.892361 0.956549 0.417049
0.934810 0.962435 0.422935
0.966883 0.966883 0.427383
0.966883 0.966883 0.427383
0.172244 0.172244 0.208807
0.214693 0.178131 0.214693
0.257142 0.184017 0.220580
0.299592 0.189904 0.226467
0.342041 0.195791 0.232353
0.384490 0.201677 0.238240
0.426939 0.207564 0.244126
0.469388 0.213450 0.250013
0.511837 0.219337 0.255899
0.554286 0.225223 0.261786
0.596735 0.231110 0.267672
0.639184 0.236997 0.273559
0.681633 0.242883 0.279446
0.724082 0.248770 0.285332
0.766531 0.254656 0.291219
0.798604 0.259104 0.295666
0.798604 0.259104 0.295666
0.183801 0.220363 0.220363
0.226250 0.226250 0.226250
0.268699 0.232137 0.232137
0.311148 0.238023 0.238023
0.353597 0.243910 0.243910
0.396046 0.249796 0.249796
0.438495 0.255683 0.255683
0.480944 0.261569 0.261569
0.523393 0.267456 0.267456
0.565843 0.273342 0.273342
0.608292 0.279229 0.279229
0.650741 0.285116 0.285116
0.693190 0.291002 0.291002
0.735639 0.296889 0.296889
0.778088 0.302775 0.302775
0.810160 0.307223 0.307223
0.810160 0.307223 0.307223
0.195357 0.268482 0.231920
0.237807 0.274369 0.237807
0.280256 0.280256 0.243693
0.322705 0.286142 0.249580
0.365154 0.292029 0.255466
0.407603 0.297915 0.261353
0.450052 0.303802 0.267239
0.492501 0.309688 0.273126
0.534950 0.315575 0.279012
0.577399 0.321462 0.284899
0.619848 0.327348 0.290786
0.662297 0.333235 0.296672
0.704746 0.339121 0.302559
0.747195 0.345008 0.308445
0.789644 0.350894 0.314332
0.821717 0.355342 0.318779
0.821717 0.355342 0.318779
0.206914 0.316602 0.243477
0.249363 0.322488 0.249363
0.291812 0.328375 0.255250
0.334261 0.334261 0.261136
0.376710 0.340148 0.267023
0.419159 0.346034 0.272909
0.461608 0.351921 0.278796
0.504057 0.357808 0.284683
0.546507 0.363694 0.290569
0.588956 0.369581 0.296456
0.631405 0.375467 0.302342
0.673854 0.381354 0.308229
0.716303 0.387240 0.314115
0.758752 0.393127 0.320002
0.801201 0.399013 0.325888
0.833274 0.403461 0.330336
0.833274 0.403461 0.330336
0.218471 0.364721 0.255033
0.260920 0.370607 0.260920
0.303369 0.376494 0.266806
0.345818 0.382380 0.272693
0.388267 0.388267 0.278579
0.430716 0.394153 0.284466
0.473165 0.400040 0.290353
0.515614 0.405927 0.296239
0.558063 0.411813 0.302126
0.600512 0.417700 0.308012
0.642961 0.423586 0.313899
0.685410 0.429473 0.319785
0.727859 0.435359 0.325672
0.770308 0.441246 0.331558
0.812758 0.447133 0.337445
0.844830 0.451580 0.341893
0.844830 0.451580 0.341893
0.230027 0.412840 0.266590
0.272476 0.418726 0.272476
0.314925 0.424613 0.278363
0.357374 0.430499 0.284249
0.399823 0.436386 0.290136
0.442272 0.442272 0.296022
0.484722 0.448159 0.301909
0.527171 0.454046 0.307796
0.569620 0.459932 0.313682
0.612069 0.465819 0.319569
0.654518 0.471705 0.325455
0.696967 0.477592 0.331342
0.739416 0.483478 0.337228
0.781865 0.489365 0.343115
0.824314 0.495252 0.349002
0.856387 0.499699 0.353449
0.856387 0.499699 0.353449
0.241584 0.460959 0.278146
0.284033 0.466845 0.284033
0.326482 0.472732 0.289919
0.368931 0.478618 0.295806
0.411380 0.484505 0.301693
0.453829 0.490392 0.307579
0.496278 0.496278 0.313466
0.538727 0.502165 0.319352
0.581176 0.508051 0.325239
0.623625 0.513938 0.331125
0.666074 0.519824 0.337012
0.708523 0.525711 0.342898
0.750973 0.531598 0.348785
0.793422 0.537484 0.354672
0.835871 0.543371 0.360558
0.867943 0.547818 0.365006
0.867943 0.547818 0.365006
0.253140 0.509078 0.289703
0.295589 0.514964 0.295589
0.338038 0.520851 0.301476
0.380487 0.526737 0.307362
0.422937 0.532624 0.313249
0.465386 0.538511 0.319136
0.507835 0.544397 0.325022
0.550284 0.550284 0.330909
0.592733 0.556170 0.336795
0.635182 0.562057 0.342682
0.677631 0.567943 0.348568
0.720080 0.573830 0.354455
0.762529 0.579717 0.360342
0.804978 0.585603 0.366228
0.847427 0.591490 0.372115
0.879500 0.595937 0.376562
0.879500 0.595937 0.376562
0.264697 0.557197 0.301259
0.307146 0.563083 0.307146
0.349595 0.568970 0.313032
0.392044 0.574857 0.318919
0.434493 0.580743 0.324806
0.476942 0.586630 0.330692
0.519391 0.592516 0.336579
0.561840 0.598403 0.342465
0.604289 0.604289 0.348352
0.646738 0.610176 0.354238
0.689188 0.616062 0.360125
0.731637 0.621949 0.366012
0.774086 0.627836 0.371898
0.816535 0.633722 0.377785
0.858984 0.639609 0.383671
0.891056 0.644056 0.388119
0.891056 0.644056 0.388119
0.276253 0.605316 0.312816
0.318702 0.611202 0.318702
0.361152 0.617089 0.324589
0.403601 0.622976 0.330476
0.446050 0.628862 0.336362
0.488499 0.634749 0.342249
0.530948 0.640635 0.348135
0.573397 0.646522 0.354022
0.615846 0.652408 0.359908
0.658295 0.658295 0.365795
0.700744 0.664182 0.371682
0.743193 0.670068 0.377568
0.785642 0.675955 0.383455
0.828091 0.681841 0.389341
0.870540 0.687728 0.395228
0.902613 0.692175 0.399675
0.902613 0.692175 0.399675
0.287810 0.653435 0.324373
0.330259 0.659322 0.330259
0.372708 0.665208 0.336146
0.415157 0.671095 0.342032
0.457606 0.676981 0.347919
0.500055 0.682868 0.353805
0.542504 0.688754 0.359692
0.584953 0.694641 0.365578
0.627402 0.700527 0.371465
0.669852 0.706414 0.377352
0.712301 0.712301 0.383238
0.754750 0.718187 0.389125
0.797199 0.724074 0.395011
0.839648 0.729960 0.400898
0.882097 0.735847 0.406784
0.914170 0.740295 0.411232
0.914170 0.740295 0.411232
0.299367 0.701554 0.335929
0.341816 0.707441 0.341816
0.384265 0.713327 0.347702
0.426714 0.719214 0.353589
0.469163 0.725100 0.359475
0.511612 0.730987 0.365362
0.554061 0.736873 0.371248
0.596510 0.742760 0.377135
0.638959 0.748647 0.383022
0.681408 0.754533 0.388908
0.723857 0.760420 0.394795
0.766306 0.766306 0.400681
0.808755 0.772193 0.406568
0.851204 0.778079 0.412454
0.893653 0.783966 0.418341
0.925726 0.788414 0.422789
0.925726 0.788414 0.422789
0.310923 0.749673 0.347486
0.353372 0.755560 0.353372
0.395821 0.761446 0.359259
0.438270 0.767333 0.365145
0.480719 0.773219 0.371032
0.523168 0.779106 0.376918
0.565617 0.784992 0.382805
0.608067 0.790879 0.388692
0.650516 0.796766 0.394578
0.692965 0.802652 0.400465
0.735414 0.808539 0.406351
0.777863 0.814425 0.412238
0.820312 0.820312 0.418124
0.862761 0.826198 0.424011
0.905210 0.832085 0.429897
0.937283 0.836533 0.434345
0.937283 0.836533 0.434345
0.322480 0.797792 0.359042
0.364929 0.803679 0.364929
0.407378 0.809565 0.370815
0.449827 0.815452 0.376702
0.492276 0.821338 0.382588
0.534725 0.827225 0.388475
0.577174 0.833112 0.394362
0.619623 0.838998 0.400248
0.662072 0.844885 0.406135
0.704521 0.850771 0.412021
0.746970 0.856658 0.417908
0.789419 0.862544 0.423794
0.831868 0.868431 0.429681
0.874317 0.874317 0.435567
0.916767 0.880204 0.441454
0.948839 0.884652 0.445902
0.948839 0.884652 0.445902
0.334036 0.845911 0.370599
0.376485 0.851798 0.376485
0.418934 0.857684 0.382372
0.461383 0.863571 0.388258
0.503833 0.869457 0.394145
0.546282 0.875344 0.400032
0.588731 0.881231 0.405918
0.631180 0.887117 0.411805
0.673629 0.893004 0.417691
0.716078 0.898890 0.423578
0.758527 0.904777 0.429464
0.800976 0.910663 0.435351
0.843425 0.916550 0.441237
0.885874 0.922437 0.447124
0.928323 0.928323 0.453011
0.960396 0.932771 0.457458
0.960396 0.932771 0.457458
0.342768 0.882268 0.379330
0.385217 0.888154 0.385217
0.427666 0.894041 0.391103
0.470115 0.899928 0.396990
0.512564 0.905814 0.402877
0.555013 0.911701 0.408763
0.597462 0.917587 0.414650
0.639911 0.923474 0.420536
0.682360 0.929360 0.426423
0.724809 0.935247 0.432309
0.767258 0.941133 0.438196
0.809708 0.947020 0.444083
0.852157 0.952907 0.449969
0.894606 0.958793 0.455856
0.937055 0.964680 0.461742
0.969127 0.969127 0.466190
0.969127 0.969127 0.466190
0.342768 0.882268 0.379330
0.385217 0.888154 0.385217
0.427666 0.894041 0.391103
0.470115 0.899928 0.396990
0.512564 0.905814 0.402877
0.555013 0.911701 0.408763
0.597462 0.917587 0.414650
0.639911 0.923474 0.420536
0.682360 0.929360 0.426423
0.724809 0.935247 0.432309
0.767258 0.941133 0.438196
0.809708 0.947020 0.444083
0.852157 0.952907 0.449969
0.894606 0.958793 0.455856
0.937055 0.964680 0.461742
0.969127 0.969127 0.466190
0.969127 0.969127 0.466190
0.174489 0.174489 0.247614
0.216938 0.180375 0.253500
0.259387 0.186262 0.259387
0.301836 0.192148 0.265273
0.344285 0.198035 0.271160
0.386734 0.203922 0.277047
0.429183 0.209808 0.282933
0.471632 0.215695 0.288820
0.514081 0.221581 0.294706
0.556530 0.227468 0.300593
0.598979 0.233354 0.306479
0.641428 0.239241 0.312366
0.683877 0.245127 0.318252
0.726327 0.251014 0.324139
0.768776 0.256901 0.330026
0.800848 0.261348 0.334473
0.800848 0.261348 0.334473
0.186045 0.222608 0.259170
0.228494 0.228494 0.265057
0.270943 0.234381 0.270943
0.313392 0.240267 0.276830
0.355842 0.246154 0.282717
0.398291 0.252041 0.288603
0.440740 0.257927 0.294490
0.483189 0.263814 0.300376
0.525638 0.269700 0.306263
0.568087 0.275587 0.312149
0.610536 0.281473 0.318036
0.652985 0.287360 0.323923
0.695434 0.293247 0.329809
0.737883 0.299133 0.335696
0.780332 0.305020 0.341582
0.812405 0.309467 0.346030
0.812405 0.309467 0.346030
0.197602 0.270727 0.270727
0.240051 0.276613 0.276613
0.282500 0.282500 0.282500
0.324949 0.288387 0.288387
0.367398 0.294273 0.294273
0.409847 0.300160 0.300160
0.452296 0.306046 0.306046
0.494745 0.311933 0.311933
0.537194 0.317819 0.317819
0.579643 0.323706 0.323706
0.622093 0.329592 0.329592
0.664542 0.335479 0.335479
0.706991 0.341366 0.341366
0.749440 0.347252 0.347252
0.791889 0.353139 0.353139
0.823961 0.357586 0.357586
0.823961 0.357586 0.357586
0.209158 0.318846 0.282283
0.251607 0.324732 0.288170
0.294057 0.330619 0.294057
0.336506 0.336506 0.299943
0.378955 0.342392 0.305830
0.421404 0.348279 0.311716
0.463853 0.354165 0.317603
0.506302 0.360052 0.323489
0.548751 0.365938 0.329376
0.591200 0.371825 0.335262
0.633649 0.377712 0.341149
0.676098 0.383598 0.347036
0.718547 0.389485 0.352922
0.760996 0.395371 0.358809
0.803445 0.401258 0.364695
0.835518 0.405705 0.369143
0.835518 0.405705 0.369143
0.220715 0.366965 0.293840
0.263164 0.372852 0.299727
0.305613 0.378738 0.305613
0.348062 0.384625 0.311500
0.390511 0.390511 0.317386
0.432960 0.396398 0.323273
0.475409 0.402284 0.329159
0.517858 0.408171 0.335046
0.560307 0.414057 0.340932
0.602757 0.419944 0.346819
0.645206 0.425831 0.352706
0.687655 0.431717 0.358592
0.730104 0.437604 0.364479
0.772553 0.443490 0.370365
0.815002 0.449377 0.376252
0.847074 0.453824 0.380699
0.847074 0.453824 0.380699
0.232272 0.415084 0.305397
0.274721 0.420971 0.311283
0.317170 0.426857 0.317170
0.359619 0.432744 0.323056
0.402068 0.438630 0.328943
0.444517 0.444517 0.334829
0.486966 0.450403 0.340716
0.529415 0.456290 0.346602
0.571864 0.462177 0.352489
0.614313 0.468063 0.358376
0.656762 0.473950 0.364262
0.699211 0.479836 0.370149
0.741660 0.485723 0.376035
0.784109 0.491609 0.381922
0.826558 0.497496 0.387808
0.858631 0.501944 0.392256
0.858631 0.501944 0.392256
0.243828 0.463203 0.316953
0.286277 0.469090 0.322840
0.328726 0.474976 0.328726
0.371175 0.480863 0.334613
0.413624 0.486749 0.340499
0.456073 0.492636 0.346386
0.498523 0.498523 0.352272
0.540972 0.504409 0.358159
0.583421 0.510296 0.364046
0.625870 0.516182 0.369932
0.668319 0.522069 0.375819
0.710768 0.527955 0.381705
0.753217 0.533842 0.387592
0.795666 0.539728 0.393478
0.838115 0.545615 0.399365
0.870188 0.550063 0.403813
0.870188 0.550063 0.403813
0.255385 0.511322 0.328510
0.297834 0.517209 0.334396
0.340283 0.523095 0.340283
0.382732 0.528982 0.346169
0.425181 0.534868 0.352056
0.467630 0.540755 0.357942
0.510079 0.546642 0.363829
0.552528 0.552528 0.369716
0.594977 0.558415 0.375602
0.637426 0.564301 0.381489
0.679875 0.570188 0.387375
0.722324 0.576074 0.393262
0.764773 0.581961 0.399148
0.807222 0.587847 0.405035
0.849672 0.593734 0.410922
0.881744 0.598182 0.415369
0.881744 0.598182 0.415369
0.266941 0.559441 0.340066
0.309390 0.565328 0.345953
0.351839 0.571214 0.351839
0.394288 0.577101 0.357726
0.436738 0.582987 0.363613
0.479187 0.588874 0.369499
0.521636 0.594761 0.375386
0.564085 0.600647 0.381272
0.606534 0.606534 0.387159
0.648983 0.612420 0.393045
0.691432 0.618307 0.398932
0.733881 0.624193 0.404818
0.776330 0.630080 0.410705
0.818779 0.635967 0.416592
0.861228 0.641853 0.422478
0.893301 0.646301 0.426926
0.893301 0.646301 0.426926
0.278498 0.607560 0.351623
0.320947 0.613447 0.357509
0.363396 0.619333 0.363396
0.405845 0.625220 0.369282
0.448294 0.631107 0.375169
0.490743 0.636993 0.381056
0.533192 0.642880 0.386942
0.575641 0.648766 0.392829
0.618090 0.654653 0.398715
0.660539 0.660539 0.404602
0.702988 0.666426 0.410488
0.745437 0.672312 0.416375
0.787887 0.678199 0.422262
0.830336 0.684086 0.428148
0.872785 0.689972 0.434035
0.904857 0.694420 0.438482
0.904857 0.694420 0.438482
0.290054 0.655679 0.363179
0.332503 0.661566 0.369066
0.374953 0.667453 0.374953
0.417402 0.673339 0.380839
0.459851 0.679226 0.386726
0.502300 0.685112 0.392612
0.544749 0.690999 0.398499
0.587198 0.696885 0.404385
0.629647 0.702772 0.410272
0.672096 0.708658 0.416158
0.714545 0.714545 0.422045
0.756994 0.720432 0.427932
0.799443 0.726318 0.433818
0.841892 0.732205 0.439705
0.884341 0.738091 0.445591
0.916414 0.742539 0.450039
0.916414 0.742539 0.450039
0.301611 0.703798 0.374736
0.344060 0.709685 0.380622
0.386509 0.715572 0.386509
0.428958 0.721458 0.392396
0.471407 0.727345 0.398282
0.513856 0.733231 0.404169
0.556305 0.739118 0.410055
0.598754 0.745004 0.415942
0.641203 0.750891 0.421828
0.683652 0.756777 0.427715
0.726102 0.762664 0.433602
0.768551 0.768551 0.439488
0.811000 0.774437 0.445375
0.853449 0.780324 0.451261
0.895898 0.786210 0.457148
0.927970 0.790658 0.461595
0.927970 0.790658 0.461595
0.313167 0.751918 0.386292
0.355617 0.757804 0.392179
0.398066 0.763691 0.398066
0.440515 0.769577 0.403952
0.482964 0.775464 0.409839
0.525413 0.781350 0.415725
0.567862 0.787237 0.421612
0.610311 0.793123 0.427498
0.652760 0.799010 0.433385
0.695209 0.804897 0.439272
0.737658 0.810783 0.445158
0.780107 0.816670 0.451045
0.822556 0.822556 0.456931
0.865005 0.828443 0.462818
0.907454 0.834329 0.468704
0.939527 0.838777 0.473152
0.939527 0.838777 0.473152
0.324724 0.800037 0.397849
0.367173 0.805923 0.403736
0.409622 0.811810 0.409622
0.452071 0.817696 0.415509
0.494520 0.823583 0.421395
0.536969 0.829469 0.427282
0.579418 0.835356 0.433168
0.621868 0.841243 0.439055
0.664317 0.847129 0.444942
0.706766 0.853016 0.450828
0.749215 0.858902 0.456715
0.791664 0.864789 0.462601
0.834113 0.870675 0.468488
0.876562 0.876562 0.474374
0.919011 0.882448 0.480261
0.951084 0.886896 0.484709
0.951084 0.886896 0.484709
0.336281 0.848156 0.409406
0.378730 0.854042 0.415292
0.421179 0.859929 0.421179
0.463628 0.865815 0.427065
0.506077 0.871702 0.432952
0.548526 0.877588 0.438838
0.590975 0.883475 0.444725
0.633424 0.889362 0.450612
0.675873 0.895248 0.456498
0.718322 0.901135 0.462385
0.760771 0.907021 0.468271
0.803220 0.912908 0.474158
0.845669 0.918794 0.480044
0.888118 0.924681 0.485931
0.930567 0.930567 0.491817
0.962640 0.935015 0.496265
0.962640 0.935015 0.496265
0.345012 0.884512 0.418137
0.387461 0.890399 0.424024
0.429910 0.896285 0.429910
0.472359 0.902172 0.435797
0.514809 0.908058 0.441684
0.557258 0.913945 0.447570
0.599707 0.919832 0.453457
0.642156 0.925718 0.459343
0.684605 0.931605 0.465230
0.727054 0.937491 0.471116
0.769503 0.943378 0.477003
0.811952 0.949264 0.482889
0.854401 0.955151 0.488776
0.896850 0.961038 0.494663
0.939299 0.966924 0.500549
0.971372 0.971372 0.504997
0.971372 0.971372 0.504997
0.345012 0.884512 0.418137
0.387461 0.890399 0.424024
0.429910 0.896285 0.429910
0.472359 0.902172 0.435797
0.514809 0.908058 0.441684
0.557258 0.913945 0.447570
0.599707 0.919832 0.453457
0.642156 0.925718 0.459343
0.684605 0.931605 0.465230
0.727054 0.937491 0.471116
0.769503 0.943378 0.477003
0.811952 0.949264 0.482889
0.854401 0.955151 0.488776
0.896850 0.961038 0.494663
0.939299 0.966924 0.500549
0.971372 0.971372 0.504997
0.971372 0.971372 0.504997
0.176733 0.176733 0.286421
0.219182 0.182620 0.292307
0.261631 0.188506 0.298194
0.304080 0.194393 0.304080
0.346529 0.200279 0.309967
0.388978 0.206166 0.315853
0.431428 0.212052 0.321740
0.473877 0.217939 0.327627
0.516326 0.223826 0.333513
0.558775 0.229712 0.339400
0.601224 0.235599 0.345286
0.643673 0.241485 0.351173
0.686122 0.247372 0.357059
0.728571 0.253258 0.362946
0.771020 0.259145 0.368833
0.803093 0.263593 0.373280
0.803093 0.263593 0.373280
0.188290 0.224852 0.297977
0.230739 0.230739 0.303864
0.273188 0.236625 0.309750
