server/luts/sunset.cube
TITLE "Sunset"
LUT_3D_SIZE 9
0.034500 0.028500 0.025500
0.077995 0.025837 0.023117
0.295471 0.012522 0.011204
0.512947 0.000000 0.000000
0.730423 0.000000 0.000000
0.947898 0.000000 0.000000
1.000000 0.000000 0.000000
1.000000 0.000000 0.000000
1.000000 0.000000 0.000000
0.028171 0.061866 0.020822
0.071667 0.059203 0.018440
0.289142 0.045888 0.006526
0.506618 0.032573 0.000000
0.724094 0.019258 0.000000
0.941570 0.005943 0.000000
1.000000 0.000000 0.000000
1.000000 0.000000 0.000000
1.000000 0.000000 0.000000
0.000000 0.228695 0.000000
0.040024 0.226032 0.000000
0.257499 0.212717 0.000000
0.474975 0.199402 0.000000
0.692451 0.186087 0.000000
0.909927 0.172772 0.000000
1.000000 0.159458 0.000000
1.000000 0.146143 0.000000
1.000000 0.146036 0.000000
0.000000 0.395524 0.000000
0.008381 0.392861 0.000000
0.225856 0.379546 0.000000
0.443332 0.366231 0.000000
0.660808 0.352916 0.000000
0.878284 0.339601 0.000000
1.000000 0.326286 0.000000
1.000000 0.312972 0.000000
1.000000 0.312865 0.000000
0.000000 0.562352 0.000000
0.000000 0.559690 0.000000
0.194213 0.546375 0.000000
0.411689 0.533060 0.000000
0.629165 0.519745 0.000000
0.846641 0.506430 0.000000
1.000000 0.493115 0.000000
1.000000 0.479800 0.000000
1.000000 0.479694 0.000000
0.000000 0.729181 0.000000
0.000000 0.726518 0.000000
0.162570 0.713204 0.000000
0.380046 0.699889 0.000000
0.597522 0.686574 0.000000
0.814998 0.673259 0.000000
1.000000 0.659944 0.000000
1.000000 0.646629 0.000000
1.000000 0.646523 0.000000
0.000000 0.896010 0.000000
0.000000 0.893347 0.000000
0.130928 0.880032 0.000000
0.348403 0.866718 0.000000
0.565879 0.853403 0.000000
0.783355 0.840088 0.000000
1.000000 0.826773 0.000000
1.000000 0.813458 0.000000
1.000000 0.813352 0.000000
0.000000 0.950000 0.000000
0.000000 0.950000 0.000000
0.099285 0.950000 0.000000
0.316760 0.950000 0.000000
0.534236 0.950000 0.000000
0.751712 0.950000 0.000000
0.969188 0.950000 0.000000
1.000000 0.950000 0.000000
1.000000 0.950000 0.000000
0.000000 0.950000 0.000000
0.000000 0.950000 0.000000
0.099031 0.950000 0.000000
0.316507 0.950000 0.000000
0.533983 0.950000 0.000000
0.751459 0.950000 0.000000
0.968935 0.950000 0.000000
1.000000 0.950000 0.000000
1.000000 0.950000 0.000000
0.033271 0.027485 0.059123
0.076766 0.024822 0.056740
0.294242 0.011507 0.044827
0.511718 0.000000 0.032914
0.729193 0.000000 0.021000
0.946669 0.000000 0.009087
1.000000 0.000000 0.000000
1.000000 0.000000 0.000000
1.000000 0.000000 0.000000
0.026942 0.060850 0.054445
0.070438 0.058187 0.052062
0.287913 0.044873 0.040149
0.505389 0.031558 0.028236
0.722865 0.018243 0.016323
0.940341 0.004928 0.004409
1.000000 0.000000 0.000000
1.000000 0.000000 0.000000
1.000000 0.000000 0.000000
0.000000 0.227679 0.031057
0.038795 0.225016 0.028674
0.256270 0.211702 0.016761
0.473746 0.198387 0.004848
0.691222 0.185072 0.000000
0.908698 0.171757 0.000000
1.000000 0.158442 0.000000
1.000000 0.145127 0.000000
1.000000 0.145021 0.000000
0.000000 0.394508 0.007669
0.007152 0.391845 0.005286
0.224627 0.378530 0.000000
0.442103 0.365216 0.000000
0.659579 0.351901 0.000000
0.877055 0.338586 0.000000
1.000000 0.325271 0.000000
1.000000 0.311956 0.000000
1.000000 0.311850 0.000000
0.000000 0.561337 0.000000
0.000000 0.558674 0.000000
0.192984 0.545359 0.000000
0.410460 0.532045 0.000000
0.627936 0.518730 0.000000
0.845412 0.505415 0.000000
1.000000 0.492100 0.000000
1.000000 0.478785 0.000000
1.000000 0.478679 0.000000
0.000000 0.728166 0.000000
0.000000 0.725503 0.000000
0.161341 0.712188 0.000000
0.378817 0.698873 0.000000
0.596293 0.685559 0.000000
0.813769 0.672244 0.000000
1.000000 0.658929 0.000000
1.000000 0.645614 0.000000
1.000000 0.645508 0.000000
0.000000 0.894995 0.000000
0.000000 0.892332 0.000000
0.129698 0.879017 0.000000
0.347174 0.865702 0.000000
0.564650 0.852387 0.000000
0.782126 0.839073 0.000000
0.999602 0.825758 0.000000
1.000000 0.812443 0.000000
1.000000 0.812336 0.000000
0.000000 0.950000 0.000000
0.000000 0.950000 0.000000
0.098055 0.950000 0.000000
0.315531 0.950000 0.000000
0.533007 0.950000 0.000000
0.750483 0.950000 0.000000
0.967959 0.950000 0.000000
1.000000 0.950000 0.000000
1.000000 0.950000 0.000000
0.000000 0.950000 0.000000
0.000000 0.950000 0.000000
0.097802 0.950000 0.000000
0.315278 0.950000 0.000000
0.532754 0.950000 0.000000
0.750230 0.950000 0.000000
0.967705 0.950000 0.000000
1.000000 0.950000 0.000000
1.000000 0.950000 0.000000
0.027126 0.022408 0.227237
0.070621 0.019745 0.224854
0.288097 0.006430 0.212941
0.505572 0.000000 0.201028
0.723048 0.000000 0.189114
0.940524 0.000000 0.177201
1.000000 0.000000 0.165288
1.000000 0.000000 0.153375
1.000000 0.000000 0.153279
0.020797 0.055774 0.222559
0.064292 0.053111 0.220177
0.281768 0.039796 0.208263
0.499244 0.026481 0.196350
0.716720 0.013166 0.184437
0.934195 0.000000 0.172523
1.000000 0.000000 0.160610
1.000000 0.000000 0.148697
1.000000 0.000000 0.148602
0.000000 0.222603 0.199171
0.032649 0.219940 0.196788
0.250125 0.206625 0.184875
0.467601 0.193310 0.172962
0.685077 0.179995 0.161048
0.902552 0.166680 0.149135
1.000000 0.153366 0.137222
1.000000 0.140051 0.125309
1.000000 0.139944 0.125213
0.000000 0.389432 0.175783
0.001006 0.386769 0.173400
0.218482 0.373454 0.161487
0.435958 0.360139 0.149573
0.653434 0.346824 0.137660
0.870909 0.333509 0.125747
1.000000 0.320195 0.113834
1.000000 0.306880 0.101920
1.000000 0.306773 0.101825
0.000000 0.556261 0.152394
0.000000 0.553598 0.150012
0.186839 0.540283 0.138098
0.404315 0.526968 0.126185
0.621791 0.513653 0.114272
0.839266 0.500338 0.102359
1.000000 0.487023 0.090445
1.000000 0.473709 0.078532
1.000000 0.473602 0.078437
0.000000 0.723090 0.129006
0.000000 0.720427 0.126623
0.155196 0.707112 0.114710
0.372672 0.693797 0.102797
0.590148 0.680482 0.090884
0.807623 0.667167 0.078970
1.000000 0.653852 0.067057
1.000000 0.640537 0.055144
1.000000 0.640431 0.055048
0.000000 0.889918 0.105618
0.000000 0.887255 0.103235
0.123553 0.873941 0.091322
0.341029 0.860626 0.079409
0.558505 0.847311 0.067495
0.775980 0.833996 0.055582
0.993456 0.820681 0.043669
1.000000 0.807366 0.031755
1.000000 0.807260 0.031660
0.000000 0.950000 0.082230
0.000000 0.950000 0.079847
0.091910 0.950000 0.067934
0.309386 0.950000 0.056020
0.526862 0.950000 0.044107
0.744337 0.950000 0.032194
0.961813 0.950000 0.020280
1.000000 0.950000 0.008367
1.000000 0.950000 0.008272
0.000000 0.950000 0.082042
0.000000 0.950000 0.079660
0.091657 0.950000 0.067746
0.309133 0.950000 0.055833
0.526609 0.950000 0.043920
0.744084 0.950000 0.032007
0.961560 0.950000 0.020093
1.000000 0.950000 0.008180
1.000000 0.950000 0.008085
0.020980 0.017332 0.395351
0.064475 0.014669 0.392968
0.281951 0.001354 0.381055
0.499427 0.000000 0.369142
0.716903 0.000000 0.357228
0.934379 0.000000 0.345315
1.000000 0.000000 0.333402
1.000000 0.000000 0.321489
1.000000 0.000000 0.321393
0.014652 0.050697 0.390673
0.058147 0.048034 0.388291
0.275623 0.034720 0.376377
0.493098 0.021405 0.364464
0.710574 0.008090 0.352551
0.928050 0.000000 0.340638
1.000000 0.000000 0.328724
1.000000 0.000000 0.316811
1.000000 0.000000 0.316716
0.000000 0.217526 0.367285
0.026504 0.214863 0.364902
0.243980 0.201548 0.352989
0.461455 0.188234 0.341076
0.678931 0.174919 0.329163
0.896407 0.161604 0.317249
1.000000 0.148289 0.305336
1.000000 0.134974 0.293423
1.000000 0.134868 0.293327
0.000000 0.384355 0.343897
0.000000 0.381692 0.341514
0.212337 0.368377 0.329601
0.429812 0.355063 0.317688
0.647288 0.341748 0.305774
0.864764 0.328433 0.293861
1.000000 0.315118 0.281948
1.000000 0.301803 0.270034
1.000000 0.301697 0.269939
0.000000 0.551184 0.320508
0.000000 0.548521 0.318126
0.180694 0.535206 0.306212
0.398170 0.521891 0.294299
0.615645 0.508577 0.282386
0.833121 0.495262 0.270473
1.000000 0.481947 0.258559
1.000000 0.468632 0.246646
1.000000 0.468526 0.246551
0.000000 0.718013 0.297120
0.000000 0.715350 0.294737
0.149051 0.702035 0.282824
0.366527 0.688720 0.270911
0.584002 0.675405 0.258998
0.801478 0.662091 0.247084
1.000000 0.648776 0.235171
1.000000 0.635461 0.223258
1.000000 0.635354 0.223163
0.000000 0.884842 0.273732
0.000000 0.882179 0.271349
0.117408 0.868864 0.259436
0.334884 0.855549 0.247523
0.552359 0.842234 0.235609
0.769835 0.828920 0.223696
0.987311 0.815605 0.211783
1.000000 0.802290 0.199870
1.000000 0.802183 0.199774
0.000000 0.950000 0.250344
0.000000 0.950000 0.247961
0.085765 0.950000 0.236048
0.303241 0.950000 0.224134
0.520716 0.950000 0.212221
0.738192 0.950000 0.200308
0.955668 0.950000 0.188395
1.000000 0.950000 0.176481
1.000000 0.950000 0.176386
0.000000 0.950000 0.250156
0.000000 0.950000 0.247774
0.085512 0.950000 0.235861
0.302987 0.950000 0.223947
0.520463 0.950000 0.212034
0.737939 0.950000 0.200121
0.955415 0.950000 0.188207
1.000000 0.950000 0.176294
1.000000 0.950000 0.176199
0.014835 0.012255 0.563465
0.058330 0.009592 0.561082
0.275806 0.000000 0.549169
0.493282 0.000000 0.537256
0.710757 0.000000 0.525342
0.928233 0.000000 0.513429
1.000000 0.000000 0.501516
1.000000 0.000000 0.489603
1.000000 0.000000 0.489507
0.008506 0.045621 0.558787
0.052002 0.042958 0.556405
0.269477 0.029643 0.544491
0.486953 0.016328 0.532578
0.704429 0.003013 0.520665
0.921905 0.000000 0.508752
1.000000 0.000000 0.496838
1.000000 0.000000 0.484925
1.000000 0.000000 0.484830
0.000000 0.212450 0.535399
0.020359 0.209787 0.533016
0.237834 0.196472 0.521103
0.455310 0.183157 0.509190
0.672786 0.169842 0.497277
0.890262 0.156527 0.485363
1.000000 0.143212 0.473450
1.000000 0.129898 0.461537
1.000000 0.129791 0.461441
0.000000 0.379279 0.512011
0.000000 0.376616 0.509628
0.206191 0.363301 0.497715
0.423667 0.349986 0.485802
0.641143 0.336671 0.473888
0.858619 0.323356 0.461975
1.000000 0.310041 0.450062
1.000000 0.296727 0.438148
1.000000 0.296620 0.438053
0.000000 0.546108 0.488623
0.000000 0.543445 0.486240
0.174548 0.530130 0.474327
0.392024 0.516815 0.462413
0.609500 0.503500 0.450500
0.826976 0.490185 0.438587
1.000000 0.476870 0.426673
1.000000 0.463555 0.414760
1.000000 0.463449 0.414665
0.000000 0.712936 0.465234
0.000000 0.710273 0.462852
0.142905 0.696959 0.450938
0.360381 0.683644 0.439025
0.577857 0.670329 0.427112
0.795333 0.657014 0.415198
1.000000 0.643699 0.403285
1.000000 0.630384 0.391372
1.000000 0.630278 0.391277
0.000000 0.879765 0.441846
0.000000 0.877102 0.439463
0.111263 0.863788 0.427550
0.328738 0.850473 0.415637
0.546214 0.837158 0.403723
0.763690 0.823843 0.391810
0.981166 0.810528 0.379897
1.000000 0.797213 0.367984
1.000000 0.797107 0.367888
0.000000 0.950000 0.418458
0.000000 0.950000 0.416075
0.079620 0.950000 0.404162
0.297095 0.950000 0.392248
0.514571 0.950000 0.380335
0.732047 0.950000 0.368422
0.949523 0.950000 0.356509
1.000000 0.950000 0.344595
1.000000 0.950000 0.344500
0.000000 0.950000 0.418271
0.000000 0.950000 0.415888
0.079366 0.950000 0.403975
0.296842 0.950000 0.392061
0.514318 0.950000 0.380148
0.731794 0.950000 0.368235
0.949270 0.950000 0.356321
1.000000 0.950000 0.344408
1.000000 0.950000 0.344313
0.008690 0.007178 0.731579
0.052185 0.004515 0.729196
0.269661 0.000000 0.717283
0.487136 0.000000 0.705370
0.704612 0.000000 0.693457
0.922088 0.000000 0.681543
1.000000 0.000000 0.669630
1.000000 0.000000 0.657717
1.000000 0.000000 0.657621
0.002361 0.040544 0.726901
0.045856 0.037881 0.724519
0.263332 0.024566 0.712605
0.480808 0.011252 0.700692
0.698284 0.000000 0.688779
0.915759 0.000000 0.676866
1.000000 0.000000 0.664952
1.000000 0.000000 0.653039
1.000000 0.000000 0.652944
0.000000 0.207373 0.703513
0.014213 0.204710 0.701130
0.231689 0.191395 0.689217
0.449165 0.178080 0.677304
0.666641 0.164766 0.665391
0.884116 0.151451 0.653477
1.000000 0.138136 0.641564
1.000000 0.124821 0.629651
1.000000 0.124715 0.629555
0.000000 0.374202 0.680125
0.000000 0.371539 0.677742
0.200046 0.358224 0.665829
0.417522 0.344909 0.653916
0.634998 0.331595 0.642002
0.852473 0.318280 0.630089
1.000000 0.304965 0.618176
1.000000 0.291650 0.606263
1.000000 0.291543 0.606167
0.000000 0.541031 0.656737
0.000000 0.538368 0.654354
0.168403 0.525053 0.642441
0.385879 0.511738 0.630527
0.603355 0.498423 0.618614
0.820830 0.485109 0.606701
1.000000 0.471794 0.594788
1.000000 0.458479 0.582874
1.000000 0.458372 0.582779
0.000000 0.707860 0.633348
0.000000 0.705197 0.630966
0.136760 0.691882 0.619052
0.354236 0.678567 0.607139
0.571712 0.665252 0.595226
0.789187 0.651937 0.583313
1.000000 0.638623 0.571399
1.000000 0.625308 0.559486
1.000000 0.625201 0.559391
0.000000 0.874689 0.609960
0.000000 0.872026 0.607577
0.105117 0.858711 0.595664
0.322593 0.845396 0.583751
0.540069 0.832081 0.571837
0.757545 0.818766 0.559924
0.975020 0.805452 0.548011
1.000000 0.792137 0.536098
1.000000 0.792030 0.536002
0.000000 0.950000 0.586572
0.000000 0.950000 0.584189
0.073474 0.950000 0.572276
0.290950 0.950000 0.560362
0.508426 0.950000 0.548449
0.725902 0.950000 0.536536
0.943377 0.950000 0.524623
1.000000 0.950000 0.512709
1.000000 0.950000 0.512614
0.000000 0.950000 0.586385
0.000000 0.950000 0.584002
0.073221 0.950000 0.572089
0.290697 0.950000 0.560175
0.508173 0.950000 0.548262
0.725648 0.950000 0.536349
0.943124 0.950000 0.524436
1.000000 0.950000 0.512522
1.000000 0.950000 0.512427
0.002544 0.002102 0.850000
0.046040 0.000000 0.850000
0.263515 0.000000 0.850000
0.480991 0.000000 0.850000
0.698467 0.000000 0.850000
0.915943 0.000000 0.849657
1.000000 0.000000 0.837744
1.000000 0.000000 0.825831
1.000000 0.000000 0.825735
0.000000 0.035468 0.850000
0.039711 0.032805 0.850000
0.257187 0.019490 0.850000
0.474663 0.006175 0.850000
0.692138 0.000000 0.850000
0.909614 0.000000 0.844980
1.000000 0.000000 0.833066
1.000000 0.000000 0.821153
1.000000 0.000000 0.821058
0.000000 0.202297 0.850000
0.008068 0.199634 0.850000
0.225544 0.186319 0.850000
0.443020 0.173004 0.845418
0.660495 0.159689 0.833505
0.877971 0.146374 0.821591
1.000000 0.133059 0.809678
1.000000 0.119745 0.797765
1.000000 0.119638 0.797670
0.000000 0.369125 0.848239
0.000000 0.366463 0.845856
0.193901 0.353148 0.833943
0.411377 0.339833 0.822030
0.628852 0.326518 0.810116
0.846328 0.313203 0.798203
1.000000 0.299888 0.786290
1.000000 0.286573 0.774377
1.000000 0.286467 0.774281
0.000000 0.535954 0.824851
0.000000 0.533291 0.822468
0.162258 0.519977 0.810555
0.379734 0.506662 0.798641
0.597209 0.493347 0.786728
0.814685 0.480032 0.774815
1.000000 0.466717 0.762902
1.000000 0.453402 0.750988
1.000000 0.453296 0.750893
0.000000 0.702783 0.801462
0.000000 0.700120 0.799080
0.130615 0.686805 0.787166
0.348091 0.673491 0.775253
0.565566 0.660176 0.763340
0.783042 0.646861 0.751427
1.000000 0.633546 0.739513
1.000000 0.620231 0.727600
1.000000 0.620125 0.727505
0.000000 0.869612 0.778074
0.000000 0.866949 0.775691
0.098972 0.853634 0.763778
0.316448 0.840320 0.751865
0.533923 0.827005 0.739952
0.751399 0.813690 0.728038
0.968875 0.800375 0.716125
1.000000 0.787060 0.704212
1.000000 0.786954 0.704116
0.000000 0.950000 0.754686
0.000000 0.950000 0.752303
0.067329 0.950000 0.740390
0.284805 0.950000 0.728477
0.502280 0.950000 0.716563
0.719756 0.950000 0.704650
0.937232 0.950000 0.692737
1.000000 0.950000 0.680823
1.000000 0.950000 0.680728
0.000000 0.950000 0.754499
0.000000 0.950000 0.752116
0.067076 0.950000 0.740203
0.284552 0.950000 0.728289
0.502027 0.950000 0.716376
0.719503 0.950000 0.704463
0.936979 0.950000 0.692550
1.000000 0.950000 0.680636
1.000000 0.950000 0.680541
0.000000 0.000000 0.850000
0.039894 0.000000 0.850000
0.257370 0.000000 0.850000
0.474846 0.000000 0.850000
0.692322 0.000000 0.850000
0.909797 0.000000 0.850000
1.000000 0.000000 0.850000
1.000000 0.000000 0.850000
1.000000 0.000000 0.850000
0.000000 0.030391 0.850000
0.033566 0.027728 0.850000
0.251041 0.014413 0.850000
0.468517 0.001098 0.850000
0.685993 0.000000 0.850000
0.903469 0.000000 0.850000
1.000000 0.000000 0.850000
1.000000 0.000000 0.850000
1.000000 0.000000 0.850000
0.000000 0.197220 0.850000
0.001923 0.194557 0.850000
0.219398 0.181242 0.850000
0.436874 0.167927 0.850000
0.654350 0.154612 0.850000
0.871826 0.141298 0.850000
1.000000 0.127983 0.850000
1.000000 0.114668 0.850000
1.000000 0.114561 0.850000
0.000000 0.364049 0.850000
0.000000 0.361386 0.850000
0.187755 0.348071 0.850000
0.405231 0.334756 0.850000
0.622707 0.321441 0.850000
0.840183 0.308127 0.850000
1.000000 0.294812 0.850000
1.000000 0.281497 0.850000
1.000000 0.281390 0.850000
0.000000 0.530878 0.850000
0.000000 0.528215 0.850000
0.156113 0.514900 0.850000
0.373588 0.501585 0.850000
0.591064 0.488270 0.850000
0.808540 0.474955 0.850000
1.000000 0.461641 0.850000
1.000000 0.448326 0.850000
1.000000 0.448219 0.850000
0.000000 0.697707 0.850000
0.000000 0.695044 0.850000
0.124470 0.681729 0.850000
0.341945 0.668414 0.850000
0.559421 0.655099 0.850000
0.776897 0.641784 0.850000
0.994373 0.628470 0.850000
1.000000 0.615155 0.850000
1.000000 0.615048 0.850000
0.000000 0.864536 0.850000
0.000000 0.861873 0.850000
0.092827 0.848558 0.850000
0.310302 0.835243 0.850000
0.527778 0.821928 0.850000
0.745254 0.808613 0.850000
0.962730 0.795298 0.850000
1.000000 0.781984 0.850000
1.000000 0.781877 0.850000
0.000000 0.950000 0.850000
0.000000 0.950000 0.850000
0.061184 0.950000 0.850000
0.278659 0.950000 0.850000
0.496135 0.950000 0.850000
0.713611 0.950000 0.850000
0.931087 0.950000 0.850000
1.000000 0.948812 0.848938
1.000000 0.948706 0.848842
0.000000 0.950000 0.850000
0.000000 0.950000 0.850000
0.060930 0.950000 0.850000
0.278406 0.950000 0.850000
0.495882 0.950000 0.850000
0.713358 0.950000 0.850000
0.930834 0.950000 0.850000
1.000000 0.950000 0.848750
1.000000 0.950000 0.848655
0.000000 0.000000 0.850000
0.039845 0.000000 0.850000
0.257321 0.000000 0.850000
0.474797 0.000000 0.850000
0.692272 0.000000 0.850000
0.909748 0.000000 0.850000
1.000000 0.000000 0.850000
1.000000 0.000000 0.850000
1.000000 0.000000 0.850000
0.000000 0.030350 0.850000
0.033516 0.027688 0.850000
0.250992 0.014373 0.850000
0.468468 0.001058 0.850000
0.685944 0.000000 0.850000
0.903420 0.000000 0.850000
1.000000 0.000000 0.850000
1.000000 0.000000 0.850000
1.000000 0.000000 0.850000
0.000000 0.197179 0.850000
0.001873 0.194516 0.850000
0.219349 0.181202 0.850000
0.436825 0.167887 0.850000
0.654301 0.154572 0.850000
0.871777 0.141257 0.850000
1.000000 0.127942 0.850000
1.000000 0.114627 0.850000
1.000000 0.114521 0.850000
0.000000 0.364008 0.850000
0.000000 0.361345 0.850000
0.187706 0.348030 0.850000
0.405182 0.334716 0.850000
0.622658 0.321401 0.850000
0.840134 0.308086 0.850000
1.000000 0.294771 0.850000
1.000000 0.281456 0.850000
1.000000 0.281350 0.850000
0.000000 0.530837 0.850000
0.000000 0.528174 0.850000
0.156063 0.514859 0.850000
0.373539 0.501545 0.850000
0.591015 0.488230 0.850000
0.808491 0.474915 0.850000
1.000000 0.461600 0.850000
1.000000 0.448285 0.850000
1.000000 0.448179 0.850000
0.000000 0.697666 0.850000
0.000000 0.695003 0.850000
0.124420 0.681688 0.850000
0.341896 0.668373 0.850000
0.559372 0.655059 0.850000
0.776848 0.641744 0.850000
0.994323 0.628429 0.850000
1.000000 0.615114 0.850000
1.000000 0.615008 0.850000
0.000000 0.864495 0.850000
0.000000 0.861832 0.850000
0.092777 0.848517 0.850000
0.310253 0.835202 0.850000
0.527729 0.821888 0.850000
0.745205 0.808573 0.850000
0.962681 0.795258 0.850000
1.000000 0.781943 0.850000
1.000000 0.781836 0.850000
0.000000 0.950000 0.850000
0.000000 0.950000 0.850000
0.061134 0.950000 0.850000
0.278610 0.950000 0.850000
0.496086 0.950000 0.850000
0.713562 0.950000 0.850000
0.931038 0.950000 0.850000
1.000000 0.948772 0.850000
1.000000 0.948665 0.850000
0.000000 0.950000 0.850000
0.000000 0.950000 0.850000
0.060881 0.950000 0.850000
0.278357 0.950000 0.850000
0.495833 0.950000 0.850000
0.713309 0.950000 0.850000
0.930784 0.950000 0.850000
1.000000 0.950000 0.850000
1.000000 0.950000 0.850000
