server/luts/sunset.cube
TITLE "Sunset"
LUT_3D_SIZE 17
0.034500 0.028500 0.025500
0.034500 0.028500 0.025500
0.077995 0.025837 0.023117
0.186733 0.019180 0.017161
0.295471 0.012522 0.011204
0.404209 0.005865 0.005247
0.512947 0.000000 0.000000
0.621685 0.000000 0.000000
0.730423 0.000000 0.000000
0.839160 0.000000 0.000000
0.947898 0.000000 0.000000
1.000000 0.000000 0.000000
1.000000 0.000000 0.000000
1.000000 0.000000 0.000000
1.000000 0.000000 0.000000
1.000000 0.000000 0.000000
1.000000 0.000000 0.000000
0.034500 0.028500 0.025500
0.034500 0.028500 0.025500
0.077995 0.025837 0.023117
0.186733 0.019180 0.017161
0.295471 0.012522 0.011204
0.404209 0.005865 0.005247
0.512947 0.000000 0.000000
0.621685 0.000000 0.000000
0.730423 0.000000 0.000000
0.839160 0.000000 0.000000
0.947898 0.000000 0.000000
1.000000 0.000000 0.000000
1.000000 0.000000 0.000000
1.000000 0.000000 0.000000
1.000000 0.000000 0.000000
1.000000 0.000000 0.000000
1.000000 0.000000 0.000000
0.028171 0.061866 0.020822
0.028171 0.061866 0.020822
0.071667 0.059203 0.018440
0.180404 0.052545 0.012483
0.289142 0.045888 0.006526
0.397880 0.039231 0.000570
0.506618 0.032573 0.000000
0.615356 0.025916 0.000000
0.724094 0.019258 0.000000
0.832832 0.012601 0.000000
0.941570 0.005943 0.000000
1.000000 0.000000 0.000000
1.000000 0.000000 0.000000
1.000000 0.000000 0.000000
1.000000 0.000000 0.000000
1.000000 0.000000 0.000000
1.000000 0.000000 0.000000
0.012350 0.145280 0.009128
0.012350 0.145280 0.009128
0.055845 0.142617 0.006746
0.164583 0.135960 0.000789
0.273321 0.129302 0.000000
0.382059 0.122645 0.000000
0.490797 0.115988 0.000000
0.599535 0.109330 0.000000
0.708272 0.102673 0.000000
0.817010 0.096015 0.000000
0.925748 0.089358 0.000000
1.000000 0.082700 0.000000
1.000000 0.076043 0.000000
1.000000 0.069386 0.000000
1.000000 0.062728 0.000000
1.000000 0.062622 0.000000
1.000000 0.062622 0.000000
0.000000 0.228695 0.000000
0.000000 0.228695 0.000000
0.040024 0.226032 0.000000
0.148761 0.219374 0.000000
0.257499 0.212717 0.000000
0.366237 0.206059 0.000000
0.474975 0.199402 0.000000
0.583713 0.192745 0.000000
0.692451 0.186087 0.000000
0.801189 0.179430 0.000000
0.909927 0.172772 0.000000
1.000000 0.166115 0.000000
1.000000 0.159458 0.000000
1.000000 0.152800 0.000000
1.000000 0.146143 0.000000
1.000000 0.146036 0.000000
1.000000 0.146036 0.000000
0.000000 0.312109 0.000000
0.000000 0.312109 0.000000
0.024202 0.309446 0.000000
0.132940 0.302789 0.000000
0.241678 0.296131 0.000000
0.350416 0.289474 0.000000
0.459154 0.282816 0.000000
0.567892 0.276159 0.000000
0.676629 0.269502 0.000000
0.785367 0.262844 0.000000
0.894105 0.256187 0.000000
1.000000 0.249529 0.000000
1.000000 0.242872 0.000000
1.000000 0.236215 0.000000
1.000000 0.229557 0.000000
1.000000 0.229451 0.000000
1.000000 0.229451 0.000000
0.000000 0.395524 0.000000
0.000000 0.395524 0.000000
0.008381 0.392861 0.000000
0.117119 0.386203 0.000000
0.225856 0.379546 0.000000
0.334594 0.372888 0.000000
0.443332 0.366231 0.000000
0.552070 0.359574 0.000000
0.660808 0.352916 0.000000
0.769546 0.346259 0.000000
0.878284 0.339601 0.000000
0.987022 0.332944 0.000000
1.000000 0.326286 0.000000
1.000000 0.319629 0.000000
1.000000 0.312972 0.000000
1.000000 0.312865 0.000000
1.000000 0.312865 0.000000
0.000000 0.478938 0.000000
0.000000 0.478938 0.000000
0.000000 0.476275 0.000000
0.101297 0.469618 0.000000
0.210035 0.462960 0.000000
0.318773 0.456303 0.000000
0.427511 0.449645 0.000000
0.536249 0.442988 0.000000
0.644986 0.436331 0.000000
0.753724 0.429673 0.000000
0.862462 0.423016 0.000000
0.971200 0.416358 0.000000
1.000000 0.409701 0.000000
1.000000 0.403043 0.000000
1.000000 0.396386 0.000000
1.000000 0.396279 0.000000
1.000000 0.396279 0.000000
0.000000 0.562352 0.000000
0.000000 0.562352 0.000000
0.000000 0.559690 0.000000
0.085476 0.553032 0.000000
0.194213 0.546375 0.000000
0.302951 0.539717 0.000000
0.411689 0.533060 0.000000
0.520427 0.526402 0.000000
0.629165 0.519745 0.000000
0.737903 0.513088 0.000000
0.846641 0.506430 0.000000
0.955379 0.499773 0.000000
1.000000 0.493115 0.000000
1.000000 0.486458 0.000000
1.000000 0.479800 0.000000
1.000000 0.479694 0.000000
1.000000 0.479694 0.000000
0.000000 0.645767 0.000000
0.000000 0.645767 0.000000
0.000000 0.643104 0.000000
0.069654 0.636447 0.000000
0.178392 0.629789 0.000000
0.287130 0.623132 0.000000
0.395868 0.616474 0.000000
0.504606 0.609817 0.000000
0.613344 0.603159 0.000000
0.722081 0.596502 0.000000
0.830819 0.589845 0.000000
0.939557 0.583187 0.000000
1.000000 0.576530 0.000000
1.000000 0.569872 0.000000
1.000000 0.563215 0.000000
1.000000 0.563108 0.000000
1.000000 0.563108 0.000000
0.000000 0.729181 0.000000
0.000000 0.729181 0.000000
0.000000 0.726518 0.000000
0.053833 0.719861 0.000000
0.162570 0.713204 0.000000
0.271308 0.706546 0.000000
0.380046 0.699889 0.000000
0.488784 0.693231 0.000000
0.597522 0.686574 0.000000
0.706260 0.679916 0.000000
0.814998 0.673259 0.000000
0.923736 0.666602 0.000000
1.000000 0.659944 0.000000
1.000000 0.653287 0.000000
1.000000 0.646629 0.000000
1.000000 0.646523 0.000000
1.000000 0.646523 0.000000
0.000000 0.812596 0.000000
0.000000 0.812596 0.000000
0.000000 0.809933 0.000000
0.038011 0.803275 0.000000
0.146749 0.796618 0.000000
0.255487 0.789961 0.000000
0.364225 0.783303 0.000000
0.472963 0.776646 0.000000
0.581701 0.769988 0.000000
0.690438 0.763331 0.000000
0.799176 0.756674 0.000000
0.907914 0.750016 0.000000
1.000000 0.743359 0.000000
1.000000 0.736701 0.000000
1.000000 0.730044 0.000000
1.000000 0.729937 0.000000
1.000000 0.729937 0.000000
0.000000 0.896010 0.000000
0.000000 0.896010 0.000000
0.000000 0.893347 0.000000
0.022190 0.886690 0.000000
0.130928 0.880032 0.000000
0.239665 0.873375 0.000000
0.348403 0.866718 0.000000
0.457141 0.860060 0.000000
0.565879 0.853403 0.000000
0.674617 0.846745 0.000000
0.783355 0.840088 0.000000
0.892093 0.833431 0.000000
1.000000 0.826773 0.000000
1.000000 0.820116 0.000000
1.000000 0.813458 0.000000
1.000000 0.813352 0.000000
1.000000 0.813352 0.000000
0.000000 0.950000 0.000000
0.000000 0.950000 0.000000
0.000000 0.950000 0.000000
0.006368 0.950000 0.000000
0.115106 0.950000 0.000000
0.223844 0.950000 0.000000
0.332582 0.950000 0.000000
0.441320 0.943475 0.000000
0.550058 0.936817 0.000000
0.658795 0.930160 0.000000
0.767533 0.923502 0.000000
0.876271 0.916845 0.000000
0.985009 0.910188 0.000000
1.000000 0.903530 0.000000
1.000000 0.896873 0.000000
1.000000 0.896766 0.000000
1.000000 0.896766 0.000000
0.000000 0.950000 0.000000
0.000000 0.950000 0.000000
0.000000 0.950000 0.000000
0.000000 0.950000 0.000000
0.099285 0.950000 0.000000
0.208022 0.950000 0.000000
0.316760 0.950000 0.000000
0.425498 0.950000 0.000000
0.534236 0.950000 0.000000
0.642974 0.950000 0.000000
0.751712 0.950000 0.000000
0.860450 0.950000 0.000000
0.969188 0.950000 0.000000
1.000000 0.950000 0.000000
1.000000 0.950000 0.000000
1.000000 0.950000 0.000000
1.000000 0.950000 0.000000
0.000000 0.950000 0.000000
0.000000 0.950000 0.000000
0.000000 0.950000 0.000000
0.000000 0.950000 0.000000
0.099031 0.950000 0.000000
0.207769 0.950000 0.000000
0.316507 0.950000 0.000000
0.425245 0.950000 0.000000
0.533983 0.950000 0.000000
0.642721 0.950000 0.000000
0.751459 0.950000 0.000000
0.860197 0.950000 0.000000
0.968935 0.950000 0.000000
1.000000 0.950000 0.000000
1.000000 0.950000 0.000000
1.000000 0.950000 0.000000
1.000000 0.950000 0.000000
0.000000 0.950000 0.000000
0.000000 0.950000 0.000000
0.000000 0.950000 0.000000
0.000000 0.950000 0.000000
0.099031 0.950000 0.000000
0.207769 0.950000 0.000000
0.316507 0.950000 0.000000
0.425245 0.950000 0.000000
0.533983 0.950000 0.000000
0.642721 0.950000 0.000000
0.751459 0.950000 0.000000
0.860197 0.950000 0.000000
0.968935 0.950000 0.000000
1.000000 0.950000 0.000000
1.000000 0.950000 0.000000
1.000000 0.950000 0.000000
1.000000 0.950000 0.000000
0.034500 0.028500 0.025500
0.034500 0.028500 0.025500
0.077995 0.025837 0.023117
0.186733 0.019180 0.017161
0.295471 0.012522 0.011204
0.404209 0.005865 0.005247
0.512947 0.000000 0.000000
0.621685 0.000000 0.000000
0.730423 0.000000 0.000000
0.839160 0.000000 0.000000
0.947898 0.000000 0.000000
1.000000 0.000000 0.000000
1.000000 0.000000 0.000000
1.000000 0.000000 0.000000
1.000000 0.000000 0.000000
1.000000 0.000000 0.000000
1.000000 0.000000 0.000000
0.034500 0.028500 0.025500
0.034500 0.028500 0.025500
0.077995 0.025837 0.023117
0.186733 0.019180 0.017161
0.295471 0.012522 0.011204
0.404209 0.005865 0.005247
0.512947 0.000000 0.000000
0.621685 0.000000 0.000000
0.730423 0.000000 0.000000
0.839160 0.000000 0.000000
0.947898 0.000000 0.000000
1.000000 0.000000 0.000000
1.000000 0.000000 0.000000
1.000000 0.000000 0.000000
1.000000 0.000000 0.000000
1.000000 0.000000 0.000000
1.000000 0.000000 0.000000
0.028171 0.061866 0.020822
0.028171 0.061866 0.020822
0.071667 0.059203 0.018440
0.180404 0.052545 0.012483
0.289142 0.045888 0.006526
0.397880 0.039231 0.000570
0.506618 0.032573 0.000000
0.615356 0.025916 0.000000
0.724094 0.019258 0.000000
0.832832 0.012601 0.000000
0.941570 0.005943 0.000000
1.000000 0.000000 0.000000
1.000000 0.000000 0.000000
1.000000 0.000000 0.000000
1.000000 0.000000 0.000000
1.000000 0.000000 0.000000
1.000000 0.000000 0.000000
0.012350 0.145280 0.009128
0.012350 0.145280 0.009128
0.055845 0.142617 0.006746
0.164583 0.135960 0.000789
0.273321 0.129302 0.000000
0.382059 0.122645 0.000000
0.490797 0.115988 0.000000
0.599535 0.109330 0.000000
0.708272 0.102673 0.000000
0.817010 0.096015 0.000000
0.925748 0.089358 0.000000
1.000000 0.082700 0.000000
1.000000 0.076043 0.000000
1.000000 0.069386 0.000000
1.000000 0.062728 0.000000
1.000000 0.062622 0.000000
1.000000 0.062622 0.000000
0.000000 0.228695 0.000000
0.000000 0.228695 0.000000
0.040024 0.226032 0.000000
0.148761 0.219374 0.000000
0.257499 0.212717 0.000000
0.366237 0.206059 0.000000
0.474975 0.199402 0.000000
0.583713 0.192745 0.000000
0.692451 0.186087 0.000000
0.801189 0.179430 0.000000
0.909927 0.172772 0.000000
1.000000 0.166115 0.000000
1.000000 0.159458 0.000000
1.000000 0.152800 0.000000
1.000000 0.146143 0.000000
1.000000 0.146036 0.000000
1.000000 0.146036 0.000000
0.000000 0.312109 0.000000
0.000000 0.312109 0.000000
0.024202 0.309446 0.000000
0.132940 0.302789 0.000000
0.241678 0.296131 0.000000
0.350416 0.289474 0.000000
0.459154 0.282816 0.000000
0.567892 0.276159 0.000000
0.676629 0.269502 0.000000
0.785367 0.262844 0.000000
0.894105 0.256187 0.000000
1.000000 0.249529 0.000000
1.000000 0.242872 0.000000
1.000000 0.236215 0.000000
1.000000 0.229557 0.000000
1.000000 0.229451 0.000000
1.000000 0.229451 0.000000
0.000000 0.395524 0.000000
0.000000 0.395524 0.000000
0.008381 0.392861 0.000000
0.117119 0.386203 0.000000
0.225856 0.379546 0.000000
0.334594 0.372888 0.000000
0.443332 0.366231 0.000000
0.552070 0.359574 0.000000
0.660808 0.352916 0.000000
0.769546 0.346259 0.000000
0.878284 0.339601 0.000000
0.987022 0.332944 0.000000
1.000000 0.326286 0.000000
1.000000 0.319629 0.000000
1.000000 0.312972 0.000000
1.000000 0.312865 0.000000
1.000000 0.312865 0.000000
0.000000 0.478938 0.000000
0.000000 0.478938 0.000000
0.000000 0.476275 0.000000
0.101297 0.469618 0.000000
0.210035 0.462960 0.000000
0.318773 0.456303 0.000000
0.427511 0.449645 0.000000
0.536249 0.442988 0.000000
0.644986 0.436331 0.000000
0.753724 0.429673 0.000000
0.862462 0.423016 0.000000
0.971200 0.416358 0.000000
1.000000 0.409701 0.000000
1.000000 0.403043 0.000000
1.000000 0.396386 0.000000
1.000000 0.396279 0.000000
1.000000 0.396279 0.000000
0.000000 0.562352 0.000000
0.000000 0.562352 0.000000
0.000000 0.559690 0.000000
0.085476 0.553032 0.000000
0.194213 0.546375 0.000000
0.302951 0.539717 0.000000
0.411689 0.533060 0.000000
0.520427 0.526402 0.000000
0.629165 0.519745 0.000000
0.737903 0.513088 0.000000
0.846641 0.506430 0.000000
0.955379 0.499773 0.000000
1.000000 0.493115 0.000000
1.000000 0.486458 0.000000
1.000000 0.479800 0.000000
1.000000 0.479694 0.000000
1.000000 0.479694 0.000000
0.000000 0.645767 0.000000
0.000000 0.645767 0.000000
0.000000 0.643104 0.000000
0.069654 0.636447 0.000000
0.178392 0.629789 0.000000
0.287130 0.623132 0.000000
0.395868 0.616474 0.000000
0.504606 0.609817 0.000000
0.613344 0.603159 0.000000
0.722081 0.596502 0.000000
0.830819 0.589845 0.000000
0.939557 0.583187 0.000000
1.000000 0.576530 0.000000
1.000000 0.569872 0.000000
1.000000 0.563215 0.000000
1.000000 0.563108 0.000000
1.000000 0.563108 0.000000
0.000000 0.729181 0.000000
0.000000 0.729181 0.000000
0.000000 0.726518 0.000000
0.053833 0.719861 0.000000
0.162570 0.713204 0.000000
0.271308 0.706546 0.000000
0.380046 0.699889 0.000000
0.488784 0.693231 0.000000
0.597522 0.686574 0.000000
0.706260 0.679916 0.000000
0.814998 0.673259 0.000000
0.923736 0.666602 0.000000
1.000000 0.659944 0.000000
1.000000 0.653287 0.000000
1.000000 0.646629 0.000000
1.000000 0.646523 0.000000
1.000000 0.646523 0.000000
0.000000 0.812596 0.000000
0.000000 0.812596 0.000000
0.000000 0.809933 0.000000
0.038011 0.803275 0.000000
0.146749 0.796618 0.000000
0.255487 0.789961 0.000000
0.364225 0.783303 0.000000
0.472963 0.776646 0.000000
0.581701 0.769988 0.000000
0.690438 0.763331 0.000000
0.799176 0.756674 0.000000
0.907914 0.750016 0.000000
1.000000 0.743359 0.000000
1.000000 0.736701 0.000000
1.000000 0.730044 0.000000
1.000000 0.729937 0.000000
1.000000 0.729937 0.000000
0.000000 0.896010 0.000000
0.000000 0.896010 0.000000
0.000000 0.893347 0.000000
0.022190 0.886690 0.000000
0.130928 0.880032 0.000000
0.239665 0.873375 0.000000
0.348403 0.866718 0.000000
0.457141 0.860060 0.000000
0.565879 0.853403 0.000000
0.674617 0.846745 0.000000
0.783355 0.840088 0.000000
0.892093 0.833431 0.000000
1.000000 0.826773 0.000000
1.000000 0.820116 0.000000
1.000000 0.813458 0.000000
1.000000 0.813352 0.000000
1.000000 0.813352 0.000000
0.000000 0.950000 0.000000
0.000000 0.950000 0.000000
0.000000 0.950000 0.000000
0.006368 0.950000 0.000000
0.115106 0.950000 0.000000
0.223844 0.950000 0.000000
0.332582 0.950000 0.000000
0.441320 0.943475 0.000000
0.550058 0.936817 0.000000
0.658795 0.930160 0.000000
0.767533 0.923502 0.000000
0.876271 0.916845 0.000000
0.985009 0.910188 0.000000
1.000000 0.903530 0.000000
1.000000 0.896873 0.000000
1.000000 0.896766 0.000000
1.000000 0.896766 0.000000
0.000000 0.950000 0.000000
0.000000 0.950000 0.000000
0.000000 0.950000 0.000000
0.000000 0.950000 0.000000
0.099285 0.950000 0.000000
0.208022 0.950000 0.000000
0.316760 0.950000 0.000000
0.425498 0.950000 0.000000
0.534236 0.950000 0.000000
0.642974 0.950000 0.000000
0.751712 0.950000 0.000000
0.860450 0.950000 0.000000
0.969188 0.950000 0.000000
1.000000 0.950000 0.000000
1.000000 0.950000 0.000000
1.000000 0.950000 0.000000
1.000000 0.950000 0.000000
0.000000 0.950000 0.000000
0.000000 0.950000 0.000000
0.000000 0.950000 0.000000
0.000000 0.950000 0.000000
0.099031 0.950000 0.000000
0.207769 0.950000 0.000000
0.316507 0.950000 0.000000
0.425245 0.950000 0.000000
0.533983 0.950000 0.000000
0.642721 0.950000 0.000000
0.751459 0.950000 0.000000
0.860197 0.950000 0.000000
0.968935 0.950000 0.000000
1.000000 0.950000 0.000000
1.000000 0.950000 0.000000
1.000000 0.950000 0.000000
1.000000 0.950000 0.000000
0.000000 0.950000 0.000000
0.000000 0.950000 0.000000
0.000000 0.950000 0.000000
0.000000 0.950000 0.000000
0.099031 0.950000 0.000000
0.207769 0.950000 0.000000
0.316507 0.950000 0.000000
0.425245 0.950000 0.000000
0.533983 0.950000 0.000000
0.642721 0.950000 0.000000
0.751459 0.950000 0.000000
0.860197 0.950000 0.000000
0.968935 0.950000 0.000000
1.000000 0.950000 0.000000
1.000000 0.950000 0.000000
1.000000 0.950000 0.000000
1.000000 0.950000 0.000000
0.033271 0.027485 0.059123
0.033271 0.027485 0.059123
0.076766 0.024822 0.056740
0.185504 0.018164 0.050784
0.294242 0.011507 0.044827
0.402980 0.004849 0.038870
0.511718 0.000000 0.032914
0.620456 0.000000 0.026957
0.729193 0.000000 0.021000
0.837931 0.000000 0.015044
0.946669 0.000000 0.009087
1.000000 0.000000 0.003130
1.000000 0.000000 0.000000
1.000000 0.000000 0.000000
1.000000 0.000000 0.000000
1.000000 0.000000 0.000000
1.000000 0.000000 0.000000
0.033271 0.027485 0.059123
0.033271 0.027485 0.059123
0.076766 0.024822 0.056740
0.185504 0.018164 0.050784
0.294242 0.011507 0.044827
0.402980 0.004849 0.038870
0.511718 0.000000 0.032914
0.620456 0.000000 0.026957
0.729193 0.000000 0.021000
0.837931 0.000000 0.015044
0.946669 0.000000 0.009087
1.000000 0.000000 0.003130
1.000000 0.000000 0.000000
1.000000 0.000000 0.000000
1.000000 0.000000 0.000000
1.000000 0.000000 0.000000
1.000000 0.000000 0.000000
0.026942 0.060850 0.054445
0.026942 0.060850 0.054445
0.070438 0.058187 0.052062
0.179175 0.051530 0.046106
0.287913 0.044873 0.040149
0.396651 0.038215 0.034193
0.505389 0.031558 0.028236
0.614127 0.024900 0.022279
0.722865 0.018243 0.016323
0.831603 0.011586 0.010366
0.940341 0.004928 0.004409
1.000000 0.000000 0.000000
1.000000 0.000000 0.000000
1.000000 0.000000 0.000000
1.000000 0.000000 0.000000
1.000000 0.000000 0.000000
1.000000 0.000000 0.000000
0.011121 0.144265 0.042751
0.011121 0.144265 0.042751
0.054616 0.141602 0.040368
0.163354 0.134945 0.034412
0.272092 0.128287 0.028455
0.380830 0.121630 0.022498
0.489568 0.114972 0.016542
0.598305 0.108315 0.010585
0.707043 0.101657 0.004629
0.815781 0.095000 0.000000
0.924519 0.088343 0.000000
1.000000 0.081685 0.000000
1.000000 0.075028 0.000000
1.000000 0.068370 0.000000
1.000000 0.061713 0.000000
1.000000 0.061606 0.000000
1.000000 0.061606 0.000000
0.000000 0.227679 0.031057
0.000000 0.227679 0.031057
0.038795 0.225016 0.028674
0.147532 0.218359 0.022718
0.256270 0.211702 0.016761
0.365008 0.205044 0.010804
0.473746 0.198387 0.004848
0.582484 0.191729 0.000000
0.691222 0.185072 0.000000
0.799960 0.178414 0.000000
0.908698 0.171757 0.000000
1.000000 0.165100 0.000000
1.000000 0.158442 0.000000
1.000000 0.151785 0.000000
1.000000 0.145127 0.000000
1.000000 0.145021 0.000000
1.000000 0.145021 0.000000
0.000000 0.311094 0.019363
0.000000 0.311094 0.019363
0.022973 0.308431 0.016980
0.131711 0.301773 0.011023
0.240449 0.295116 0.005067
0.349187 0.288459 0.000000
0.457925 0.281801 0.000000
0.566662 0.275144 0.000000
0.675400 0.268486 0.000000
0.784138 0.261829 0.000000
0.892876 0.255171 0.000000
1.000000 0.248514 0.000000
1.000000 0.241857 0.000000
1.000000 0.235199 0.000000
1.000000 0.228542 0.000000
1.000000 0.228435 0.000000
1.000000 0.228435 0.000000
0.000000 0.394508 0.007669
0.000000 0.394508 0.007669
0.007152 0.391845 0.005286
0.115889 0.385188 0.000000
0.224627 0.378530 0.000000
0.333365 0.371873 0.000000
0.442103 0.365216 0.000000
0.550841 0.358558 0.000000
0.659579 0.351901 0.000000
0.768317 0.345243 0.000000
0.877055 0.338586 0.000000
0.985793 0.331929 0.000000
1.000000 0.325271 0.000000
1.000000 0.318614 0.000000
1.000000 0.311956 0.000000
1.000000 0.311850 0.000000
1.000000 0.311850 0.000000
0.000000 0.477923 0.000000
0.000000 0.477923 0.000000
0.000000 0.475260 0.000000
0.100068 0.468602 0.000000
0.208806 0.461945 0.000000
0.317544 0.455288 0.000000
0.426282 0.448630 0.000000
0.535020 0.441973 0.000000
0.643757 0.435315 0.000000
0.752495 0.428658 0.000000
0.861233 0.422000 0.000000
0.969971 0.415343 0.000000
1.000000 0.408686 0.000000
1.000000 0.402028 0.000000
1.000000 0.395371 0.000000
1.000000 0.395264 0.000000
1.000000 0.395264 0.000000
0.000000 0.561337 0.000000
0.000000 0.561337 0.000000
0.000000 0.558674 0.000000
0.084246 0.552017 0.000000
0.192984 0.545359 0.000000
0.301722 0.538702 0.000000
0.410460 0.532045 0.000000
0.519198 0.525387 0.000000
0.627936 0.518730 0.000000
0.736674 0.512072 0.000000
0.845412 0.505415 0.000000
0.954150 0.498757 0.000000
1.000000 0.492100 0.000000
1.000000 0.485443 0.000000
1.000000 0.478785 0.000000
1.000000 0.478679 0.000000
1.000000 0.478679 0.000000
0.000000 0.644752 0.000000
0.000000 0.644752 0.000000
0.000000 0.642089 0.000000
0.068425 0.635431 0.000000
0.177163 0.628774 0.000000
0.285901 0.622116 0.000000
0.394639 0.615459 0.000000
0.503377 0.608802 0.000000
0.612114 0.602144 0.000000
0.720852 0.595487 0.000000
0.829590 0.588829 0.000000
0.938328 0.582172 0.000000
1.000000 0.575514 0.000000
1.000000 0.568857 0.000000
1.000000 0.562200 0.000000
1.000000 0.562093 0.000000
1.000000 0.562093 0.000000
0.000000 0.728166 0.000000
0.000000 0.728166 0.000000
0.000000 0.725503 0.000000
0.052604 0.718846 0.000000
0.161341 0.712188 0.000000
0.270079 0.705531 0.000000
0.378817 0.698873 0.000000
0.487555 0.692216 0.000000
0.596293 0.685559 0.000000
0.705031 0.678901 0.000000
0.813769 0.672244 0.000000
0.922507 0.665586 0.000000
1.000000 0.658929 0.000000
1.000000 0.652271 0.000000
1.000000 0.645614 0.000000
1.000000 0.645508 0.000000
1.000000 0.645508 0.000000
0.000000 0.811581 0.000000
0.000000 0.811581 0.000000
0.000000 0.808918 0.000000
0.036782 0.802260 0.000000
0.145520 0.795603 0.000000
0.254258 0.788945 0.000000
0.362996 0.782288 0.000000
0.471734 0.775630 0.000000
0.580471 0.768973 0.000000
0.689209 0.762316 0.000000
0.797947 0.755658 0.000000
0.906685 0.749001 0.000000
1.000000 0.742343 0.000000
1.000000 0.735686 0.000000
1.000000 0.729029 0.000000
1.000000 0.728922 0.000000
1.000000 0.728922 0.000000
0.000000 0.894995 0.000000
0.000000 0.894995 0.000000
0.000000 0.892332 0.000000
0.020961 0.885675 0.000000
0.129698 0.879017 0.000000
0.238436 0.872360 0.000000
0.347174 0.865702 0.000000
0.455912 0.859045 0.000000
0.564650 0.852387 0.000000
0.673388 0.845730 0.000000
0.782126 0.839073 0.000000
0.890864 0.832415 0.000000
0.999602 0.825758 0.000000
1.000000 0.819100 0.000000
1.000000 0.812443 0.000000
1.000000 0.812336 0.000000
1.000000 0.812336 0.000000
0.000000 0.950000 0.000000
0.000000 0.950000 0.000000
0.000000 0.950000 0.000000
0.005139 0.950000 0.000000
0.113877 0.950000 0.000000
0.222615 0.950000 0.000000
0.331353 0.949117 0.000000
0.440091 0.942459 0.000000
0.548829 0.935802 0.000000
0.657566 0.929145 0.000000
0.766304 0.922487 0.000000
0.875042 0.915830 0.000000
0.983780 0.909172 0.000000
1.000000 0.902515 0.000000
1.000000 0.895857 0.000000
1.000000 0.895751 0.000000
1.000000 0.895751 0.000000
0.000000 0.950000 0.000000
0.000000 0.950000 0.000000
0.000000 0.950000 0.000000
0.000000 0.950000 0.000000
0.098055 0.950000 0.000000
0.206793 0.950000 0.000000
0.315531 0.950000 0.000000
0.424269 0.950000 0.000000
0.533007 0.950000 0.000000
0.641745 0.950000 0.000000
0.750483 0.950000 0.000000
0.859221 0.950000 0.000000
0.967959 0.950000 0.000000
1.000000 0.950000 0.000000
1.000000 0.950000 0.000000
1.000000 0.950000 0.000000
1.000000 0.950000 0.000000
0.000000 0.950000 0.000000
0.000000 0.950000 0.000000
0.000000 0.950000 0.000000
0.000000 0.950000 0.000000
0.097802 0.950000 0.000000
0.206540 0.950000 0.000000
0.315278 0.950000 0.000000
0.424016 0.950000 0.000000
0.532754 0.950000 0.000000
0.641492 0.950000 0.000000
0.750230 0.950000 0.000000
0.858968 0.950000 0.000000
0.967705 0.950000 0.000000
1.000000 0.950000 0.000000
1.000000 0.950000 0.000000
1.000000 0.950000 0.000000
1.000000 0.950000 0.000000
0.000000 0.950000 0.000000
0.000000 0.950000 0.000000
0.000000 0.950000 0.000000
0.000000 0.950000 0.000000
0.097802 0.950000 0.000000
0.206540 0.950000 0.000000
0.315278 0.950000 0.000000
0.424016 0.950000 0.000000
0.532754 0.950000 0.000000
0.641492 0.950000 0.000000
0.750230 0.950000 0.000000
0.858968 0.950000 0.000000
0.967705 0.950000 0.000000
1.000000 0.950000 0.000000
1.000000 0.950000 0.000000
1.000000 0.950000 0.000000
1.000000 0.950000 0.000000
0.030198 0.024946 0.143180
0.030198 0.024946 0.143180
0.073693 0.022283 0.140797
0.182431 0.015626 0.134841
0.291169 0.008969 0.128884
0.399907 0.002311 0.122927
0.508645 0.000000 0.116971
0.617383 0.000000 0.111014
0.726121 0.000000 0.105057
0.834859 0.000000 0.099101
0.943597 0.000000 0.093144
1.000000 0.000000 0.087187
1.000000 0.000000 0.081231
1.000000 0.000000 0.075274
1.000000 0.000000 0.069318
1.000000 0.000000 0.069222
1.000000 0.000000 0.069222
0.030198 0.024946 0.143180
0.030198 0.024946 0.143180
0.073693 0.022283 0.140797
