server/luts/sunset.cube
TITLE "Sunset"
LUT_3D_SIZE 5
0.034500 0.028500 0.025500
0.295471 0.012522 0.011204
0.730423 0.000000 0.000000
1.000000 0.000000 0.000000
1.000000 0.000000 0.000000
0.000000 0.228695 0.000000
0.257499 0.212717 0.000000
0.692451 0.186087 0.000000
1.000000 0.159458 0.000000
1.000000 0.146036 0.000000
0.000000 0.562352 0.000000
0.194213 0.546375 0.000000
0.629165 0.519745 0.000000
1.000000 0.493115 0.000000
1.000000 0.479694 0.000000
0.000000 0.896010 0.000000
0.130928 0.880032 0.000000
0.565879 0.853403 0.000000
1.000000 0.826773 0.000000
1.000000 0.813352 0.000000
0.000000 0.950000 0.000000
0.099031 0.950000 0.000000
0.533983 0.950000 0.000000
0.968935 0.950000 0.000000
1.000000 0.950000 0.000000
0.027126 0.022408 0.227237
0.288097 0.006430 0.212941
0.723048 0.000000 0.189114
1.000000 0.000000 0.165288
1.000000 0.000000 0.153279
0.000000 0.222603 0.199171
0.250125 0.206625 0.184875
0.685077 0.179995 0.161048
1.000000 0.153366 0.137222
1.000000 0.139944 0.125213
0.000000 0.556261 0.152394
0.186839 0.540283 0.138098
0.621791 0.513653 0.114272
1.000000 0.487023 0.090445
1.000000 0.473602 0.078437
0.000000 0.889918 0.105618
0.123553 0.873941 0.091322
0.558505 0.847311 0.067495
0.993456 0.820681 0.043669
1.000000 0.807260 0.031660
0.000000 0.950000 0.082042
0.091657 0.950000 0.067746
0.526609 0.950000 0.043920
0.961560 0.950000 0.020093
1.000000 0.950000 0.008085
0.014835 0.012255 0.563465
0.275806 0.000000 0.549169
0.710757 0.000000 0.525342
1.000000 0.000000 0.501516
1.000000 0.000000 0.489507
0.000000 0.212450 0.535399
0.237834 0.196472 0.521103
0.672786 0.169842 0.497277
1.000000 0.143212 0.473450
1.000000 0.129791 0.461441
0.000000 0.546108 0.488623
0.174548 0.530130 0.474327
0.609500 0.503500 0.450500
1.000000 0.476870 0.426673
1.000000 0.463449 0.414665
0.000000 0.879765 0.441846
0.111263 0.863788 0.427550
0.546214 0.837158 0.403723
0.981166 0.810528 0.379897
1.000000 0.797107 0.367888
0.000000 0.950000 0.418271
0.079366 0.950000 0.403975
0.514318 0.950000 0.380148
0.949270 0.950000 0.356321
1.000000 0.950000 0.344313
0.002544 0.002102 0.850000
0.263515 0.000000 0.850000
0.698467 0.000000 0.850000
1.000000 0.000000 0.837744
1.000000 0.000000 0.825735
0.000000 0.202297 0.850000
0.225544 0.186319 0.850000
0.660495 0.159689 0.833505
1.000000 0.133059 0.809678
1.000000 0.119638 0.797670
0.000000 0.535954 0.824851
0.162258 0.519977 0.810555
0.597209 0.493347 0.786728
1.000000 0.466717 0.762902
1.000000 0.453296 0.750893
0.000000 0.869612 0.778074
0.098972 0.853634 0.763778
0.533923 0.827005 0.739952
0.968875 0.800375 0.716125
1.000000 0.786954 0.704116
0.000000 0.950000 0.754499
0.067076 0.950000 0.740203
0.502027 0.950000 0.716376
0.936979 0.950000 0.692550
1.000000 0.950000 0.680541
0.000000 0.000000 0.850000
0.257321 0.000000 0.850000
0.692272 0.000000 0.850000
1.000000 0.000000 0.850000
1.000000 0.000000 0.850000
0.000000 0.197179 0.850000
0.219349 0.181202 0.850000
0.654301 0.154572 0.850000
1.000000 0.127942 0.850000
1.000000 0.114521 0.850000
0.000000 0.530837 0.850000
0.156063 0.514859 0.850000
0.591015 0.488230 0.850000
1.000000 0.461600 0.850000
1.000000 0.448179 0.850000
0.000000 0.864495 0.850000
0.092777 0.848517 0.850000
0.527729 0.821888 0.850000
0.962681 0.795258 0.850000
1.000000 0.781836 0.850000
0.000000 0.950000 0.850000
0.060881 0.950000 0.850000
0.495833 0.950000 0.850000
0.930784 0.950000 0.850000
1.000000 0.950000 0.850000
