server/luts/tiktok.cube
TITLE "Tiktok"
LUT_3D_SIZE 17
0.100000 0.100000 0.100000
0.100000 0.100000 0.100000
0.100000 0.100000 0.100000
0.184406 0.090656 0.090656
0.302575 0.077575 0.077575
0.420744 0.064494 0.064494
0.538913 0.051412 0.051412
0.657081 0.038331 0.038331
0.775250 0.025250 0.025250
0.893419 0.012169 0.012169
1.000000 0.000000 0.000000
1.000000 0.000000 0.000000
1.000000 0.000000 0.000000
1.000000 0.000000 0.000000
1.000000 0.000000 0.000000
1.000000 0.000000 0.000000
1.000000 0.000000 0.000000
0.100000 0.100000 0.100000
0.100000 0.100000 0.100000
0.100000 0.100000 0.100000
0.184406 0.090656 0.090656
0.302575 0.077575 0.077575
0.420744 0.064494 0.064494
0.538913 0.051412 0.051412
0.657081 0.038331 0.038331
0.775250 0.025250 0.025250
0.893419 0.012169 0.012169
1.000000 0.000000 0.000000
1.000000 0.000000 0.000000
1.000000 0.000000 0.000000
1.000000 0.000000 0.000000
1.000000 0.000000 0.000000
1.000000 0.000000 0.000000
1.000000 0.000000 0.000000
0.100000 0.100000 0.100000
0.100000 0.100000 0.100000
0.100000 0.100000 0.100000
0.184406 0.090656 0.090656
0.302575 0.077575 0.077575
0.420744 0.064494 0.064494
0.538913 0.051412 0.051412
0.657081 0.038331 0.038331
0.775250 0.025250 0.025250
0.893419 0.012169 0.012169
1.000000 0.000000 0.000000
1.000000 0.000000 0.000000
1.000000 0.000000 0.000000
1.000000 0.000000 0.000000
1.000000 0.000000 0.000000
1.000000 0.000000 0.000000
1.000000 0.000000 0.000000
0.081656 0.175406 0.081656
0.081656 0.175406 0.081656
0.081656 0.175406 0.081656
0.166063 0.166063 0.072313
0.284231 0.152981 0.059231
0.402400 0.139900 0.046150
0.520569 0.126819 0.033069
0.638737 0.113737 0.019987
0.756906 0.100656 0.006906
0.875075 0.087575 0.000000
0.993244 0.074494 0.000000
1.000000 0.061412 0.000000
1.000000 0.048331 0.000000
1.000000 0.040856 0.000000
1.000000 0.040856 0.000000
1.000000 0.040856 0.000000
1.000000 0.040856 0.000000
0.055975 0.280975 0.055975
0.055975 0.280975 0.055975
0.055975 0.280975 0.055975
0.140381 0.271631 0.046631
0.258550 0.258550 0.033550
0.376719 0.245469 0.020469
0.494888 0.232387 0.007387
0.613056 0.219306 0.000000
0.731225 0.206225 0.000000
0.849394 0.193144 0.000000
0.967563 0.180062 0.000000
1.000000 0.166981 0.000000
1.000000 0.153900 0.000000
1.000000 0.146425 0.000000
1.000000 0.146425 0.000000
1.000000 0.146425 0.000000
1.000000 0.146425 0.000000
0.030294 0.386544 0.030294
0.030294 0.386544 0.030294
0.030294 0.386544 0.030294
0.114700 0.377200 0.020950
0.232869 0.364119 0.007869
0.351038 0.351038 0.000000
0.469206 0.337956 0.000000
0.587375 0.324875 0.000000
0.705544 0.311794 0.000000
0.823713 0.298713 0.000000
0.941881 0.285631 0.000000
1.000000 0.272550 0.000000
1.000000 0.259469 0.000000
1.000000 0.251994 0.000000
1.000000 0.251994 0.000000
1.000000 0.251994 0.000000
1.000000 0.251994 0.000000
0.004613 0.492113 0.004613
0.004613 0.492113 0.004613
0.004613 0.492113 0.004613
0.089019 0.482769 0.000000
0.207187 0.469688 0.000000
0.325356 0.456606 0.000000
0.443525 0.443525 0.000000
0.561694 0.430444 0.000000
0.679862 0.417363 0.000000
0.798031 0.404281 0.000000
0.916200 0.391200 0.000000
1.000000 0.378119 0.000000
1.000000 0.365038 0.000000
1.000000 0.357563 0.000000
1.000000 0.357563 0.000000
1.000000 0.357563 0.000000
1.000000 0.357563 0.000000
0.000000 0.597681 0.000000
0.000000 0.597681 0.000000
0.000000 0.597681 0.000000
0.063337 0.588337 0.000000
0.181506 0.575256 0.000000
0.299675 0.562175 0.000000
0.417844 0.549094 0.000000
0.536013 0.536013 0.000000
0.654181 0.522931 0.000000
0.772350 0.509850 0.000000
0.890519 0.496769 0.000000
1.000000 0.483687 0.000000
1.000000 0.470606 0.000000
1.000000 0.463131 0.000000
1.000000 0.463131 0.000000
1.000000 0.463131 0.000000
1.000000 0.463131 0.000000
0.000000 0.703250 0.000000
0.000000 0.703250 0.000000
0.000000 0.703250 0.000000
0.037656 0.693906 0.000000
0.155825 0.680825 0.000000
0.273994 0.667744 0.000000
0.392163 0.654662 0.000000
0.510331 0.641581 0.000000
0.628500 0.628500 0.000000
0.746669 0.615419 0.000000
0.864838 0.602337 0.000000
0.983006 0.589256 0.000000
1.000000 0.576175 0.000000
1.000000 0.568700 0.000000
1.000000 0.568700 0.000000
1.000000 0.568700 0.000000
1.000000 0.568700 0.000000
0.000000 0.808819 0.000000
0.000000 0.808819 0.000000
0.000000 0.808819 0.000000
0.011975 0.799475 0.000000
0.130144 0.786394 0.000000
0.248313 0.773313 0.000000
0.366481 0.760231 0.000000
0.484650 0.747150 0.000000
0.602819 0.734069 0.000000
0.720988 0.720988 0.000000
0.839156 0.707906 0.000000
0.957325 0.694825 0.000000
1.000000 0.681744 0.000000
1.000000 0.674269 0.000000
1.000000 0.674269 0.000000
1.000000 0.674269 0.000000
1.000000 0.674269 0.000000
0.000000 0.914388 0.000000
0.000000 0.914388 0.000000
0.000000 0.914388 0.000000
0.000000 0.905044 0.000000
0.104463 0.891962 0.000000
0.222631 0.878881 0.000000
0.340800 0.865800 0.000000
0.458969 0.852719 0.000000
0.577138 0.839638 0.000000
0.695306 0.826556 0.000000
0.813475 0.813475 0.000000
0.931644 0.800394 0.000000
1.000000 0.787313 0.000000
1.000000 0.779838 0.000000
1.000000 0.779838 0.000000
1.000000 0.779838 0.000000
1.000000 0.779838 0.000000
0.000000 1.000000 0.000000
0.000000 1.000000 0.000000
0.000000 1.000000 0.000000
0.000000 1.000000 0.000000
0.078781 0.997531 0.000000
0.196950 0.984450 0.000000
0.315119 0.971369 0.000000
0.433287 0.958287 0.000000
0.551456 0.945206 0.000000
0.669625 0.932125 0.000000
0.787794 0.919044 0.000000
0.905963 0.905963 0.000000
1.000000 0.892881 0.000000
1.000000 0.885406 0.000000
1.000000 0.885406 0.000000
1.000000 0.885406 0.000000
1.000000 0.885406 0.000000
0.000000 1.000000 0.000000
0.000000 1.000000 0.000000
0.000000 1.000000 0.000000
0.000000 1.000000 0.000000
0.053100 1.000000 0.000000
0.171269 1.000000 0.000000
0.289438 1.000000 0.000000
0.407606 1.000000 0.000000
0.525775 1.000000 0.000000
0.643944 1.000000 0.000000
0.762113 1.000000 0.000000
0.880281 1.000000 0.000000
0.998450 0.998450 0.000000
1.000000 0.990975 0.000000
1.000000 0.990975 0.000000
1.000000 0.990975 0.000000
1.000000 0.990975 0.000000
0.000000 1.000000 0.000000
0.000000 1.000000 0.000000
0.000000 1.000000 0.000000
0.000000 1.000000 0.000000
0.038425 1.000000 0.000000
0.156594 1.000000 0.000000
0.274763 1.000000 0.000000
0.392931 1.000000 0.000000
0.511100 1.000000 0.000000
0.629269 1.000000 0.000000
0.747438 1.000000 0.000000
0.865606 1.000000 0.000000
0.983775 1.000000 0.000000
1.000000 1.000000 0.000000
1.000000 1.000000 0.000000
1.000000 1.000000 0.000000
1.000000 1.000000 0.000000
0.000000 1.000000 0.000000
0.000000 1.000000 0.000000
0.000000 1.000000 0.000000
0.000000 1.000000 0.000000
0.038425 1.000000 0.000000
0.156594 1.000000 0.000000
0.274763 1.000000 0.000000
0.392931 1.000000 0.000000
0.511100 1.000000 0.000000
0.629269 1.000000 0.000000
0.747438 1.000000 0.000000
0.865606 1.000000 0.000000
0.983775 1.000000 0.000000
1.000000 1.000000 0.000000
1.000000 1.000000 0.000000
1.000000 1.000000 0.000000
1.000000 1.000000 0.000000
0.000000 1.000000 0.000000
0.000000 1.000000 0.000000
0.000000 1.000000 0.000000
0.000000 1.000000 0.000000
0.038425 1.000000 0.000000
0.156594 1.000000 0.000000
0.274763 1.000000 0.000000
0.392931 1.000000 0.000000
0.511100 1.000000 0.000000
0.629269 1.000000 0.000000
0.747438 1.000000 0.000000
0.865606 1.000000 0.000000
0.983775 1.000000 0.000000
1.000000 1.000000 0.000000
1.000000 1.000000 0.000000
1.000000 1.000000 0.000000
1.000000 1.000000 0.000000
0.000000 1.000000 0.000000
0.000000 1.000000 0.000000
0.000000 1.000000 0.000000
0.000000 1.000000 0.000000
0.038425 1.000000 0.000000
0.156594 1.000000 0.000000
0.274763 1.000000 0.000000
0.392931 1.000000 0.000000
0.511100 1.000000 0.000000
0.629269 1.000000 0.000000
0.747438 1.000000 0.000000
0.865606 1.000000 0.000000
0.983775 1.000000 0.000000
1.000000 1.000000 0.000000
1.000000 1.000000 0.000000
1.000000 1.000000 0.000000
1.000000 1.000000 0.000000
0.100000 0.100000 0.100000
0.100000 0.100000 0.100000
0.100000 0.100000 0.100000
0.184406 0.090656 0.090656
0.302575 0.077575 0.077575
0.420744 0.064494 0.064494
0.538913 0.051412 0.051412
0.657081 0.038331 0.038331
0.775250 0.025250 0.025250
0.893419 0.012169 0.012169
1.000000 0.000000 0.000000
1.000000 0.000000 0.000000
1.000000 0.000000 0.000000
1.000000 0.000000 0.000000
1.000000 0.000000 0.000000
1.000000 0.000000 0.000000
1.000000 0.000000 0.000000
0.100000 0.100000 0.100000
0.100000 0.100000 0.100000
0.100000 0.100000 0.100000
0.184406 0.090656 0.090656
0.302575 0.077575 0.077575
0.420744 0.064494 0.064494
0.538913 0.051412 0.051412
0.657081 0.038331 0.038331
0.775250 0.025250 0.025250
0.893419 0.012169 0.012169
1.000000 0.000000 0.000000
1.000000 0.000000 0.000000
1.000000 0.000000 0.000000
1.000000 0.000000 0.000000
1.000000 0.000000 0.000000
1.000000 0.000000 0.000000
1.000000 0.000000 0.000000
0.100000 0.100000 0.100000
0.100000 0.100000 0.100000
0.100000 0.100000 0.100000
0.184406 0.090656 0.090656
0.302575 0.077575 0.077575
0.420744 0.064494 0.064494
0.538913 0.051412 0.051412
0.657081 0.038331 0.038331
0.775250 0.025250 0.025250
0.893419 0.012169 0.012169
1.000000 0.000000 0.000000
1.000000 0.000000 0.000000
1.000000 0.000000 0.000000
1.000000 0.000000 0.000000
1.000000 0.000000 0.000000
1.000000 0.000000 0.000000
1.000000 0.000000 0.000000
0.081656 0.175406 0.081656
0.081656 0.175406 0.081656
0.081656 0.175406 0.081656
0.166063 0.166063 0.072313
0.284231 0.152981 0.059231
0.402400 0.139900 0.046150
0.520569 0.126819 0.033069
0.638737 0.113737 0.019987
0.756906 0.100656 0.006906
0.875075 0.087575 0.000000
0.993244 0.074494 0.000000
1.000000 0.061412 0.000000
1.000000 0.048331 0.000000
1.000000 0.040856 0.000000
1.000000 0.040856 0.000000
1.000000 0.040856 0.000000
1.000000 0.040856 0.000000
0.055975 0.280975 0.055975
0.055975 0.280975 0.055975
0.055975 0.280975 0.055975
0.140381 0.271631 0.046631
0.258550 0.258550 0.033550
0.376719 0.245469 0.020469
0.494888 0.232387 0.007387
0.613056 0.219306 0.000000
0.731225 0.206225 0.000000
0.849394 0.193144 0.000000
0.967563 0.180062 0.000000
1.000000 0.166981 0.000000
1.000000 0.153900 0.000000
1.000000 0.146425 0.000000
1.000000 0.146425 0.000000
1.000000 0.146425 0.000000
1.000000 0.146425 0.000000
0.030294 0.386544 0.030294
0.030294 0.386544 0.030294
0.030294 0.386544 0.030294
0.114700 0.377200 0.020950
0.232869 0.364119 0.007869
0.351038 0.351038 0.000000
0.469206 0.337956 0.000000
0.587375 0.324875 0.000000
0.705544 0.311794 0.000000
0.823713 0.298713 0.000000
0.941881 0.285631 0.000000
1.000000 0.272550 0.000000
1.000000 0.259469 0.000000
1.000000 0.251994 0.000000
1.000000 0.251994 0.000000
1.000000 0.251994 0.000000
1.000000 0.251994 0.000000
0.004613 0.492113 0.004613
0.004613 0.492113 0.004613
0.004613 0.492113 0.004613
0.089019 0.482769 0.000000
0.207187 0.469688 0.000000
0.325356 0.456606 0.000000
0.443525 0.443525 0.000000
0.561694 0.430444 0.000000
0.679862 0.417363 0.000000
0.798031 0.404281 0.000000
0.916200 0.391200 0.000000
1.000000 0.378119 0.000000
1.000000 0.365038 0.000000
1.000000 0.357563 0.000000
1.000000 0.357563 0.000000
1.000000 0.357563 0.000000
1.000000 0.357563 0.000000
0.000000 0.597681 0.000000
0.000000 0.597681 0.000000
0.000000 0.597681 0.000000
0.063337 0.588337 0.000000
0.181506 0.575256 0.000000
0.299675 0.562175 0.000000
0.417844 0.549094 0.000000
0.536013 0.536013 0.000000
0.654181 0.522931 0.000000
0.772350 0.509850 0.000000
0.890519 0.496769 0.000000
1.000000 0.483687 0.000000
1.000000 0.470606 0.000000
1.000000 0.463131 0.000000
1.000000 0.463131 0.000000
1.000000 0.463131 0.000000
1.000000 0.463131 0.000000
0.000000 0.703250 0.000000
0.000000 0.703250 0.000000
0.000000 0.703250 0.000000
0.037656 0.693906 0.000000
0.155825 0.680825 0.000000
0.273994 0.667744 0.000000
0.392163 0.654662 0.000000
0.510331 0.641581 0.000000
0.628500 0.628500 0.000000
0.746669 0.615419 0.000000
0.864838 0.602337 0.000000
0.983006 0.589256 0.000000
1.000000 0.576175 0.000000
1.000000 0.568700 0.000000
1.000000 0.568700 0.000000
1.000000 0.568700 0.000000
1.000000 0.568700 0.000000
0.000000 0.808819 0.000000
0.000000 0.808819 0.000000
0.000000 0.808819 0.000000
0.011975 0.799475 0.000000
0.130144 0.786394 0.000000
0.248313 0.773313 0.000000
0.366481 0.760231 0.000000
0.484650 0.747150 0.000000
0.602819 0.734069 0.000000
0.720988 0.720988 0.000000
0.839156 0.707906 0.000000
0.957325 0.694825 0.000000
1.000000 0.681744 0.000000
1.000000 0.674269 0.000000
1.000000 0.674269 0.000000
1.000000 0.674269 0.000000
1.000000 0.674269 0.000000
0.000000 0.914388 0.000000
0.000000 0.914388 0.000000
0.000000 0.914388 0.000000
0.000000 0.905044 0.000000
0.104463 0.891962 0.000000
0.222631 0.878881 0.000000
0.340800 0.865800 0.000000
0.458969 0.852719 0.000000
0.577138 0.839638 0.000000
0.695306 0.826556 0.000000
0.813475 0.813475 0.000000
0.931644 0.800394 0.000000
1.000000 0.787313 0.000000
1.000000 0.779838 0.000000
1.000000 0.779838 0.000000
1.000000 0.779838 0.000000
1.000000 0.779838 0.000000
0.000000 1.000000 0.000000
0.000000 1.000000 0.000000
0.000000 1.000000 0.000000
0.000000 1.000000 0.000000
0.078781 0.997531 0.000000
0.196950 0.984450 0.000000
0.315119 0.971369 0.000000
0.433287 0.958287 0.000000
0.551456 0.945206 0.000000
0.669625 0.932125 0.000000
0.787794 0.919044 0.000000
0.905963 0.905963 0.000000
1.000000 0.892881 0.000000
1.000000 0.885406 0.000000
1.000000 0.885406 0.000000
1.000000 0.885406 0.000000
1.000000 0.885406 0.000000
0.000000 1.000000 0.000000
0.000000 1.000000 0.000000
0.000000 1.000000 0.000000
0.000000 1.000000 0.000000
0.053100 1.000000 0.000000
0.171269 1.000000 0.000000
0.289438 1.000000 0.000000
0.407606 1.000000 0.000000
0.525775 1.000000 0.000000
0.643944 1.000000 0.000000
0.762113 1.000000 0.000000
0.880281 1.000000 0.000000
0.998450 0.998450 0.000000
1.000000 0.990975 0.000000
1.000000 0.990975 0.000000
1.000000 0.990975 0.000000
1.000000 0.990975 0.000000
0.000000 1.000000 0.000000
0.000000 1.000000 0.000000
0.000000 1.000000 0.000000
0.000000 1.000000 0.000000
0.038425 1.000000 0.000000
0.156594 1.000000 0.000000
0.274763 1.000000 0.000000
0.392931 1.000000 0.000000
0.511100 1.000000 0.000000
0.629269 1.000000 0.000000
0.747438 1.000000 0.000000
0.865606 1.000000 0.000000
0.983775 1.000000 0.000000
1.000000 1.000000 0.000000
1.000000 1.000000 0.000000
1.000000 1.000000 0.000000
1.000000 1.000000 0.000000
0.000000 1.000000 0.000000
0.000000 1.000000 0.000000
0.000000 1.000000 0.000000
0.000000 1.000000 0.000000
0.038425 1.000000 0.000000
0.156594 1.000000 0.000000
0.274763 1.000000 0.000000
0.392931 1.000000 0.000000
0.511100 1.000000 0.000000
0.629269 1.000000 0.000000
0.747438 1.000000 0.000000
0.865606 1.000000 0.000000
0.983775 1.000000 0.000000
1.000000 1.000000 0.000000
1.000000 1.000000 0.000000
1.000000 1.000000 0.000000
1.000000 1.000000 0.000000
0.000000 1.000000 0.000000
0.000000 1.000000 0.000000
0.000000 1.000000 0.000000
0.000000 1.000000 0.000000
0.038425 1.000000 0.000000
0.156594 1.000000 0.000000
0.274763 1.000000 0.000000
0.392931 1.000000 0.000000
0.511100 1.000000 0.000000
0.629269 1.000000 0.000000
0.747438 1.000000 0.000000
0.865606 1.000000 0.000000
0.983775 1.000000 0.000000
1.000000 1.000000 0.000000
1.000000 1.000000 0.000000
1.000000 1.000000 0.000000
1.000000 1.000000 0.000000
0.000000 1.000000 0.000000
0.000000 1.000000 0.000000
0.000000 1.000000 0.000000
0.000000 1.000000 0.000000
0.038425 1.000000 0.000000
0.156594 1.000000 0.000000
0.274763 1.000000 0.000000
0.392931 1.000000 0.000000
0.511100 1.000000 0.000000
0.629269 1.000000 0.000000
0.747438 1.000000 0.000000
0.865606 1.000000 0.000000
0.983775 1.000000 0.000000
1.000000 1.000000 0.000000
1.000000 1.000000 0.000000
1.000000 1.000000 0.000000
1.000000 1.000000 0.000000
0.100000 0.100000 0.100000
0.100000 0.100000 0.100000
0.100000 0.100000 0.100000
0.184406 0.090656 0.090656
0.302575 0.077575 0.077575
0.420744 0.064494 0.064494
0.538913 0.051412 0.051412
0.657081 0.038331 0.038331
0.775250 0.025250 0.025250
0.893419 0.012169 0.012169
1.000000 0.000000 0.000000
1.000000 0.000000 0.000000
1.000000 0.000000 0.000000
1.000000 0.000000 0.000000
1.000000 0.000000 0.000000
1.000000 0.000000 0.000000
1.000000 0.000000 0.000000
0.100000 0.100000 0.100000
0.100000 0.100000 0.100000
0.100000 0.100000 0.100000
0.184406 0.090656 0.090656
0.302575 0.077575 0.077575
0.420744 0.064494 0.064494
0.538913 0.051412 0.051412
0.657081 0.038331 0.038331
0.775250 0.025250 0.025250
0.893419 0.012169 0.012169
1.000000 0.000000 0.000000
1.000000 0.000000 0.000000
1.000000 0.000000 0.000000
1.000000 0.000000 0.000000
1.000000 0.000000 0.000000
1.000000 0.000000 0.000000
1.000000 0.000000 0.000000
0.100000 0.100000 0.100000
0.100000 0.100000 0.100000
0.100000 0.100000 0.100000
0.184406 0.090656 0.090656
0.302575 0.077575 0.077575
0.420744 0.064494 0.064494
0.538913 0.051412 0.051412
0.657081 0.038331 0.038331
0.775250 0.025250 0.025250
0.893419 0.012169 0.012169
1.000000 0.000000 0.000000
1.000000 0.000000 0.000000
1.000000 0.000000 0.000000
1.000000 0.000000 0.000000
1.000000 0.000000 0.000000
1.000000 0.000000 0.000000
1.000000 0.000000 0.000000
0.081656 0.175406 0.081656
0.081656 0.175406 0.081656
0.081656 0.175406 0.081656
0.166063 0.166063 0.072313
0.284231 0.152981 0.059231
0.402400 0.139900 0.046150
0.520569 0.126819 0.033069
0.638737 0.113737 0.019987
0.756906 0.100656 0.006906
0.875075 0.087575 0.000000
0.993244 0.074494 0.000000
1.000000 0.061412 0.000000
1.000000 0.048331 0.000000
1.000000 0.040856 0.000000
1.000000 0.040856 0.000000
1.000000 0.040856 0.000000
1.000000 0.040856 0.000000
0.055975 0.280975 0.055975
0.055975 0.280975 0.055975
0.055975 0.280975 0.055975
0.140381 0.271631 0.046631
0.258550 0.258550 0.033550
0.376719 0.245469 0.020469
0.494888 0.232387 0.007387
0.613056 0.219306 0.000000
0.731225 0.206225 0.000000
0.849394 0.193144 0.000000
0.967563 0.180062 0.000000
1.000000 0.166981 0.000000
1.000000 0.153900 0.000000
1.000000 0.146425 0.000000
1.000000 0.146425 0.000000
1.000000 0.146425 0.000000
1.000000 0.146425 0.000000
0.030294 0.386544 0.030294
0.030294 0.386544 0.030294
0.030294 0.386544 0.030294
0.114700 0.377200 0.020950
0.232869 0.364119 0.007869
0.351038 0.351038 0.000000
0.469206 0.337956 0.000000
0.587375 0.324875 0.000000
0.705544 0.311794 0.000000
0.823713 0.298713 0.000000
0.941881 0.285631 0.000000
1.000000 0.272550 0.000000
1.000000 0.259469 0.000000
1.000000 0.251994 0.000000
1.000000 0.251994 0.000000
1.000000 0.251994 0.000000
1.000000 0.251994 0.000000
0.004613 0.492113 0.004613
0.004613 0.492113 0.004613
0.004613 0.492113 0.004613
0.089019 0.482769 0.000000
0.207187 0.469688 0.000000
0.325356 0.456606 0.000000
0.443525 0.443525 0.000000
0.561694 0.430444 0.000000
0.679862 0.417363 0.000000
0.798031 0.404281 0.000000
0.916200 0.391200 0.000000
1.000000 0.378119 0.000000
1.000000 0.365038 0.000000
1.000000 0.357563 0.000000
1.000000 0.357563 0.000000
1.000000 0.357563 0.000000
1.000000 0.357563 0.000000
0.000000 0.597681 0.000000
0.000000 0.597681 0.000000
0.000000 0.597681 0.000000
0.063337 0.588337 0.000000
0.181506 0.575256 0.000000
0.299675 0.562175 0.000000
0.417844 0.549094 0.000000
0.536013 0.536013 0.000000
0.654181 0.522931 0.000000
0.772350 0.509850 0.000000
0.890519 0.496769 0.000000
1.000000 0.483687 0.000000
1.000000 0.470606 0.000000
1.000000 0.463131 0.000000
1.000000 0.463131 0.000000
1.000000 0.463131 0.000000
1.000000 0.463131 0.000000
0.000000 0.703250 0.000000
0.000000 0.703250 0.000000
0.000000 0.703250 0.000000
0.037656 0.693906 0.000000
0.155825 0.680825 0.000000
0.273994 0.667744 0.000000
0.392163 0.654662 0.000000
0.510331 0.641581 0.000000
0.628500 0.628500 0.000000
0.746669 0.615419 0.000000
0.864838 0.602337 0.000000
0.983006 0.589256 0.000000
1.000000 0.576175 0.000000
1.000000 0.568700 0.000000
1.000000 0.568700 0.000000
1.000000 0.568700 0.000000
1.000000 0.568700 0.000000
0.000000 0.808819 0.000000
0.000000 0.808819 0.000000
0.000000 0.808819 0.000000
0.011975 0.799475 0.000000
0.130144 0.786394 0.000000
0.248313 0.773313 0.000000
0.366481 0.760231 0.000000
0.484650 0.747150 0.000000
0.602819 0.734069 0.000000
0.720988 0.720988 0.000000
0.839156 0.707906 0.000000
0.957325 0.694825 0.000000
1.000000 0.681744 0.000000
1.000000 0.674269 0.000000
1.000000 0.674269 0.000000
1.000000 0.674269 0.000000
1.000000 0.674269 0.000000
0.000000 0.914388 0.000000
0.000000 0.914388 0.000000
0.000000 0.914388 0.000000
0.000000 0.905044 0.000000
0.104463 0.891962 0.000000
0.222631 0.878881 0.000000
0.340800 0.865800 0.000000
0.458969 0.852719 0.000000
0.577138 0.839638 0.000000
0.695306 0.826556 0.000000
0.813475 0.813475 0.000000
0.931644 0.800394 0.000000
1.000000 0.787313 0.000000
1.000000 0.779838 0.000000
1.000000 0.779838 0.000000
1.000000 0.779838 0.000000
1.000000 0.779838 0.000000
0.000000 1.000000 0.000000
0.000000 1.000000 0.000000
0.000000 1.000000 0.000000
0.000000 1.000000 0.000000
0.078781 0.997531 0.000000
0.196950 0.984450 0.000000
0.315119 0.971369 0.000000
0.433287 0.958287 0.000000
0.551456 0.945206 0.000000
0.669625 0.932125 0.000000
0.787794 0.919044 0.000000
0.905963 0.905963 0.000000
1.000000 0.892881 0.000000
1.000000 0.885406 0.000000
1.000000 0.885406 0.000000
1.000000 0.885406 0.000000
1.000000 0.885406 0.000000
0.000000 1.000000 0.000000
0.000000 1.000000 0.000000
0.000000 1.000000 0.000000
0.000000 1.000000 0.000000
0.053100 1.000000 0.000000
0.171269 1.000000 0.000000
0.289438 1.000000 0.000000
0.407606 1.000000 0.000000
0.525775 1.000000 0.000000
0.643944 1.000000 0.000000
0.762113 1.000000 0.000000
0.880281 1.000000 0.000000
0.998450 0.998450 0.000000
1.000000 0.990975 0.000000
1.000000 0.990975 0.000000
1.000000 0.990975 0.000000
1.000000 0.990975 0.000000
0.000000 1.000000 0.000000
0.000000 1.000000 0.000000
0.000000 1.000000 0.000000
0.000000 1.000000 0.000000
0.038425 1.000000 0.000000
0.156594 1.000000 0.000000
0.274763 1.000000 0.000000
0.392931 1.000000 0.000000
0.511100 1.000000 0.000000
0.629269 1.000000 0.000000
0.747438 1.000000 0.000000
0.865606 1.000000 0.000000
0.983775 1.000000 0.000000
1.000000 1.000000 0.000000
1.000000 1.000000 0.000000
1.000000 1.000000 0.000000
1.000000 1.000000 0.000000
0.000000 1.000000 0.000000
0.000000 1.000000 0.000000
0.000000 1.000000 0.000000
0.000000 1.000000 0.000000
0.038425 1.000000 0.000000
0.156594 1.000000 0.000000
0.274763 1.000000 0.000000
0.392931 1.000000 0.000000
0.511100 1.000000 0.000000
0.629269 1.000000 0.000000
0.747438 1.000000 0.000000
0.865606 1.000000 0.000000
0.983775 1.000000 0.000000
1.000000 1.000000 0.000000
1.000000 1.000000 0.000000
1.000000 1.000000 0.000000
1.000000 1.000000 0.000000
0.000000 1.000000 0.000000
0.000000 1.000000 0.000000
0.000000 1.000000 0.000000
0.000000 1.000000 0.000000
0.038425 1.000000 0.000000
0.156594 1.000000 0.000000
0.274763 1.000000 0.000000
0.392931 1.000000 0.000000
0.511100 1.000000 0.000000
0.629269 1.000000 0.000000
0.747438 1.000000 0.000000
0.865606 1.000000 0.000000
0.983775 1.000000 0.000000
1.000000 1.000000 0.000000
1.000000 1.000000 0.000000
1.000000 1.000000 0.000000
1.000000 1.000000 0.000000
0.000000 1.000000 0.000000
0.000000 1.000000 0.000000
0.000000 1.000000 0.000000
0.000000 1.000000 0.000000
0.038425 1.000000 0.000000
0.156594 1.000000 0.000000
0.274763 1.000000 0.000000
0.392931 1.000000 0.000000
0.511100 1.000000 0.000000
0.629269 1.000000 0.000000
0.747438 1.000000 0.000000
0.865606 1.000000 0.000000
0.983775 1.000000 0.000000
1.000000 1.000000 0.000000
1.000000 1.000000 0.000000
1.000000 1.000000 0.000000
1.000000 1.000000 0.000000
0.096438 0.096438 0.190188
0.096438 0.096438 0.190188
0.096438 0.096438 0.190188
0.180844 0.087094 0.180844
0.299013 0.074012 0.167762
0.417181 0.060931 0.154681
0.535350 0.047850 0.141600
0.653519 0.034769 0.128519
0.771687 0.021688 0.115438
0.889856 0.008606 0.102356
1.000000 0.000000 0.089275
1.000000 0.000000 0.076194
1.000000 0.000000 0.063113
1.000000 0.000000 0.055638
1.000000 0.000000 0.055638
1.000000 0.000000 0.055638
1.000000 0.000000 0.055638
0.096438 0.096438 0.190188
0.096438 0.096438 0.190188
0.096438 0.096438 0.190188
