server/luts/tiktok.cube
TITLE "Tiktok"
LUT_3D_SIZE 5
0.100000 0.100000 0.100000
0.302575 0.077575 0.077575
0.775250 0.025250 0.025250
1.000000 0.000000 0.000000
1.000000 0.000000 0.000000
0.055975 0.280975 0.055975
0.258550 0.258550 0.033550
0.731225 0.206225 0.000000
1.000000 0.153900 0.000000
1.000000 0.146425 0.000000
0.000000 0.703250 0.000000
0.155825 0.680825 0.000000
0.628500 0.628500 0.000000
1.000000 0.576175 0.000000
1.000000 0.568700 0.000000
0.000000 1.000000 0.000000
0.053100 1.000000 0.000000
0.525775 1.000000 0.000000
0.998450 0.998450 0.000000
1.000000 0.990975 0.000000
0.000000 1.000000 0.000000
0.038425 1.000000 0.000000
0.511100 1.000000 0.000000
0.983775 1.000000 0.000000
1.000000 1.000000 0.000000
0.091450 0.091450 0.316450
0.294025 0.069025 0.294025
0.766700 0.016700 0.241700
1.000000 0.000000 0.189375
1.000000 0.000000 0.181900
0.047425 0.272425 0.272425
0.250000 0.250000 0.250000
0.722675 0.197675 0.197675
1.000000 0.145350 0.145350
1.000000 0.137875 0.137875
0.000000 0.694700 0.169700
0.147275 0.672275 0.147275
0.619950 0.619950 0.094950
1.000000 0.567625 0.042625
1.000000 0.560150 0.035150
0.000000 1.000000 0.066975
0.044550 1.000000 0.044550
0.517225 1.000000 0.000000
0.989900 0.989900 0.000000
1.000000 0.982425 0.000000
0.000000 1.000000 0.052300
0.029875 1.000000 0.029875
0.502550 1.000000 0.000000
0.975225 1.000000 0.000000
1.000000 1.000000 0.000000
0.071500 0.071500 0.821500
0.274075 0.049075 0.799075
0.746750 0.000000 0.746750
1.000000 0.000000 0.694425
1.000000 0.000000 0.686950
0.027475 0.252475 0.777475
0.230050 0.230050 0.755050
0.702725 0.177725 0.702725
1.000000 0.125400 0.650400
1.000000 0.117925 0.642925
0.000000 0.674750 0.674750
0.127325 0.652325 0.652325
0.600000 0.600000 0.600000
1.000000 0.547675 0.547675
1.000000 0.540200 0.540200
0.000000 1.000000 0.572025
0.024600 1.000000 0.549600
0.497275 1.000000 0.497275
0.969950 0.969950 0.444950
1.000000 0.962475 0.437475
0.000000 1.000000 0.557350
0.009925 1.000000 0.534925
0.482600 1.000000 0.482600
0.955275 1.000000 0.430275
1.000000 1.000000 0.422800
0.051550 0.051550 1.000000
0.254125 0.029125 1.000000
0.726800 0.000000 1.000000
1.000000 0.000000 1.000000
1.000000 0.000000 1.000000
0.007525 0.232525 1.000000
0.210100 0.210100 1.000000
0.682775 0.157775 1.000000
1.000000 0.105450 1.000000
1.000000 0.097975 1.000000
0.000000 0.654800 1.000000
0.107375 0.632375 1.000000
0.580050 0.580050 1.000000
1.000000 0.527725 1.000000
1.000000 0.520250 1.000000
0.000000 1.000000 1.000000
0.004650 1.000000 1.000000
0.477325 1.000000 1.000000
0.950000 0.950000 0.950000
1.000000 0.942525 0.942525
0.000000 1.000000 1.000000
0.000000 1.000000 1.000000
0.462650 1.000000 0.987650
0.935325 1.000000 0.935325
1.000000 1.000000 0.927850
0.048700 0.048700 1.000000
0.251275 0.026275 1.000000
0.723950 0.000000 1.000000
1.000000 0.000000 1.000000
1.000000 0.000000 1.000000
0.004675 0.229675 1.000000
0.207250 0.207250 1.000000
0.679925 0.154925 1.000000
1.000000 0.102600 1.000000
1.000000 0.095125 1.000000
0.000000 0.651950 1.000000
0.104525 0.629525 1.000000
0.577200 0.577200 1.000000
1.000000 0.524875 1.000000
1.000000 0.517400 1.000000
0.000000 1.000000 1.000000
0.001800 1.000000 1.000000
0.474475 0.999475 1.000000
0.947150 0.947150 1.000000
1.000000 0.939675 1.000000
0.000000 1.000000 1.000000
0.000000 1.000000 1.000000
0.459800 1.000000 1.000000
0.932475 1.000000 1.000000
1.000000 1.000000 1.000000
