server/luts/tiktok.cube
TITLE "Tiktok"
LUT_3D_SIZE 9
0.100000 0.100000 0.100000
0.100000 0.100000 0.100000
0.302575 0.077575 0.077575
0.538913 0.051412 0.051412
0.775250 0.025250 0.025250
1.000000 0.000000 0.000000
1.000000 0.000000 0.000000
1.000000 0.000000 0.000000
1.000000 0.000000 0.000000
0.100000 0.100000 0.100000
0.100000 0.100000 0.100000
0.302575 0.077575 0.077575
0.538913 0.051412 0.051412
0.775250 0.025250 0.025250
1.000000 0.000000 0.000000
1.000000 0.000000 0.000000
1.000000 0.000000 0.000000
1.000000 0.000000 0.000000
0.055975 0.280975 0.055975
0.055975 0.280975 0.055975
0.258550 0.258550 0.033550
0.494888 0.232387 0.007387
0.731225 0.206225 0.000000
0.967563 0.180062 0.000000
1.000000 0.153900 0.000000
1.000000 0.146425 0.000000
1.000000 0.146425 0.000000
0.004613 0.492113 0.004613
0.004613 0.492113 0.004613
0.207187 0.469688 0.000000
0.443525 0.443525 0.000000
0.679862 0.417363 0.000000
0.916200 0.391200 0.000000
1.000000 0.365038 0.000000
1.000000 0.357563 0.000000
1.000000 0.357563 0.000000
0.000000 0.703250 0.000000
0.000000 0.703250 0.000000
0.155825 0.680825 0.000000
0.392163 0.654662 0.000000
0.628500 0.628500 0.000000
0.864838 0.602337 0.000000
1.000000 0.576175 0.000000
1.000000 0.568700 0.000000
1.000000 0.568700 0.000000
0.000000 0.914388 0.000000
0.000000 0.914388 0.000000
0.104463 0.891962 0.000000
0.340800 0.865800 0.000000
0.577138 0.839638 0.000000
0.813475 0.813475 0.000000
1.000000 0.787313 0.000000
1.000000 0.779838 0.000000
1.000000 0.779838 0.000000
0.000000 1.000000 0.000000
0.000000 1.000000 0.000000
0.053100 1.000000 0.000000
0.289438 1.000000 0.000000
0.525775 1.000000 0.000000
0.762113 1.000000 0.000000
0.998450 0.998450 0.000000
1.000000 0.990975 0.000000
1.000000 0.990975 0.000000
0.000000 1.000000 0.000000
0.000000 1.000000 0.000000
0.038425 1.000000 0.000000
0.274763 1.000000 0.000000
0.511100 1.000000 0.000000
0.747438 1.000000 0.000000
0.983775 1.000000 0.000000
1.000000 1.000000 0.000000
1.000000 1.000000 0.000000
0.000000 1.000000 0.000000
0.000000 1.000000 0.000000
0.038425 1.000000 0.000000
0.274763 1.000000 0.000000
0.511100 1.000000 0.000000
0.747438 1.000000 0.000000
0.983775 1.000000 0.000000
1.000000 1.000000 0.000000
1.000000 1.000000 0.000000
0.100000 0.100000 0.100000
0.100000 0.100000 0.100000
0.302575 0.077575 0.077575
0.538913 0.051412 0.051412
0.775250 0.025250 0.025250
1.000000 0.000000 0.000000
1.000000 0.000000 0.000000
1.000000 0.000000 0.000000
1.000000 0.000000 0.000000
0.100000 0.100000 0.100000
0.100000 0.100000 0.100000
0.302575 0.077575 0.077575
0.538913 0.051412 0.051412
0.775250 0.025250 0.025250
1.000000 0.000000 0.000000
1.000000 0.000000 0.000000
1.000000 0.000000 0.000000
1.000000 0.000000 0.000000
0.055975 0.280975 0.055975
0.055975 0.280975 0.055975
0.258550 0.258550 0.033550
0.494888 0.232387 0.007387
0.731225 0.206225 0.000000
0.967563 0.180062 0.000000
1.000000 0.153900 0.000000
1.000000 0.146425 0.000000
1.000000 0.146425 0.000000
0.004613 0.492113 0.004613
0.004613 0.492113 0.004613
0.207187 0.469688 0.000000
0.443525 0.443525 0.000000
0.679862 0.417363 0.000000
0.916200 0.391200 0.000000
1.000000 0.365038 0.000000
1.000000 0.357563 0.000000
1.000000 0.357563 0.000000
0.000000 0.703250 0.000000
0.000000 0.703250 0.000000
0.155825 0.680825 0.000000
0.392163 0.654662 0.000000
0.628500 0.628500 0.000000
0.864838 0.602337 0.000000
1.000000 0.576175 0.000000
1.000000 0.568700 0.000000
1.000000 0.568700 0.000000
0.000000 0.914388 0.000000
0.000000 0.914388 0.000000
0.104463 0.891962 0.000000
0.340800 0.865800 0.000000
0.577138 0.839638 0.000000
0.813475 0.813475 0.000000
1.000000 0.787313 0.000000
1.000000 0.779838 0.000000
1.000000 0.779838 0.000000
0.000000 1.000000 0.000000
0.000000 1.000000 0.000000
0.053100 1.000000 0.000000
0.289438 1.000000 0.000000
0.525775 1.000000 0.000000
0.762113 1.000000 0.000000
0.998450 0.998450 0.000000
1.000000 0.990975 0.000000
1.000000 0.990975 0.000000
0.000000 1.000000 0.000000
0.000000 1.000000 0.000000
0.038425 1.000000 0.000000
0.274763 1.000000 0.000000
0.511100 1.000000 0.000000
0.747438 1.000000 0.000000
0.983775 1.000000 0.000000
1.000000 1.000000 0.000000
1.000000 1.000000 0.000000
0.000000 1.000000 0.000000
0.000000 1.000000 0.000000
0.038425 1.000000 0.000000
0.274763 1.000000 0.000000
0.511100 1.000000 0.000000
0.747438 1.000000 0.000000
0.983775 1.000000 0.000000
1.000000 1.000000 0.000000
1.000000 1.000000 0.000000
0.091450 0.091450 0.316450
0.091450 0.091450 0.316450
0.294025 0.069025 0.294025
0.530363 0.042862 0.267863
0.766700 0.016700 0.241700
1.000000 0.000000 0.215537
1.000000 0.000000 0.189375
1.000000 0.000000 0.181900
1.000000 0.000000 0.181900
0.091450 0.091450 0.316450
0.091450 0.091450 0.316450
0.294025 0.069025 0.294025
0.530363 0.042862 0.267863
0.766700 0.016700 0.241700
1.000000 0.000000 0.215537
1.000000 0.000000 0.189375
1.000000 0.000000 0.181900
1.000000 0.000000 0.181900
0.047425 0.272425 0.272425
0.047425 0.272425 0.272425
0.250000 0.250000 0.250000
0.486338 0.223837 0.223837
0.722675 0.197675 0.197675
0.959013 0.171512 0.171512
1.000000 0.145350 0.145350
1.000000 0.137875 0.137875
1.000000 0.137875 0.137875
0.000000 0.483563 0.221062
0.000000 0.483563 0.221062
0.198637 0.461138 0.198637
0.434975 0.434975 0.172475
0.671312 0.408813 0.146313
0.907650 0.382650 0.120150
1.000000 0.356488 0.093988
1.000000 0.349013 0.086512
1.000000 0.349013 0.086512
0.000000 0.694700 0.169700
0.000000 0.694700 0.169700
0.147275 0.672275 0.147275
0.383613 0.646112 0.121113
0.619950 0.619950 0.094950
0.856288 0.593788 0.068788
1.000000 0.567625 0.042625
1.000000 0.560150 0.035150
1.000000 0.560150 0.035150
0.000000 0.905838 0.118338
0.000000 0.905838 0.118338
0.095913 0.883413 0.095913
0.332250 0.857250 0.069750
0.568588 0.831088 0.043588
0.804925 0.804925 0.017425
1.000000 0.778763 0.000000
1.000000 0.771288 0.000000
1.000000 0.771288 0.000000
0.000000 1.000000 0.066975
0.000000 1.000000 0.066975
0.044550 1.000000 0.044550
0.280888 1.000000 0.018388
0.517225 1.000000 0.000000
0.753563 1.000000 0.000000
0.989900 0.989900 0.000000
1.000000 0.982425 0.000000
1.000000 0.982425 0.000000
0.000000 1.000000 0.052300
0.000000 1.000000 0.052300
0.029875 1.000000 0.029875
0.266213 1.000000 0.003713
0.502550 1.000000 0.000000
0.738888 1.000000 0.000000
0.975225 1.000000 0.000000
1.000000 1.000000 0.000000
1.000000 1.000000 0.000000
0.000000 1.000000 0.052300
0.000000 1.000000 0.052300
0.029875 1.000000 0.029875
0.266213 1.000000 0.003713
0.502550 1.000000 0.000000
0.738888 1.000000 0.000000
0.975225 1.000000 0.000000
1.000000 1.000000 0.000000
1.000000 1.000000 0.000000
0.081475 0.081475 0.568975
0.081475 0.081475 0.568975
0.284050 0.059050 0.546550
0.520388 0.032888 0.520388
0.756725 0.006725 0.494225
0.993062 0.000000 0.468063
1.000000 0.000000 0.441900
1.000000 0.000000 0.434425
1.000000 0.000000 0.434425
0.081475 0.081475 0.568975
0.081475 0.081475 0.568975
0.284050 0.059050 0.546550
0.520388 0.032888 0.520388
0.756725 0.006725 0.494225
0.993062 0.000000 0.468063
1.000000 0.000000 0.441900
1.000000 0.000000 0.434425
1.000000 0.000000 0.434425
0.037450 0.262450 0.524950
0.037450 0.262450 0.524950
0.240025 0.240025 0.502525
0.476363 0.213863 0.476363
0.712700 0.187700 0.450200
0.949037 0.161538 0.424038
1.000000 0.135375 0.397875
1.000000 0.127900 0.390400
1.000000 0.127900 0.390400
0.000000 0.473588 0.473588
0.000000 0.473588 0.473588
0.188663 0.451163 0.451163
0.425000 0.425000 0.425000
0.661337 0.398838 0.398838
0.897675 0.372675 0.372675
1.000000 0.346513 0.346513
1.000000 0.339038 0.339038
1.000000 0.339038 0.339038
0.000000 0.684725 0.422225
0.000000 0.684725 0.422225
0.137300 0.662300 0.399800
0.373638 0.636138 0.373638
0.609975 0.609975 0.347475
0.846313 0.583813 0.321313
1.000000 0.557650 0.295150
1.000000 0.550175 0.287675
1.000000 0.550175 0.287675
0.000000 0.895863 0.370863
0.000000 0.895863 0.370863
0.085938 0.873438 0.348438
0.322275 0.847275 0.322275
0.558612 0.821113 0.296113
0.794950 0.794950 0.269950
1.000000 0.768788 0.243788
1.000000 0.761313 0.236313
1.000000 0.761313 0.236313
0.000000 1.000000 0.319500
0.000000 1.000000 0.319500
0.034575 1.000000 0.297075
0.270913 1.000000 0.270913
0.507250 1.000000 0.244750
0.743588 1.000000 0.218588
0.979925 0.979925 0.192425
1.000000 0.972450 0.184950
1.000000 0.972450 0.184950
0.000000 1.000000 0.304825
0.000000 1.000000 0.304825
0.019900 1.000000 0.282400
0.256238 1.000000 0.256238
0.492575 1.000000 0.230075
0.728913 1.000000 0.203913
0.965250 1.000000 0.177750
1.000000 1.000000 0.170275
1.000000 1.000000 0.170275
0.000000 1.000000 0.304825
0.000000 1.000000 0.304825
0.019900 1.000000 0.282400
0.256238 1.000000 0.256238
0.492575 1.000000 0.230075
0.728913 1.000000 0.203913
0.965250 1.000000 0.177750
1.000000 1.000000 0.170275
1.000000 1.000000 0.170275
0.071500 0.071500 0.821500
0.071500 0.071500 0.821500
0.274075 0.049075 0.799075
0.510413 0.022913 0.772912
0.746750 0.000000 0.746750
0.983088 0.000000 0.720587
1.000000 0.000000 0.694425
1.000000 0.000000 0.686950
1.000000 0.000000 0.686950
0.071500 0.071500 0.821500
0.071500 0.071500 0.821500
0.274075 0.049075 0.799075
0.510413 0.022913 0.772912
0.746750 0.000000 0.746750
0.983088 0.000000 0.720587
1.000000 0.000000 0.694425
1.000000 0.000000 0.686950
1.000000 0.000000 0.686950
0.027475 0.252475 0.777475
0.027475 0.252475 0.777475
0.230050 0.230050 0.755050
0.466388 0.203887 0.728887
0.702725 0.177725 0.702725
0.939063 0.151562 0.676562
1.000000 0.125400 0.650400
1.000000 0.117925 0.642925
1.000000 0.117925 0.642925
0.000000 0.463613 0.726112
0.000000 0.463613 0.726112
0.178687 0.441188 0.703688
0.415025 0.415025 0.677525
0.651362 0.388863 0.651362
0.887700 0.362700 0.625200
1.000000 0.336538 0.599037
1.000000 0.329063 0.591562
1.000000 0.329063 0.591562
0.000000 0.674750 0.674750
0.000000 0.674750 0.674750
0.127325 0.652325 0.652325
0.363663 0.626162 0.626162
0.600000 0.600000 0.600000
0.836338 0.573838 0.573838
1.000000 0.547675 0.547675
1.000000 0.540200 0.540200
1.000000 0.540200 0.540200
0.000000 0.885888 0.623387
0.000000 0.885888 0.623387
0.075963 0.863463 0.600962
0.312300 0.837300 0.574800
0.548638 0.811138 0.548638
0.784975 0.784975 0.522475
1.000000 0.758813 0.496312
1.000000 0.751337 0.488837
1.000000 0.751337 0.488837
0.000000 1.000000 0.572025
0.000000 1.000000 0.572025
0.024600 1.000000 0.549600
0.260938 1.000000 0.523438
0.497275 1.000000 0.497275
0.733613 0.996112 0.471112
0.969950 0.969950 0.444950
1.000000 0.962475 0.437475
1.000000 0.962475 0.437475
0.000000 1.000000 0.557350
0.000000 1.000000 0.557350
0.009925 1.000000 0.534925
0.246263 1.000000 0.508763
0.482600 1.000000 0.482600
0.718938 1.000000 0.456437
0.955275 1.000000 0.430275
1.000000 1.000000 0.422800
1.000000 1.000000 0.422800
0.000000 1.000000 0.557350
0.000000 1.000000 0.557350
0.009925 1.000000 0.534925
0.246263 1.000000 0.508763
0.482600 1.000000 0.482600
0.718938 1.000000 0.456437
0.955275 1.000000 0.430275
1.000000 1.000000 0.422800
1.000000 1.000000 0.422800
0.061525 0.061525 1.000000
0.061525 0.061525 1.000000
0.264100 0.039100 1.000000
0.500438 0.012937 1.000000
0.736775 0.000000 0.999275
0.973113 0.000000 0.973113
1.000000 0.000000 0.946950
1.000000 0.000000 0.939475
1.000000 0.000000 0.939475
0.061525 0.061525 1.000000
0.061525 0.061525 1.000000
0.264100 0.039100 1.000000
0.500438 0.012937 1.000000
0.736775 0.000000 0.999275
0.973113 0.000000 0.973113
1.000000 0.000000 0.946950
1.000000 0.000000 0.939475
1.000000 0.000000 0.939475
0.017500 0.242500 1.000000
0.017500 0.242500 1.000000
0.220075 0.220075 1.000000
0.456413 0.193912 0.981413
0.692750 0.167750 0.955250
0.929088 0.141587 0.929088
1.000000 0.115425 0.902925
1.000000 0.107950 0.895450
1.000000 0.107950 0.895450
0.000000 0.453638 0.978638
0.000000 0.453638 0.978638
0.168712 0.431213 0.956213
0.405050 0.405050 0.930050
0.641387 0.378888 0.903887
0.877725 0.352725 0.877725
1.000000 0.326563 0.851563
1.000000 0.319088 0.844087
1.000000 0.319088 0.844087
0.000000 0.664775 0.927275
0.000000 0.664775 0.927275
0.117350 0.642350 0.904850
0.353688 0.616187 0.878688
0.590025 0.590025 0.852525
0.826363 0.563862 0.826363
1.000000 0.537700 0.800200
1.000000 0.530225 0.792725
1.000000 0.530225 0.792725
0.000000 0.875913 0.875913
0.000000 0.875913 0.875913
0.065987 0.853487 0.853487
0.302325 0.827325 0.827325
0.538663 0.801162 0.801162
0.775000 0.775000 0.775000
1.000000 0.748838 0.748838
1.000000 0.741363 0.741363
1.000000 0.741363 0.741363
0.000000 1.000000 0.824550
0.000000 1.000000 0.824550
0.014625 1.000000 0.802125
0.250963 1.000000 0.775962
0.487300 1.000000 0.749800
0.723638 0.986137 0.723638
0.959975 0.959975 0.697475
1.000000 0.952500 0.690000
1.000000 0.952500 0.690000
0.000000 1.000000 0.809875
0.000000 1.000000 0.809875
0.000000 1.000000 0.787450
0.236288 1.000000 0.761288
0.472625 1.000000 0.735125
0.708963 1.000000 0.708963
0.945300 1.000000 0.682800
1.000000 1.000000 0.675325
1.000000 1.000000 0.675325
0.000000 1.000000 0.809875
0.000000 1.000000 0.809875
0.000000 1.000000 0.787450
0.236288 1.000000 0.761288
0.472625 1.000000 0.735125
0.708963 1.000000 0.708963
0.945300 1.000000 0.682800
1.000000 1.000000 0.675325
1.000000 1.000000 0.675325
0.051550 0.051550 1.000000
0.051550 0.051550 1.000000
0.254125 0.029125 1.000000
0.490463 0.002962 1.000000
0.726800 0.000000 1.000000
0.963137 0.000000 1.000000
1.000000 0.000000 1.000000
1.000000 0.000000 1.000000
1.000000 0.000000 1.000000
0.051550 0.051550 1.000000
0.051550 0.051550 1.000000
0.254125 0.029125 1.000000
0.490463 0.002962 1.000000
0.726800 0.000000 1.000000
0.963137 0.000000 1.000000
1.000000 0.000000 1.000000
1.000000 0.000000 1.000000
1.000000 0.000000 1.000000
0.007525 0.232525 1.000000
0.007525 0.232525 1.000000
0.210100 0.210100 1.000000
0.446438 0.183938 1.000000
0.682775 0.157775 1.000000
0.919112 0.131612 1.000000
1.000000 0.105450 1.000000
1.000000 0.097975 1.000000
1.000000 0.097975 1.000000
0.000000 0.443663 1.000000
0.000000 0.443663 1.000000
0.158738 0.421238 1.000000
0.395075 0.395075 1.000000
0.631412 0.368913 1.000000
0.867750 0.342750 1.000000
1.000000 0.316588 1.000000
1.000000 0.309113 1.000000
1.000000 0.309113 1.000000
0.000000 0.654800 1.000000
0.000000 0.654800 1.000000
0.107375 0.632375 1.000000
0.343713 0.606213 1.000000
0.580050 0.580050 1.000000
0.816388 0.553888 1.000000
1.000000 0.527725 1.000000
1.000000 0.520250 1.000000
1.000000 0.520250 1.000000
0.000000 0.865938 1.000000
0.000000 0.865938 1.000000
0.056013 0.843513 1.000000
0.292350 0.817350 1.000000
0.528687 0.791188 1.000000
0.765025 0.765025 1.000000
1.000000 0.738863 1.000000
1.000000 0.731388 0.993888
1.000000 0.731388 0.993888
0.000000 1.000000 1.000000
0.000000 1.000000 1.000000
0.004650 1.000000 1.000000
0.240988 1.000000 1.000000
0.477325 1.000000 1.000000
0.713663 0.976163 0.976163
0.950000 0.950000 0.950000
1.000000 0.942525 0.942525
1.000000 0.942525 0.942525
0.000000 1.000000 1.000000
0.000000 1.000000 1.000000
0.000000 1.000000 1.000000
0.226313 1.000000 1.000000
0.462650 1.000000 0.987650
0.698988 1.000000 0.961488
0.935325 1.000000 0.935325
1.000000 1.000000 0.927850
1.000000 1.000000 0.927850
0.000000 1.000000 1.000000
0.000000 1.000000 1.000000
0.000000 1.000000 1.000000
0.226313 1.000000 1.000000
0.462650 1.000000 0.987650
0.698988 1.000000 0.961488
0.935325 1.000000 0.935325
1.000000 1.000000 0.927850
1.000000 1.000000 0.927850
0.048700 0.048700 1.000000
0.048700 0.048700 1.000000
0.251275 0.026275 1.000000
0.487613 0.000113 1.000000
0.723950 0.000000 1.000000
0.960287 0.000000 1.000000
1.000000 0.000000 1.000000
1.000000 0.000000 1.000000
1.000000 0.000000 1.000000
0.048700 0.048700 1.000000
0.048700 0.048700 1.000000
0.251275 0.026275 1.000000
0.487613 0.000113 1.000000
0.723950 0.000000 1.000000
0.960287 0.000000 1.000000
1.000000 0.000000 1.000000
1.000000 0.000000 1.000000
1.000000 0.000000 1.000000
0.004675 0.229675 1.000000
0.004675 0.229675 1.000000
0.207250 0.207250 1.000000
0.443588 0.181088 1.000000
0.679925 0.154925 1.000000
0.916262 0.128763 1.000000
1.000000 0.102600 1.000000
1.000000 0.095125 1.000000
1.000000 0.095125 1.000000
0.000000 0.440813 1.000000
0.000000 0.440813 1.000000
0.155888 0.418388 1.000000
0.392225 0.392225 1.000000
0.628562 0.366063 1.000000
0.864900 0.339900 1.000000
1.000000 0.313738 1.000000
1.000000 0.306263 1.000000
1.000000 0.306263 1.000000
0.000000 0.651950 1.000000
0.000000 0.651950 1.000000
0.104525 0.629525 1.000000
0.340863 0.603363 1.000000
0.577200 0.577200 1.000000
0.813538 0.551038 1.000000
1.000000 0.524875 1.000000
1.000000 0.517400 1.000000
1.000000 0.517400 1.000000
0.000000 0.863088 1.000000
0.000000 0.863088 1.000000
0.053163 0.840663 1.000000
0.289500 0.814500 1.000000
0.525837 0.788338 1.000000
0.762175 0.762175 1.000000
0.998512 0.736013 1.000000
1.000000 0.728538 1.000000
1.000000 0.728538 1.000000
0.000000 1.000000 1.000000
0.000000 1.000000 1.000000
0.001800 1.000000 1.000000
0.238138 1.000000 1.000000
0.474475 0.999475 1.000000
0.710813 0.973313 1.000000
0.947150 0.947150 1.000000
1.000000 0.939675 1.000000
1.000000 0.939675 1.000000
0.000000 1.000000 1.000000
0.000000 1.000000 1.000000
0.000000 1.000000 1.000000
0.223463 1.000000 1.000000
0.459800 1.000000 1.000000
0.696138 1.000000 1.000000
0.932475 1.000000 1.000000
1.000000 1.000000 1.000000
1.000000 1.000000 1.000000
0.000000 1.000000 1.000000
0.000000 1.000000 1.000000
0.000000 1.000000 1.000000
0.223463 1.000000 1.000000
0.459800 1.000000 1.000000
0.696138 1.000000 1.000000
0.932475 1.000000 1.000000
1.000000 1.000000 1.000000
1.000000 1.000000 1.000000
0.048700 0.048700 1.000000
0.048700 0.048700 1.000000
0.251275 0.026275 1.000000
0.487613 0.000113 1.000000
0.723950 0.000000 1.000000
0.960287 0.000000 1.000000
1.000000 0.000000 1.000000
1.000000 0.000000 1.000000
1.000000 0.000000 1.000000
0.048700 0.048700 1.000000
0.048700 0.048700 1.000000
0.251275 0.026275 1.000000
0.487613 0.000113 1.000000
0.723950 0.000000 1.000000
0.960287 0.000000 1.000000
1.000000 0.000000 1.000000
1.000000 0.000000 1.000000
1.000000 0.000000 1.000000
0.004675 0.229675 1.000000
0.004675 0.229675 1.000000
0.207250 0.207250 1.000000
0.443588 0.181088 1.000000
0.679925 0.154925 1.000000
0.916262 0.128763 1.000000
1.000000 0.102600 1.000000
1.000000 0.095125 1.000000
1.000000 0.095125 1.000000
0.000000 0.440813 1.000000
0.000000 0.440813 1.000000
0.155888 0.418388 1.000000
0.392225 0.392225 1.000000
0.628562 0.366063 1.000000
0.864900 0.339900 1.000000
1.000000 0.313738 1.000000
1.000000 0.306263 1.000000
1.000000 0.306263 1.000000
0.000000 0.651950 1.000000
0.000000 0.651950 1.000000
0.104525 0.629525 1.000000
0.340863 0.603363 1.000000
0.577200 0.577200 1.000000
0.813538 0.551038 1.000000
1.000000 0.524875 1.000000
1.000000 0.517400 1.000000
1.000000 0.517400 1.000000
0.000000 0.863088 1.000000
0.000000 0.863088 1.000000
0.053163 0.840663 1.000000
0.289500 0.814500 1.000000
0.525837 0.788338 1.000000
0.762175 0.762175 1.000000
0.998512 0.736013 1.000000
1.000000 0.728538 1.000000
1.000000 0.728538 1.000000
0.000000 1.000000 1.000000
0.000000 1.000000 1.000000
0.001800 1.000000 1.000000
0.238138 1.000000 1.000000
0.474475 0.999475 1.000000
0.710813 0.973313 1.000000
0.947150 0.947150 1.000000
1.000000 0.939675 1.000000
1.000000 0.939675 1.000000
0.000000 1.000000 1.000000
0.000000 1.000000 1.000000
0.000000 1.000000 1.000000
0.223463 1.000000 1.000000
0.459800 1.000000 1.000000
0.696138 1.000000 1.000000
0.932475 1.000000 1.000000
1.000000 1.000000 1.000000
1.000000 1.000000 1.000000
0.000000 1.000000 1.000000
0.000000 1.000000 1.000000
0.000000 1.000000 1.000000
0.223463 1.000000 1.000000
0.459800 1.000000 1.000000
0.696138 1.000000 1.000000
0.932475 1.000000 1.000000
1.000000 1.000000 1.000000
1.000000 1.000000 1.000000
