server/luts/vibrant.cube
TITLE "Vibrant"
LUT_3D_SIZE 17
0.050000 0.050000 0.050000
0.050000 0.050000 0.050000
0.117525 0.042525 0.042525
0.218812 0.031313 0.031313
0.320100 0.020100 0.020100
0.421388 0.008887 0.008887
0.522675 0.000000 0.000000
0.623962 0.000000 0.000000
0.725250 0.000000 0.000000
0.826538 0.000000 0.000000
0.927825 0.000000 0.000000
1.000000 0.000000 0.000000
1.000000 0.000000 0.000000
1.000000 0.000000 0.000000
1.000000 0.000000 0.000000
1.000000 0.000000 0.000000
1.000000 0.000000 0.000000
0.050000 0.050000 0.050000
0.050000 0.050000 0.050000
0.117525 0.042525 0.042525
0.218812 0.031313 0.031313
0.320100 0.020100 0.020100
0.421388 0.008887 0.008887
0.522675 0.000000 0.000000
0.623962 0.000000 0.000000
0.725250 0.000000 0.000000
0.826538 0.000000 0.000000
0.927825 0.000000 0.000000
1.000000 0.000000 0.000000
1.000000 0.000000 0.000000
1.000000 0.000000 0.000000
1.000000 0.000000 0.000000
1.000000 0.000000 0.000000
1.000000 0.000000 0.000000
0.035325 0.110325 0.035325
0.035325 0.110325 0.035325
0.102850 0.102850 0.027850
0.204137 0.091638 0.016637
0.305425 0.080425 0.005425
0.406713 0.069213 0.000000
0.508000 0.058000 0.000000
0.609287 0.046788 0.000000
0.710575 0.035575 0.000000
0.811863 0.024363 0.000000
0.913150 0.013150 0.000000
1.000000 0.001938 0.000000
1.000000 0.000000 0.000000
1.000000 0.000000 0.000000
1.000000 0.000000 0.000000
1.000000 0.000000 0.000000
1.000000 0.000000 0.000000
0.013313 0.200813 0.013313
0.013313 0.200813 0.013313
0.080838 0.193337 0.005837
0.182125 0.182125 0.000000
0.283413 0.170912 0.000000
0.384700 0.159700 0.000000
0.485987 0.148487 0.000000
0.587275 0.137275 0.000000
0.688563 0.126062 0.000000
0.789850 0.114850 0.000000
0.891138 0.103637 0.000000
0.992425 0.092425 0.000000
1.000000 0.081212 0.000000
1.000000 0.070000 0.000000
1.000000 0.058787 0.000000
1.000000 0.058787 0.000000
1.000000 0.058787 0.000000
0.000000 0.291300 0.000000
0.000000 0.291300 0.000000
0.058825 0.283825 0.000000
0.160112 0.272612 0.000000
0.261400 0.261400 0.000000
0.362687 0.250188 0.000000
0.463975 0.238975 0.000000
0.565263 0.227763 0.000000
0.666550 0.216550 0.000000
0.767837 0.205338 0.000000
0.869125 0.194125 0.000000
0.970413 0.182913 0.000000
1.000000 0.171700 0.000000
1.000000 0.160488 0.000000
1.000000 0.149275 0.000000
1.000000 0.149275 0.000000
1.000000 0.149275 0.000000
0.000000 0.381788 0.000000
0.000000 0.381788 0.000000
0.036813 0.374313 0.000000
0.138100 0.363100 0.000000
0.239388 0.351888 0.000000
0.340675 0.340675 0.000000
0.441962 0.329463 0.000000
0.543250 0.318250 0.000000
0.644537 0.307038 0.000000
0.745825 0.295825 0.000000
0.847113 0.284613 0.000000
0.948400 0.273400 0.000000
1.000000 0.262188 0.000000
1.000000 0.250975 0.000000
1.000000 0.239763 0.000000
1.000000 0.239763 0.000000
1.000000 0.239763 0.000000
0.000000 0.472275 0.000000
0.000000 0.472275 0.000000
0.014800 0.464800 0.000000
0.116088 0.453587 0.000000
0.217375 0.442375 0.000000
0.318663 0.431163 0.000000
0.419950 0.419950 0.000000
0.521238 0.408737 0.000000
0.622525 0.397525 0.000000
0.723812 0.386313 0.000000
0.825100 0.375100 0.000000
0.926388 0.363887 0.000000
1.000000 0.352675 0.000000
1.000000 0.341463 0.000000
1.000000 0.330250 0.000000
1.000000 0.330250 0.000000
1.000000 0.330250 0.000000
0.000000 0.562763 0.000000
0.000000 0.562763 0.000000
0.000000 0.555287 0.000000
0.094075 0.544075 0.000000
0.195363 0.532863 0.000000
0.296650 0.521650 0.000000
0.397937 0.510437 0.000000
0.499225 0.499225 0.000000
0.600513 0.488012 0.000000
0.701800 0.476800 0.000000
0.803088 0.465587 0.000000
0.904375 0.454375 0.000000
1.000000 0.443162 0.000000
1.000000 0.431950 0.000000
1.000000 0.420737 0.000000
1.000000 0.420737 0.000000
1.000000 0.420737 0.000000
0.000000 0.653250 0.000000
0.000000 0.653250 0.000000
0.000000 0.645775 0.000000
0.072062 0.634563 0.000000
0.173350 0.623350 0.000000
0.274637 0.612138 0.000000
0.375925 0.600925 0.000000
0.477212 0.589713 0.000000
0.578500 0.578500 0.000000
0.679787 0.567288 0.000000
0.781075 0.556075 0.000000
0.882362 0.544863 0.000000
0.983650 0.533650 0.000000
1.000000 0.522437 0.000000
1.000000 0.511225 0.000000
1.000000 0.511225 0.000000
1.000000 0.511225 0.000000
0.000000 0.743737 0.000000
0.000000 0.743737 0.000000
0.000000 0.736263 0.000000
0.050050 0.725050 0.000000
0.151338 0.713838 0.000000
0.252625 0.702625 0.000000
0.353912 0.691412 0.000000
0.455200 0.680200 0.000000
0.556488 0.668988 0.000000
0.657775 0.657775 0.000000
0.759063 0.646562 0.000000
0.860350 0.635350 0.000000
0.961638 0.624138 0.000000
1.000000 0.612925 0.000000
1.000000 0.601712 0.000000
1.000000 0.601712 0.000000
1.000000 0.601712 0.000000
0.000000 0.834225 0.000000
0.000000 0.834225 0.000000
0.000000 0.826750 0.000000
0.028037 0.815538 0.000000
0.129325 0.804325 0.000000
0.230612 0.793113 0.000000
0.331900 0.781900 0.000000
0.433187 0.770688 0.000000
0.534475 0.759475 0.000000
0.635763 0.748263 0.000000
0.737050 0.737050 0.000000
0.838337 0.725838 0.000000
0.939625 0.714625 0.000000
1.000000 0.703412 0.000000
1.000000 0.692200 0.000000
1.000000 0.692200 0.000000
1.000000 0.692200 0.000000
0.000000 0.924713 0.000000
0.000000 0.924713 0.000000
0.000000 0.917238 0.000000
0.006025 0.906025 0.000000
0.107312 0.894813 0.000000
0.208600 0.883600 0.000000
0.309887 0.872388 0.000000
0.411175 0.861175 0.000000
0.512463 0.849962 0.000000
0.613750 0.838750 0.000000
0.715038 0.827538 0.000000
0.816325 0.816325 0.000000
0.917613 0.805113 0.000000
1.000000 0.793900 0.000000
1.000000 0.782687 0.000000
1.000000 0.782687 0.000000
1.000000 0.782687 0.000000
0.000000 1.000000 0.000000
0.000000 1.000000 0.000000
0.000000 1.000000 0.000000
0.000000 0.996513 0.000000
0.085300 0.985300 0.000000
0.186588 0.974088 0.000000
0.287875 0.962875 0.000000
0.389162 0.951663 0.000000
0.490450 0.940450 0.000000
0.591738 0.929238 0.000000
0.693025 0.918025 0.000000
0.794312 0.906813 0.000000
0.895600 0.895600 0.000000
0.996888 0.884388 0.000000
1.000000 0.873175 0.000000
1.000000 0.873175 0.000000
1.000000 0.873175 0.000000
0.000000 1.000000 0.000000
0.000000 1.000000 0.000000
0.000000 1.000000 0.000000
0.000000 1.000000 0.000000
0.063288 1.000000 0.000000
0.164575 1.000000 0.000000
0.265863 1.000000 0.000000
0.367150 1.000000 0.000000
0.468438 1.000000 0.000000
0.569725 1.000000 0.000000
0.671013 1.000000 0.000000
0.772300 0.997300 0.000000
0.873588 0.986088 0.000000
0.974875 0.974875 0.000000
1.000000 0.963663 0.000000
1.000000 0.963663 0.000000
1.000000 0.963663 0.000000
0.000000 1.000000 0.000000
0.000000 1.000000 0.000000
0.000000 1.000000 0.000000
0.000000 1.000000 0.000000
0.041275 1.000000 0.000000
0.142563 1.000000 0.000000
0.243850 1.000000 0.000000
0.345137 1.000000 0.000000
0.446425 1.000000 0.000000
0.547713 1.000000 0.000000
0.649000 1.000000 0.000000
0.750287 1.000000 0.000000
0.851575 1.000000 0.000000
0.952863 1.000000 0.000000
1.000000 1.000000 0.000000
1.000000 1.000000 0.000000
1.000000 1.000000 0.000000
0.000000 1.000000 0.000000
0.000000 1.000000 0.000000
0.000000 1.000000 0.000000
0.000000 1.000000 0.000000
0.041275 1.000000 0.000000
0.142563 1.000000 0.000000
0.243850 1.000000 0.000000
0.345137 1.000000 0.000000
0.446425 1.000000 0.000000
0.547713 1.000000 0.000000
0.649000 1.000000 0.000000
0.750287 1.000000 0.000000
0.851575 1.000000 0.000000
0.952863 1.000000 0.000000
1.000000 1.000000 0.000000
1.000000 1.000000 0.000000
1.000000 1.000000 0.000000
0.000000 1.000000 0.000000
0.000000 1.000000 0.000000
0.000000 1.000000 0.000000
0.000000 1.000000 0.000000
0.041275 1.000000 0.000000
0.142563 1.000000 0.000000
0.243850 1.000000 0.000000
0.345137 1.000000 0.000000
0.446425 1.000000 0.000000
0.547713 1.000000 0.000000
0.649000 1.000000 0.000000
0.750287 1.000000 0.000000
0.851575 1.000000 0.000000
0.952863 1.000000 0.000000
1.000000 1.000000 0.000000
1.000000 1.000000 0.000000
1.000000 1.000000 0.000000
0.050000 0.050000 0.050000
0.050000 0.050000 0.050000
0.117525 0.042525 0.042525
0.218812 0.031313 0.031313
0.320100 0.020100 0.020100
0.421388 0.008887 0.008887
0.522675 0.000000 0.000000
0.623962 0.000000 0.000000
0.725250 0.000000 0.000000
0.826538 0.000000 0.000000
0.927825 0.000000 0.000000
1.000000 0.000000 0.000000
1.000000 0.000000 0.000000
1.000000 0.000000 0.000000
1.000000 0.000000 0.000000
1.000000 0.000000 0.000000
1.000000 0.000000 0.000000
0.050000 0.050000 0.050000
0.050000 0.050000 0.050000
0.117525 0.042525 0.042525
0.218812 0.031313 0.031313
0.320100 0.020100 0.020100
0.421388 0.008887 0.008887
0.522675 0.000000 0.000000
0.623962 0.000000 0.000000
0.725250 0.000000 0.000000
0.826538 0.000000 0.000000
0.927825 0.000000 0.000000
1.000000 0.000000 0.000000
1.000000 0.000000 0.000000
1.000000 0.000000 0.000000
1.000000 0.000000 0.000000
1.000000 0.000000 0.000000
1.000000 0.000000 0.000000
0.035325 0.110325 0.035325
0.035325 0.110325 0.035325
0.102850 0.102850 0.027850
0.204137 0.091638 0.016637
0.305425 0.080425 0.005425
0.406713 0.069213 0.000000
0.508000 0.058000 0.000000
0.609287 0.046788 0.000000
0.710575 0.035575 0.000000
0.811863 0.024363 0.000000
0.913150 0.013150 0.000000
1.000000 0.001938 0.000000
1.000000 0.000000 0.000000
1.000000 0.000000 0.000000
1.000000 0.000000 0.000000
1.000000 0.000000 0.000000
1.000000 0.000000 0.000000
0.013313 0.200813 0.013313
0.013313 0.200813 0.013313
0.080838 0.193337 0.005837
0.182125 0.182125 0.000000
0.283413 0.170912 0.000000
0.384700 0.159700 0.000000
0.485987 0.148487 0.000000
0.587275 0.137275 0.000000
0.688563 0.126062 0.000000
0.789850 0.114850 0.000000
0.891138 0.103637 0.000000
0.992425 0.092425 0.000000
1.000000 0.081212 0.000000
1.000000 0.070000 0.000000
1.000000 0.058787 0.000000
1.000000 0.058787 0.000000
1.000000 0.058787 0.000000
0.000000 0.291300 0.000000
0.000000 0.291300 0.000000
0.058825 0.283825 0.000000
0.160112 0.272612 0.000000
0.261400 0.261400 0.000000
0.362687 0.250188 0.000000
0.463975 0.238975 0.000000
0.565263 0.227763 0.000000
0.666550 0.216550 0.000000
0.767837 0.205338 0.000000
0.869125 0.194125 0.000000
0.970413 0.182913 0.000000
1.000000 0.171700 0.000000
1.000000 0.160488 0.000000
1.000000 0.149275 0.000000
1.000000 0.149275 0.000000
1.000000 0.149275 0.000000
0.000000 0.381788 0.000000
0.000000 0.381788 0.000000
0.036813 0.374313 0.000000
0.138100 0.363100 0.000000
0.239388 0.351888 0.000000
0.340675 0.340675 0.000000
0.441962 0.329463 0.000000
0.543250 0.318250 0.000000
0.644537 0.307038 0.000000
0.745825 0.295825 0.000000
0.847113 0.284613 0.000000
0.948400 0.273400 0.000000
1.000000 0.262188 0.000000
1.000000 0.250975 0.000000
1.000000 0.239763 0.000000
1.000000 0.239763 0.000000
1.000000 0.239763 0.000000
0.000000 0.472275 0.000000
0.000000 0.472275 0.000000
0.014800 0.464800 0.000000
0.116088 0.453587 0.000000
0.217375 0.442375 0.000000
0.318663 0.431163 0.000000
0.419950 0.419950 0.000000
0.521238 0.408737 0.000000
0.622525 0.397525 0.000000
0.723812 0.386313 0.000000
0.825100 0.375100 0.000000
0.926388 0.363887 0.000000
1.000000 0.352675 0.000000
1.000000 0.341463 0.000000
1.000000 0.330250 0.000000
1.000000 0.330250 0.000000
1.000000 0.330250 0.000000
0.000000 0.562763 0.000000
0.000000 0.562763 0.000000
0.000000 0.555287 0.000000
0.094075 0.544075 0.000000
0.195363 0.532863 0.000000
0.296650 0.521650 0.000000
0.397937 0.510437 0.000000
0.499225 0.499225 0.000000
0.600513 0.488012 0.000000
0.701800 0.476800 0.000000
0.803088 0.465587 0.000000
0.904375 0.454375 0.000000
1.000000 0.443162 0.000000
1.000000 0.431950 0.000000
1.000000 0.420737 0.000000
1.000000 0.420737 0.000000
1.000000 0.420737 0.000000
0.000000 0.653250 0.000000
0.000000 0.653250 0.000000
0.000000 0.645775 0.000000
0.072062 0.634563 0.000000
0.173350 0.623350 0.000000
0.274637 0.612138 0.000000
0.375925 0.600925 0.000000
0.477212 0.589713 0.000000
0.578500 0.578500 0.000000
0.679787 0.567288 0.000000
0.781075 0.556075 0.000000
0.882362 0.544863 0.000000
0.983650 0.533650 0.000000
1.000000 0.522437 0.000000
1.000000 0.511225 0.000000
1.000000 0.511225 0.000000
1.000000 0.511225 0.000000
0.000000 0.743737 0.000000
0.000000 0.743737 0.000000
0.000000 0.736263 0.000000
0.050050 0.725050 0.000000
0.151338 0.713838 0.000000
0.252625 0.702625 0.000000
0.353912 0.691412 0.000000
0.455200 0.680200 0.000000
0.556488 0.668988 0.000000
0.657775 0.657775 0.000000
0.759063 0.646562 0.000000
0.860350 0.635350 0.000000
0.961638 0.624138 0.000000
1.000000 0.612925 0.000000
1.000000 0.601712 0.000000
1.000000 0.601712 0.000000
1.000000 0.601712 0.000000
0.000000 0.834225 0.000000
0.000000 0.834225 0.000000
0.000000 0.826750 0.000000
0.028037 0.815538 0.000000
0.129325 0.804325 0.000000
0.230612 0.793113 0.000000
0.331900 0.781900 0.000000
0.433187 0.770688 0.000000
0.534475 0.759475 0.000000
0.635763 0.748263 0.000000
0.737050 0.737050 0.000000
0.838337 0.725838 0.000000
0.939625 0.714625 0.000000
1.000000 0.703412 0.000000
1.000000 0.692200 0.000000
1.000000 0.692200 0.000000
1.000000 0.692200 0.000000
0.000000 0.924713 0.000000
0.000000 0.924713 0.000000
0.000000 0.917238 0.000000
0.006025 0.906025 0.000000
0.107312 0.894813 0.000000
0.208600 0.883600 0.000000
0.309887 0.872388 0.000000
0.411175 0.861175 0.000000
0.512463 0.849962 0.000000
0.613750 0.838750 0.000000
0.715038 0.827538 0.000000
0.816325 0.816325 0.000000
0.917613 0.805113 0.000000
1.000000 0.793900 0.000000
1.000000 0.782687 0.000000
1.000000 0.782687 0.000000
1.000000 0.782687 0.000000
0.000000 1.000000 0.000000
0.000000 1.000000 0.000000
0.000000 1.000000 0.000000
0.000000 0.996513 0.000000
0.085300 0.985300 0.000000
0.186588 0.974088 0.000000
0.287875 0.962875 0.000000
0.389162 0.951663 0.000000
0.490450 0.940450 0.000000
0.591738 0.929238 0.000000
0.693025 0.918025 0.000000
0.794312 0.906813 0.000000
0.895600 0.895600 0.000000
0.996888 0.884388 0.000000
1.000000 0.873175 0.000000
1.000000 0.873175 0.000000
1.000000 0.873175 0.000000
0.000000 1.000000 0.000000
0.000000 1.000000 0.000000
0.000000 1.000000 0.000000
0.000000 1.000000 0.000000
0.063288 1.000000 0.000000
0.164575 1.000000 0.000000
0.265863 1.000000 0.000000
0.367150 1.000000 0.000000
0.468438 1.000000 0.000000
0.569725 1.000000 0.000000
0.671013 1.000000 0.000000
0.772300 0.997300 0.000000
0.873588 0.986088 0.000000
0.974875 0.974875 0.000000
1.000000 0.963663 0.000000
1.000000 0.963663 0.000000
1.000000 0.963663 0.000000
0.000000 1.000000 0.000000
0.000000 1.000000 0.000000
0.000000 1.000000 0.000000
0.000000 1.000000 0.000000
0.041275 1.000000 0.000000
0.142563 1.000000 0.000000
0.243850 1.000000 0.000000
0.345137 1.000000 0.000000
0.446425 1.000000 0.000000
0.547713 1.000000 0.000000
0.649000 1.000000 0.000000
0.750287 1.000000 0.000000
0.851575 1.000000 0.000000
0.952863 1.000000 0.000000
1.000000 1.000000 0.000000
1.000000 1.000000 0.000000
1.000000 1.000000 0.000000
0.000000 1.000000 0.000000
0.000000 1.000000 0.000000
0.000000 1.000000 0.000000
0.000000 1.000000 0.000000
0.041275 1.000000 0.000000
0.142563 1.000000 0.000000
0.243850 1.000000 0.000000
0.345137 1.000000 0.000000
0.446425 1.000000 0.000000
0.547713 1.000000 0.000000
0.649000 1.000000 0.000000
0.750287 1.000000 0.000000
0.851575 1.000000 0.000000
0.952863 1.000000 0.000000
1.000000 1.000000 0.000000
1.000000 1.000000 0.000000
1.000000 1.000000 0.000000
0.000000 1.000000 0.000000
0.000000 1.000000 0.000000
0.000000 1.000000 0.000000
0.000000 1.000000 0.000000
0.041275 1.000000 0.000000
0.142563 1.000000 0.000000
0.243850 1.000000 0.000000
0.345137 1.000000 0.000000
0.446425 1.000000 0.000000
0.547713 1.000000 0.000000
0.649000 1.000000 0.000000
0.750287 1.000000 0.000000
0.851575 1.000000 0.000000
0.952863 1.000000 0.000000
1.000000 1.000000 0.000000
1.000000 1.000000 0.000000
1.000000 1.000000 0.000000
0.047150 0.047150 0.122150
0.047150 0.047150 0.122150
0.114675 0.039675 0.114675
0.215963 0.028463 0.103463
0.317250 0.017250 0.092250
0.418538 0.006038 0.081038
0.519825 0.000000 0.069825
0.621112 0.000000 0.058613
0.722400 0.000000 0.047400
0.823688 0.000000 0.036188
0.924975 0.000000 0.024975
1.000000 0.000000 0.013763
1.000000 0.000000 0.002550
1.000000 0.000000 0.000000
1.000000 0.000000 0.000000
1.000000 0.000000 0.000000
1.000000 0.000000 0.000000
0.047150 0.047150 0.122150
0.047150 0.047150 0.122150
0.114675 0.039675 0.114675
0.215963 0.028463 0.103463
0.317250 0.017250 0.092250
0.418538 0.006038 0.081038
0.519825 0.000000 0.069825
0.621112 0.000000 0.058613
0.722400 0.000000 0.047400
0.823688 0.000000 0.036188
0.924975 0.000000 0.024975
1.000000 0.000000 0.013763
1.000000 0.000000 0.002550
1.000000 0.000000 0.000000
1.000000 0.000000 0.000000
1.000000 0.000000 0.000000
1.000000 0.000000 0.000000
0.032475 0.107475 0.107475
0.032475 0.107475 0.107475
0.100000 0.100000 0.100000
0.201287 0.088788 0.088788
0.302575 0.077575 0.077575
0.403863 0.066363 0.066363
0.505150 0.055150 0.055150
0.606437 0.043938 0.043938
0.707725 0.032725 0.032725
0.809012 0.021513 0.021513
0.910300 0.010300 0.010300
1.000000 0.000000 0.000000
1.000000 0.000000 0.000000
1.000000 0.000000 0.000000
1.000000 0.000000 0.000000
1.000000 0.000000 0.000000
1.000000 0.000000 0.000000
0.010463 0.197962 0.085463
0.010463 0.197962 0.085463
0.077988 0.190487 0.077988
0.179275 0.179275 0.066775
0.280562 0.168063 0.055563
0.381850 0.156850 0.044350
0.483137 0.145638 0.033138
0.584425 0.134425 0.021925
0.685713 0.123212 0.010713
0.787000 0.112000 0.000000
0.888288 0.100787 0.000000
0.989575 0.089575 0.000000
1.000000 0.078362 0.000000
1.000000 0.067150 0.000000
1.000000 0.055937 0.000000
1.000000 0.055937 0.000000
1.000000 0.055937 0.000000
0.000000 0.288450 0.063450
0.000000 0.288450 0.063450
0.055975 0.280975 0.055975
0.157262 0.269763 0.044763
0.258550 0.258550 0.033550
0.359838 0.247337 0.022338
0.461125 0.236125 0.011125
0.562412 0.224912 0.000000
0.663700 0.213700 0.000000
0.764987 0.202488 0.000000
0.866275 0.191275 0.000000
0.967563 0.180062 0.000000
1.000000 0.168850 0.000000
1.000000 0.157637 0.000000
1.000000 0.146425 0.000000
1.000000 0.146425 0.000000
1.000000 0.146425 0.000000
0.000000 0.378938 0.041438
0.000000 0.378938 0.041438
0.033963 0.371463 0.033963
0.135250 0.360250 0.022750
0.236537 0.349038 0.011538
0.337825 0.337825 0.000325
0.439112 0.326613 0.000000
0.540400 0.315400 0.000000
0.641687 0.304187 0.000000
0.742975 0.292975 0.000000
0.844263 0.281763 0.000000
0.945550 0.270550 0.000000
1.000000 0.259337 0.000000
1.000000 0.248125 0.000000
1.000000 0.236913 0.000000
1.000000 0.236913 0.000000
1.000000 0.236913 0.000000
0.000000 0.469425 0.019425
0.000000 0.469425 0.019425
0.011950 0.461950 0.011950
0.113237 0.450737 0.000738
0.214525 0.439525 0.000000
0.315813 0.428312 0.000000
0.417100 0.417100 0.000000
0.518388 0.405887 0.000000
0.619675 0.394675 0.000000
0.720962 0.383462 0.000000
0.822250 0.372250 0.000000
0.923538 0.361037 0.000000
1.000000 0.349825 0.000000
1.000000 0.338612 0.000000
1.000000 0.327400 0.000000
1.000000 0.327400 0.000000
1.000000 0.327400 0.000000
0.000000 0.559913 0.000000
0.000000 0.559913 0.000000
0.000000 0.552437 0.000000
0.091225 0.541225 0.000000
0.192513 0.530012 0.000000
0.293800 0.518800 0.000000
0.395087 0.507587 0.000000
0.496375 0.496375 0.000000
0.597663 0.485162 0.000000
0.698950 0.473950 0.000000
0.800238 0.462737 0.000000
0.901525 0.451525 0.000000
1.000000 0.440312 0.000000
1.000000 0.429100 0.000000
1.000000 0.417887 0.000000
1.000000 0.417887 0.000000
1.000000 0.417887 0.000000
0.000000 0.650400 0.000000
0.000000 0.650400 0.000000
0.000000 0.642925 0.000000
0.069212 0.631713 0.000000
0.170500 0.620500 0.000000
0.271787 0.609287 0.000000
0.373075 0.598075 0.000000
0.474362 0.586863 0.000000
0.575650 0.575650 0.000000
0.676937 0.564438 0.000000
0.778225 0.553225 0.000000
0.879513 0.542013 0.000000
0.980800 0.530800 0.000000
1.000000 0.519588 0.000000
1.000000 0.508375 0.000000
1.000000 0.508375 0.000000
1.000000 0.508375 0.000000
0.000000 0.740887 0.000000
0.000000 0.740887 0.000000
0.000000 0.733413 0.000000
0.047200 0.722200 0.000000
0.148488 0.710988 0.000000
0.249775 0.699775 0.000000
0.351062 0.688562 0.000000
0.452350 0.677350 0.000000
0.553638 0.666138 0.000000
0.654925 0.654925 0.000000
0.756213 0.643713 0.000000
0.857500 0.632500 0.000000
0.958788 0.621287 0.000000
1.000000 0.610075 0.000000
1.000000 0.598863 0.000000
1.000000 0.598863 0.000000
1.000000 0.598863 0.000000
0.000000 0.831375 0.000000
0.000000 0.831375 0.000000
0.000000 0.823900 0.000000
0.025187 0.812688 0.000000
0.126475 0.801475 0.000000
0.227762 0.790263 0.000000
0.329050 0.779050 0.000000
0.430337 0.767838 0.000000
0.531625 0.756625 0.000000
0.632912 0.745413 0.000000
0.734200 0.734200 0.000000
0.835488 0.722988 0.000000
0.936775 0.711775 0.000000
1.000000 0.700563 0.000000
1.000000 0.689350 0.000000
1.000000 0.689350 0.000000
1.000000 0.689350 0.000000
0.000000 0.921863 0.000000
0.000000 0.921863 0.000000
0.000000 0.914388 0.000000
0.003175 0.903175 0.000000
0.104463 0.891962 0.000000
0.205750 0.880750 0.000000
0.307037 0.869538 0.000000
0.408325 0.858325 0.000000
0.509613 0.847113 0.000000
0.610900 0.835900 0.000000
0.712188 0.824688 0.000000
0.813475 0.813475 0.000000
0.914763 0.802263 0.000000
1.000000 0.791050 0.000000
1.000000 0.779838 0.000000
1.000000 0.779838 0.000000
1.000000 0.779838 0.000000
0.000000 1.000000 0.000000
0.000000 1.000000 0.000000
0.000000 1.000000 0.000000
0.000000 0.993663 0.000000
0.082450 0.982450 0.000000
0.183737 0.971238 0.000000
0.285025 0.960025 0.000000
0.386313 0.948813 0.000000
0.487600 0.937600 0.000000
0.588888 0.926388 0.000000
0.690175 0.915175 0.000000
0.791463 0.903963 0.000000
0.892750 0.892750 0.000000
0.994038 0.881538 0.000000
1.000000 0.870325 0.000000
1.000000 0.870325 0.000000
1.000000 0.870325 0.000000
0.000000 1.000000 0.000000
0.000000 1.000000 0.000000
0.000000 1.000000 0.000000
0.000000 1.000000 0.000000
0.060438 1.000000 0.000000
0.161725 1.000000 0.000000
0.263012 1.000000 0.000000
0.364300 1.000000 0.000000
0.465588 1.000000 0.000000
0.566875 1.000000 0.000000
0.668163 1.000000 0.000000
0.769450 0.994450 0.000000
0.870738 0.983237 0.000000
0.972025 0.972025 0.000000
1.000000 0.960813 0.000000
1.000000 0.960813 0.000000
1.000000 0.960813 0.000000
0.000000 1.000000 0.000000
0.000000 1.000000 0.000000
0.000000 1.000000 0.000000
0.000000 1.000000 0.000000
0.038425 1.000000 0.000000
0.139713 1.000000 0.000000
0.241000 1.000000 0.000000
0.342288 1.000000 0.000000
0.443575 1.000000 0.000000
0.544863 1.000000 0.000000
0.646150 1.000000 0.000000
0.747438 1.000000 0.000000
0.848725 1.000000 0.000000
0.950013 1.000000 0.000000
1.000000 1.000000 0.000000
1.000000 1.000000 0.000000
1.000000 1.000000 0.000000
0.000000 1.000000 0.000000
0.000000 1.000000 0.000000
0.000000 1.000000 0.000000
0.000000 1.000000 0.000000
0.038425 1.000000 0.000000
0.139713 1.000000 0.000000
0.241000 1.000000 0.000000
0.342288 1.000000 0.000000
0.443575 1.000000 0.000000
0.544863 1.000000 0.000000
0.646150 1.000000 0.000000
0.747438 1.000000 0.000000
0.848725 1.000000 0.000000
0.950013 1.000000 0.000000
1.000000 1.000000 0.000000
1.000000 1.000000 0.000000
1.000000 1.000000 0.000000
0.000000 1.000000 0.000000
0.000000 1.000000 0.000000
0.000000 1.000000 0.000000
0.000000 1.000000 0.000000
0.038425 1.000000 0.000000
0.139713 1.000000 0.000000
0.241000 1.000000 0.000000
0.342288 1.000000 0.000000
0.443575 1.000000 0.000000
0.544863 1.000000 0.000000
0.646150 1.000000 0.000000
0.747438 1.000000 0.000000
0.848725 1.000000 0.000000
0.950013 1.000000 0.000000
1.000000 1.000000 0.000000
1.000000 1.000000 0.000000
1.000000 1.000000 0.000000
0.042875 0.042875 0.230375
0.042875 0.042875 0.230375
0.110400 0.035400 0.222900
0.211687 0.024188 0.211687
0.312975 0.012975 0.200475
0.414262 0.001763 0.189263
0.515550 0.000000 0.178050
0.616838 0.000000 0.166837
0.718125 0.000000 0.155625
0.819412 0.000000 0.144412
0.920700 0.000000 0.133200
1.000000 0.000000 0.121987
1.000000 0.000000 0.110775
1.000000 0.000000 0.099562
1.000000 0.000000 0.088350
1.000000 0.000000 0.088350
1.000000 0.000000 0.088350
0.042875 0.042875 0.230375
0.042875 0.042875 0.230375
0.110400 0.035400 0.222900
