server/luts/vibrant.cube
TITLE "Vibrant"
LUT_3D_SIZE 5
0.050000 0.050000 0.050000
0.320100 0.020100 0.020100
0.725250 0.000000 0.000000
1.000000 0.000000 0.000000
1.000000 0.000000 0.000000
0.000000 0.291300 0.000000
0.261400 0.261400 0.000000
0.666550 0.216550 0.000000
1.000000 0.171700 0.000000
1.000000 0.149275 0.000000
0.000000 0.653250 0.000000
0.173350 0.623350 0.000000
0.578500 0.578500 0.000000
0.983650 0.533650 0.000000
1.000000 0.511225 0.000000
0.000000 1.000000 0.000000
0.085300 0.985300 0.000000
0.490450 0.940450 0.000000
0.895600 0.895600 0.000000
1.000000 0.873175 0.000000
0.000000 1.000000 0.000000
0.041275 1.000000 0.000000
0.446425 1.000000 0.000000
0.851575 1.000000 0.000000
1.000000 1.000000 0.000000
0.038600 0.038600 0.338600
0.308700 0.008700 0.308700
0.713850 0.000000 0.263850
1.000000 0.000000 0.219000
1.000000 0.000000 0.196575
0.000000 0.279900 0.279900
0.250000 0.250000 0.250000
0.655150 0.205150 0.205150
1.000000 0.160300 0.160300
1.000000 0.137875 0.137875
0.000000 0.641850 0.191850
0.161950 0.611950 0.161950
0.567100 0.567100 0.117100
0.972250 0.522250 0.072250
1.000000 0.499825 0.049825
0.000000 1.000000 0.103800
0.073900 0.973900 0.073900
0.479050 0.929050 0.029050
0.884200 0.884200 0.000000
1.000000 0.861775 0.000000
0.000000 1.000000 0.059775
0.029875 1.000000 0.029875
0.435025 1.000000 0.000000
0.840175 1.000000 0.000000
1.000000 1.000000 0.000000
0.021500 0.021500 0.771500
0.291600 0.000000 0.741600
0.696750 0.000000 0.696750
1.000000 0.000000 0.651900
1.000000 0.000000 0.629475
0.000000 0.262800 0.712800
0.232900 0.232900 0.682900
0.638050 0.188050 0.638050
1.000000 0.143200 0.593200
1.000000 0.120775 0.570775
0.000000 0.624750 0.624750
0.144850 0.594850 0.594850
0.550000 0.550000 0.550000
0.955150 0.505150 0.505150
1.000000 0.482725 0.482725
0.000000 0.986700 0.536700
0.056800 0.956800 0.506800
0.461950 0.911950 0.461950
0.867100 0.867100 0.417100
1.000000 0.844675 0.394675
0.000000 1.000000 0.492675
0.012775 1.000000 0.462775
0.417925 1.000000 0.417925
0.823075 1.000000 0.373075
1.000000 1.000000 0.350650
0.004400 0.004400 1.000000
0.274500 0.000000 1.000000
0.679650 0.000000 1.000000
1.000000 0.000000 1.000000
1.000000 0.000000 1.000000
0.000000 0.245700 1.000000
0.215800 0.215800 1.000000
0.620950 0.170950 1.000000
1.000000 0.126100 1.000000
1.000000 0.103675 1.000000
0.000000 0.607650 1.000000
0.127750 0.577750 1.000000
0.532900 0.532900 0.982900
0.938050 0.488050 0.938050
1.000000 0.465625 0.915625
0.000000 0.969600 0.969600
0.039700 0.939700 0.939700
0.444850 0.894850 0.894850
0.850000 0.850000 0.850000
1.000000 0.827575 0.827575
0.000000 1.000000 0.925575
0.000000 1.000000 0.895675
0.400825 1.000000 0.850825
0.805975 1.000000 0.805975
1.000000 1.000000 0.783550
0.000000 0.000000 1.000000
0.265950 0.000000 1.000000
0.671100 0.000000 1.000000
1.000000 0.000000 1.000000
1.000000 0.000000 1.000000
0.000000 0.237150 1.000000
0.207250 0.207250 1.000000
0.612400 0.162400 1.000000
1.000000 0.117550 1.000000
1.000000 0.095125 1.000000
0.000000 0.599100 1.000000
0.119200 0.569200 1.000000
0.524350 0.524350 1.000000
0.929500 0.479500 1.000000
1.000000 0.457075 1.000000
0.000000 0.961050 1.000000
0.031150 0.931150 1.000000
0.436300 0.886300 1.000000
0.841450 0.841450 1.000000
1.000000 0.819025 1.000000
0.000000 1.000000 1.000000
0.000000 1.000000 1.000000
0.392275 1.000000 1.000000
0.797425 1.000000 1.000000
1.000000 1.000000 1.000000
