server/luts/vibrant.cube
TITLE "Vibrant"
LUT_3D_SIZE 9
0.050000 0.050000 0.050000
0.117525 0.042525 0.042525
0.320100 0.020100 0.020100
0.522675 0.000000 0.000000
0.725250 0.000000 0.000000
0.927825 0.000000 0.000000
1.000000 0.000000 0.000000
1.000000 0.000000 0.000000
1.000000 0.000000 0.000000
0.035325 0.110325 0.035325
0.102850 0.102850 0.027850
0.305425 0.080425 0.005425
0.508000 0.058000 0.000000
0.710575 0.035575 0.000000
0.913150 0.013150 0.000000
1.000000 0.000000 0.000000
1.000000 0.000000 0.000000
1.000000 0.000000 0.000000
0.000000 0.291300 0.000000
0.058825 0.283825 0.000000
0.261400 0.261400 0.000000
0.463975 0.238975 0.000000
0.666550 0.216550 0.000000
0.869125 0.194125 0.000000
1.000000 0.171700 0.000000
1.000000 0.149275 0.000000
1.000000 0.149275 0.000000
0.000000 0.472275 0.000000
0.014800 0.464800 0.000000
0.217375 0.442375 0.000000
0.419950 0.419950 0.000000
0.622525 0.397525 0.000000
0.825100 0.375100 0.000000
1.000000 0.352675 0.000000
1.000000 0.330250 0.000000
1.000000 0.330250 0.000000
0.000000 0.653250 0.000000
0.000000 0.645775 0.000000
0.173350 0.623350 0.000000
0.375925 0.600925 0.000000
0.578500 0.578500 0.000000
0.781075 0.556075 0.000000
0.983650 0.533650 0.000000
1.000000 0.511225 0.000000
1.000000 0.511225 0.000000
0.000000 0.834225 0.000000
0.000000 0.826750 0.000000
0.129325 0.804325 0.000000
0.331900 0.781900 0.000000
0.534475 0.759475 0.000000
0.737050 0.737050 0.000000
0.939625 0.714625 0.000000
1.000000 0.692200 0.000000
1.000000 0.692200 0.000000
0.000000 1.000000 0.000000
0.000000 1.000000 0.000000
0.085300 0.985300 0.000000
0.287875 0.962875 0.000000
0.490450 0.940450 0.000000
0.693025 0.918025 0.000000
0.895600 0.895600 0.000000
1.000000 0.873175 0.000000
1.000000 0.873175 0.000000
0.000000 1.000000 0.000000
0.000000 1.000000 0.000000
0.041275 1.000000 0.000000
0.243850 1.000000 0.000000
0.446425 1.000000 0.000000
0.649000 1.000000 0.000000
0.851575 1.000000 0.000000
1.000000 1.000000 0.000000
1.000000 1.000000 0.000000
0.000000 1.000000 0.000000
0.000000 1.000000 0.000000
0.041275 1.000000 0.000000
0.243850 1.000000 0.000000
0.446425 1.000000 0.000000
0.649000 1.000000 0.000000
0.851575 1.000000 0.000000
1.000000 1.000000 0.000000
1.000000 1.000000 0.000000
0.047150 0.047150 0.122150
0.114675 0.039675 0.114675
0.317250 0.017250 0.092250
0.519825 0.000000 0.069825
0.722400 0.000000 0.047400
0.924975 0.000000 0.024975
1.000000 0.000000 0.002550
1.000000 0.000000 0.000000
1.000000 0.000000 0.000000
0.032475 0.107475 0.107475
0.100000 0.100000 0.100000
0.302575 0.077575 0.077575
0.505150 0.055150 0.055150
0.707725 0.032725 0.032725
0.910300 0.010300 0.010300
1.000000 0.000000 0.000000
1.000000 0.000000 0.000000
1.000000 0.000000 0.000000
0.000000 0.288450 0.063450
0.055975 0.280975 0.055975
0.258550 0.258550 0.033550
0.461125 0.236125 0.011125
0.663700 0.213700 0.000000
0.866275 0.191275 0.000000
1.000000 0.168850 0.000000
1.000000 0.146425 0.000000
1.000000 0.146425 0.000000
0.000000 0.469425 0.019425
0.011950 0.461950 0.011950
0.214525 0.439525 0.000000
0.417100 0.417100 0.000000
0.619675 0.394675 0.000000
0.822250 0.372250 0.000000
1.000000 0.349825 0.000000
1.000000 0.327400 0.000000
1.000000 0.327400 0.000000
0.000000 0.650400 0.000000
0.000000 0.642925 0.000000
0.170500 0.620500 0.000000
0.373075 0.598075 0.000000
0.575650 0.575650 0.000000
0.778225 0.553225 0.000000
0.980800 0.530800 0.000000
1.000000 0.508375 0.000000
1.000000 0.508375 0.000000
0.000000 0.831375 0.000000
0.000000 0.823900 0.000000
0.126475 0.801475 0.000000
0.329050 0.779050 0.000000
0.531625 0.756625 0.000000
0.734200 0.734200 0.000000
0.936775 0.711775 0.000000
1.000000 0.689350 0.000000
1.000000 0.689350 0.000000
0.000000 1.000000 0.000000
0.000000 1.000000 0.000000
0.082450 0.982450 0.000000
0.285025 0.960025 0.000000
0.487600 0.937600 0.000000
0.690175 0.915175 0.000000
0.892750 0.892750 0.000000
1.000000 0.870325 0.000000
1.000000 0.870325 0.000000
0.000000 1.000000 0.000000
0.000000 1.000000 0.000000
0.038425 1.000000 0.000000
0.241000 1.000000 0.000000
0.443575 1.000000 0.000000
0.646150 1.000000 0.000000
0.848725 1.000000 0.000000
1.000000 1.000000 0.000000
1.000000 1.000000 0.000000
0.000000 1.000000 0.000000
0.000000 1.000000 0.000000
0.038425 1.000000 0.000000
0.241000 1.000000 0.000000
0.443575 1.000000 0.000000
0.646150 1.000000 0.000000
0.848725 1.000000 0.000000
1.000000 1.000000 0.000000
1.000000 1.000000 0.000000
0.038600 0.038600 0.338600
0.106125 0.031125 0.331125
0.308700 0.008700 0.308700
0.511275 0.000000 0.286275
0.713850 0.000000 0.263850
0.916425 0.000000 0.241425
1.000000 0.000000 0.219000
1.000000 0.000000 0.196575
1.000000 0.000000 0.196575
0.023925 0.098925 0.323925
0.091450 0.091450 0.316450
0.294025 0.069025 0.294025
0.496600 0.046600 0.271600
0.699175 0.024175 0.249175
0.901750 0.001750 0.226750
1.000000 0.000000 0.204325
1.000000 0.000000 0.181900
1.000000 0.000000 0.181900
0.000000 0.279900 0.279900
0.047425 0.272425 0.272425
0.250000 0.250000 0.250000
0.452575 0.227575 0.227575
0.655150 0.205150 0.205150
0.857725 0.182725 0.182725
1.000000 0.160300 0.160300
1.000000 0.137875 0.137875
1.000000 0.137875 0.137875
0.000000 0.460875 0.235875
0.003400 0.453400 0.228400
0.205975 0.430975 0.205975
0.408550 0.408550 0.183550
0.611125 0.386125 0.161125
0.813700 0.363700 0.138700
1.000000 0.341275 0.116275
1.000000 0.318850 0.093850
1.000000 0.318850 0.093850
0.000000 0.641850 0.191850
0.000000 0.634375 0.184375
0.161950 0.611950 0.161950
0.364525 0.589525 0.139525
0.567100 0.567100 0.117100
0.769675 0.544675 0.094675
0.972250 0.522250 0.072250
1.000000 0.499825 0.049825
1.000000 0.499825 0.049825
0.000000 0.822825 0.147825
0.000000 0.815350 0.140350
0.117925 0.792925 0.117925
0.320500 0.770500 0.095500
0.523075 0.748075 0.073075
0.725650 0.725650 0.050650
0.928225 0.703225 0.028225
1.000000 0.680800 0.005800
1.000000 0.680800 0.005800
0.000000 1.000000 0.103800
0.000000 0.996325 0.096325
0.073900 0.973900 0.073900
0.276475 0.951475 0.051475
0.479050 0.929050 0.029050
0.681625 0.906625 0.006625
0.884200 0.884200 0.000000
1.000000 0.861775 0.000000
1.000000 0.861775 0.000000
0.000000 1.000000 0.059775
0.000000 1.000000 0.052300
0.029875 1.000000 0.029875
0.232450 1.000000 0.007450
0.435025 1.000000 0.000000
0.637600 1.000000 0.000000
0.840175 1.000000 0.000000
1.000000 1.000000 0.000000
1.000000 1.000000 0.000000
0.000000 1.000000 0.059775
0.000000 1.000000 0.052300
0.029875 1.000000 0.029875
0.232450 1.000000 0.007450
0.435025 1.000000 0.000000
0.637600 1.000000 0.000000
0.840175 1.000000 0.000000
1.000000 1.000000 0.000000
1.000000 1.000000 0.000000
0.030050 0.030050 0.555050
0.097575 0.022575 0.547575
0.300150 0.000150 0.525150
0.502725 0.000000 0.502725
0.705300 0.000000 0.480300
0.907875 0.000000 0.457875
1.000000 0.000000 0.435450
1.000000 0.000000 0.413025
1.000000 0.000000 0.413025
0.015375 0.090375 0.540375
0.082900 0.082900 0.532900
0.285475 0.060475 0.510475
0.488050 0.038050 0.488050
0.690625 0.015625 0.465625
0.893200 0.000000 0.443200
1.000000 0.000000 0.420775
1.000000 0.000000 0.398350
1.000000 0.000000 0.398350
0.000000 0.271350 0.496350
0.038875 0.263875 0.488875
0.241450 0.241450 0.466450
0.444025 0.219025 0.444025
0.646600 0.196600 0.421600
0.849175 0.174175 0.399175
1.000000 0.151750 0.376750
1.000000 0.129325 0.354325
1.000000 0.129325 0.354325
0.000000 0.452325 0.452325
0.000000 0.444850 0.444850
0.197425 0.422425 0.422425
0.400000 0.400000 0.400000
0.602575 0.377575 0.377575
0.805150 0.355150 0.355150
1.000000 0.332725 0.332725
1.000000 0.310300 0.310300
1.000000 0.310300 0.310300
0.000000 0.633300 0.408300
0.000000 0.625825 0.400825
0.153400 0.603400 0.378400
0.355975 0.580975 0.355975
0.558550 0.558550 0.333550
0.761125 0.536125 0.311125
0.963700 0.513700 0.288700
1.000000 0.491275 0.266275
1.000000 0.491275 0.266275
0.000000 0.814275 0.364275
0.000000 0.806800 0.356800
0.109375 0.784375 0.334375
0.311950 0.761950 0.311950
0.514525 0.739525 0.289525
0.717100 0.717100 0.267100
0.919675 0.694675 0.244675
1.000000 0.672250 0.222250
1.000000 0.672250 0.222250
0.000000 0.995250 0.320250
0.000000 0.987775 0.312775
0.065350 0.965350 0.290350
0.267925 0.942925 0.267925
0.470500 0.920500 0.245500
0.673075 0.898075 0.223075
0.875650 0.875650 0.200650
1.000000 0.853225 0.178225
1.000000 0.853225 0.178225
0.000000 1.000000 0.276225
0.000000 1.000000 0.268750
0.021325 1.000000 0.246325
0.223900 1.000000 0.223900
0.426475 1.000000 0.201475
0.629050 1.000000 0.179050
0.831625 1.000000 0.156625
1.000000 1.000000 0.134200
1.000000 1.000000 0.134200
0.000000 1.000000 0.276225
0.000000 1.000000 0.268750
0.021325 1.000000 0.246325
0.223900 1.000000 0.223900
0.426475 1.000000 0.201475
0.629050 1.000000 0.179050
0.831625 1.000000 0.156625
1.000000 1.000000 0.134200
1.000000 1.000000 0.134200
0.021500 0.021500 0.771500
0.089025 0.014025 0.764025
0.291600 0.000000 0.741600
0.494175 0.000000 0.719175
0.696750 0.000000 0.696750
0.899325 0.000000 0.674325
1.000000 0.000000 0.651900
1.000000 0.000000 0.629475
1.000000 0.000000 0.629475
0.006825 0.081825 0.756825
0.074350 0.074350 0.749350
0.276925 0.051925 0.726925
0.479500 0.029500 0.704500
0.682075 0.007075 0.682075
0.884650 0.000000 0.659650
1.000000 0.000000 0.637225
1.000000 0.000000 0.614800
1.000000 0.000000 0.614800
0.000000 0.262800 0.712800
0.030325 0.255325 0.705325
0.232900 0.232900 0.682900
0.435475 0.210475 0.660475
0.638050 0.188050 0.638050
0.840625 0.165625 0.615625
1.000000 0.143200 0.593200
1.000000 0.120775 0.570775
1.000000 0.120775 0.570775
0.000000 0.443775 0.668775
0.000000 0.436300 0.661300
0.188875 0.413875 0.638875
0.391450 0.391450 0.616450
0.594025 0.369025 0.594025
0.796600 0.346600 0.571600
0.999175 0.324175 0.549175
1.000000 0.301750 0.526750
1.000000 0.301750 0.526750
0.000000 0.624750 0.624750
0.000000 0.617275 0.617275
0.144850 0.594850 0.594850
0.347425 0.572425 0.572425
0.550000 0.550000 0.550000
0.752575 0.527575 0.527575
0.955150 0.505150 0.505150
1.000000 0.482725 0.482725
1.000000 0.482725 0.482725
0.000000 0.805725 0.580725
0.000000 0.798250 0.573250
0.100825 0.775825 0.550825
0.303400 0.753400 0.528400
0.505975 0.730975 0.505975
0.708550 0.708550 0.483550
0.911125 0.686125 0.461125
1.000000 0.663700 0.438700
1.000000 0.663700 0.438700
0.000000 0.986700 0.536700
0.000000 0.979225 0.529225
0.056800 0.956800 0.506800
0.259375 0.934375 0.484375
0.461950 0.911950 0.461950
0.664525 0.889525 0.439525
0.867100 0.867100 0.417100
1.000000 0.844675 0.394675
1.000000 0.844675 0.394675
0.000000 1.000000 0.492675
0.000000 1.000000 0.485200
0.012775 1.000000 0.462775
0.215350 1.000000 0.440350
0.417925 1.000000 0.417925
0.620500 1.000000 0.395500
0.823075 1.000000 0.373075
1.000000 1.000000 0.350650
1.000000 1.000000 0.350650
0.000000 1.000000 0.492675
0.000000 1.000000 0.485200
0.012775 1.000000 0.462775
0.215350 1.000000 0.440350
0.417925 1.000000 0.417925
0.620500 1.000000 0.395500
0.823075 1.000000 0.373075
1.000000 1.000000 0.350650
1.000000 1.000000 0.350650
0.012950 0.012950 0.987950
0.080475 0.005475 0.980475
0.283050 0.000000 0.958050
0.485625 0.000000 0.935625
0.688200 0.000000 0.913200
0.890775 0.000000 0.890775
1.000000 0.000000 0.868350
1.000000 0.000000 0.845925
1.000000 0.000000 0.845925
0.000000 0.073275 0.973275
0.065800 0.065800 0.965800
0.268375 0.043375 0.943375
0.470950 0.020950 0.920950
0.673525 0.000000 0.898525
0.876100 0.000000 0.876100
1.000000 0.000000 0.853675
1.000000 0.000000 0.831250
1.000000 0.000000 0.831250
0.000000 0.254250 0.929250
0.021775 0.246775 0.921775
0.224350 0.224350 0.899350
0.426925 0.201925 0.876925
0.629500 0.179500 0.854500
0.832075 0.157075 0.832075
1.000000 0.134650 0.809650
1.000000 0.112225 0.787225
1.000000 0.112225 0.787225
0.000000 0.435225 0.885225
0.000000 0.427750 0.877750
0.180325 0.405325 0.855325
0.382900 0.382900 0.832900
0.585475 0.360475 0.810475
0.788050 0.338050 0.788050
0.990625 0.315625 0.765625
1.000000 0.293200 0.743200
1.000000 0.293200 0.743200
0.000000 0.616200 0.841200
0.000000 0.608725 0.833725
0.136300 0.586300 0.811300
0.338875 0.563875 0.788875
0.541450 0.541450 0.766450
0.744025 0.519025 0.744025
0.946600 0.496600 0.721600
1.000000 0.474175 0.699175
1.000000 0.474175 0.699175
0.000000 0.797175 0.797175
0.000000 0.789700 0.789700
0.092275 0.767275 0.767275
0.294850 0.744850 0.744850
0.497425 0.722425 0.722425
0.700000 0.700000 0.700000
0.902575 0.677575 0.677575
1.000000 0.655150 0.655150
1.000000 0.655150 0.655150
0.000000 0.978150 0.753150
0.000000 0.970675 0.745675
0.048250 0.948250 0.723250
0.250825 0.925825 0.700825
0.453400 0.903400 0.678400
0.655975 0.880975 0.655975
0.858550 0.858550 0.633550
1.000000 0.836125 0.611125
1.000000 0.836125 0.611125
0.000000 1.000000 0.709125
0.000000 1.000000 0.701650
0.004225 1.000000 0.679225
0.206800 1.000000 0.656800
0.409375 1.000000 0.634375
0.611950 1.000000 0.611950
0.814525 1.000000 0.589525
1.000000 1.000000 0.567100
1.000000 1.000000 0.567100
0.000000 1.000000 0.709125
0.000000 1.000000 0.701650
0.004225 1.000000 0.679225
0.206800 1.000000 0.656800
0.409375 1.000000 0.634375
0.611950 1.000000 0.611950
0.814525 1.000000 0.589525
1.000000 1.000000 0.567100
1.000000 1.000000 0.567100
0.004400 0.004400 1.000000
0.071925 0.000000 1.000000
0.274500 0.000000 1.000000
0.477075 0.000000 1.000000
0.679650 0.000000 1.000000
0.882225 0.000000 1.000000
1.000000 0.000000 1.000000
1.000000 0.000000 1.000000
1.000000 0.000000 1.000000
0.000000 0.064725 1.000000
0.057250 0.057250 1.000000
0.259825 0.034825 1.000000
0.462400 0.012400 1.000000
0.664975 0.000000 1.000000
0.867550 0.000000 1.000000
1.000000 0.000000 1.000000
1.000000 0.000000 1.000000
1.000000 0.000000 1.000000
0.000000 0.245700 1.000000
0.013225 0.238225 1.000000
0.215800 0.215800 1.000000
0.418375 0.193375 1.000000
0.620950 0.170950 1.000000
0.823525 0.148525 1.000000
1.000000 0.126100 1.000000
1.000000 0.103675 1.000000
1.000000 0.103675 1.000000
0.000000 0.426675 1.000000
0.000000 0.419200 1.000000
0.171775 0.396775 1.000000
0.374350 0.374350 1.000000
0.576925 0.351925 1.000000
0.779500 0.329500 1.000000
0.982075 0.307075 0.982075
1.000000 0.284650 0.959650
1.000000 0.284650 0.959650
0.000000 0.607650 1.000000
0.000000 0.600175 1.000000
0.127750 0.577750 1.000000
0.330325 0.555325 1.000000
0.532900 0.532900 0.982900
0.735475 0.510475 0.960475
0.938050 0.488050 0.938050
1.000000 0.465625 0.915625
1.000000 0.465625 0.915625
0.000000 0.788625 1.000000
0.000000 0.781150 1.000000
0.083725 0.758725 0.983725
0.286300 0.736300 0.961300
0.488875 0.713875 0.938875
0.691450 0.691450 0.916450
0.894025 0.669025 0.894025
1.000000 0.646600 0.871600
1.000000 0.646600 0.871600
0.000000 0.969600 0.969600
0.000000 0.962125 0.962125
0.039700 0.939700 0.939700
0.242275 0.917275 0.917275
0.444850 0.894850 0.894850
0.647425 0.872425 0.872425
0.850000 0.850000 0.850000
1.000000 0.827575 0.827575
1.000000 0.827575 0.827575
0.000000 1.000000 0.925575
0.000000 1.000000 0.918100
0.000000 1.000000 0.895675
0.198250 1.000000 0.873250
0.400825 1.000000 0.850825
0.603400 1.000000 0.828400
0.805975 1.000000 0.805975
1.000000 1.000000 0.783550
1.000000 1.000000 0.783550
0.000000 1.000000 0.925575
0.000000 1.000000 0.918100
0.000000 1.000000 0.895675
0.198250 1.000000 0.873250
0.400825 1.000000 0.850825
0.603400 1.000000 0.828400
0.805975 1.000000 0.805975
1.000000 1.000000 0.783550
1.000000 1.000000 0.783550
0.000000 0.000000 1.000000
0.063375 0.000000 1.000000
0.265950 0.000000 1.000000
0.468525 0.000000 1.000000
0.671100 0.000000 1.000000
0.873675 0.000000 1.000000
1.000000 0.000000 1.000000
1.000000 0.000000 1.000000
1.000000 0.000000 1.000000
0.000000 0.056175 1.000000
0.048700 0.048700 1.000000
0.251275 0.026275 1.000000
0.453850 0.003850 1.000000
0.656425 0.000000 1.000000
0.859000 0.000000 1.000000
1.000000 0.000000 1.000000
1.000000 0.000000 1.000000
1.000000 0.000000 1.000000
0.000000 0.237150 1.000000
0.004675 0.229675 1.000000
0.207250 0.207250 1.000000
0.409825 0.184825 1.000000
0.612400 0.162400 1.000000
0.814975 0.139975 1.000000
1.000000 0.117550 1.000000
1.000000 0.095125 1.000000
1.000000 0.095125 1.000000
0.000000 0.418125 1.000000
0.000000 0.410650 1.000000
0.163225 0.388225 1.000000
0.365800 0.365800 1.000000
0.568375 0.343375 1.000000
0.770950 0.320950 1.000000
0.973525 0.298525 1.000000
1.000000 0.276100 1.000000
1.000000 0.276100 1.000000
0.000000 0.599100 1.000000
0.000000 0.591625 1.000000
0.119200 0.569200 1.000000
0.321775 0.546775 1.000000
0.524350 0.524350 1.000000
0.726925 0.501925 1.000000
0.929500 0.479500 1.000000
1.000000 0.457075 1.000000
1.000000 0.457075 1.000000
0.000000 0.780075 1.000000
0.000000 0.772600 1.000000
0.075175 0.750175 1.000000
0.277750 0.727750 1.000000
0.480325 0.705325 1.000000
0.682900 0.682900 1.000000
0.885475 0.660475 1.000000
1.000000 0.638050 1.000000
1.000000 0.638050 1.000000
0.000000 0.961050 1.000000
0.000000 0.953575 1.000000
0.031150 0.931150 1.000000
0.233725 0.908725 1.000000
0.436300 0.886300 1.000000
0.638875 0.863875 1.000000
0.841450 0.841450 1.000000
1.000000 0.819025 1.000000
1.000000 0.819025 1.000000
0.000000 1.000000 1.000000
0.000000 1.000000 1.000000
0.000000 1.000000 1.000000
0.189700 1.000000 1.000000
0.392275 1.000000 1.000000
0.594850 1.000000 1.000000
0.797425 1.000000 1.000000
1.000000 1.000000 1.000000
1.000000 1.000000 1.000000
0.000000 1.000000 1.000000
0.000000 1.000000 1.000000
0.000000 1.000000 1.000000
0.189700 1.000000 1.000000
0.392275 1.000000 1.000000
0.594850 1.000000 1.000000
0.797425 1.000000 1.000000
1.000000 1.000000 1.000000
1.000000 1.000000 1.000000
0.000000 0.000000 1.000000
0.063375 0.000000 1.000000
0.265950 0.000000 1.000000
0.468525 0.000000 1.000000
0.671100 0.000000 1.000000
0.873675 0.000000 1.000000
1.000000 0.000000 1.000000
1.000000 0.000000 1.000000
1.000000 0.000000 1.000000
0.000000 0.056175 1.000000
0.048700 0.048700 1.000000
0.251275 0.026275 1.000000
0.453850 0.003850 1.000000
0.656425 0.000000 1.000000
0.859000 0.000000 1.000000
1.000000 0.000000 1.000000
1.000000 0.000000 1.000000
1.000000 0.000000 1.000000
0.000000 0.237150 1.000000
0.004675 0.229675 1.000000
0.207250 0.207250 1.000000
0.409825 0.184825 1.000000
0.612400 0.162400 1.000000
0.814975 0.139975 1.000000
1.000000 0.117550 1.000000
1.000000 0.095125 1.000000
1.000000 0.095125 1.000000
0.000000 0.418125 1.000000
0.000000 0.410650 1.000000
0.163225 0.388225 1.000000
0.365800 0.365800 1.000000
0.568375 0.343375 1.000000
0.770950 0.320950 1.000000
0.973525 0.298525 1.000000
1.000000 0.276100 1.000000
1.000000 0.276100 1.000000
0.000000 0.599100 1.000000
0.000000 0.591625 1.000000
0.119200 0.569200 1.000000
0.321775 0.546775 1.000000
0.524350 0.524350 1.000000
0.726925 0.501925 1.000000
0.929500 0.479500 1.000000
1.000000 0.457075 1.000000
1.000000 0.457075 1.000000
0.000000 0.780075 1.000000
0.000000 0.772600 1.000000
0.075175 0.750175 1.000000
0.277750 0.727750 1.000000
0.480325 0.705325 1.000000
0.682900 0.682900 1.000000
0.885475 0.660475 1.000000
1.000000 0.638050 1.000000
1.000000 0.638050 1.000000
0.000000 0.961050 1.000000
0.000000 0.953575 1.000000
0.031150 0.931150 1.000000
0.233725 0.908725 1.000000
0.436300 0.886300 1.000000
0.638875 0.863875 1.000000
0.841450 0.841450 1.000000
1.000000 0.819025 1.000000
1.000000 0.819025 1.000000
0.000000 1.000000 1.000000
0.000000 1.000000 1.000000
0.000000 1.000000 1.000000
0.189700 1.000000 1.000000
0.392275 1.000000 1.000000
0.594850 1.000000 1.000000
0.797425 1.000000 1.000000
1.000000 1.000000 1.000000
1.000000 1.000000 1.000000
0.000000 1.000000 1.000000
0.000000 1.000000 1.000000
0.000000 1.000000 1.000000
0.189700 1.000000 1.000000
0.392275 1.000000 1.000000
0.594850 1.000000 1.000000
0.797425 1.000000 1.000000
1.000000 1.000000 1.000000
1.000000 1.000000 1.000000
