server/luts/vintage.cube
TITLE "Vintage"
LUT_3D_SIZE 5
0.105000 0.105000 0.105000
0.292554 0.126304 0.126304
0.480107 0.147608 0.147608
0.667661 0.168911 0.168911
0.811781 0.185282 0.185282
0.146824 0.313074 0.146824
0.334377 0.334377 0.168128
0.521931 0.355681 0.189431
0.709485 0.376985 0.210735
0.853605 0.393355 0.227105
0.188648 0.521147 0.188648
0.376201 0.542451 0.209951
0.563755 0.563755 0.231255
0.751309 0.585059 0.252559
0.895429 0.601429 0.268929
0.230471 0.729221 0.230471
0.418025 0.750525 0.251775
0.605579 0.771829 0.273079
0.793133 0.793133 0.294383
0.937253 0.809503 0.310753
0.262610 0.889109 0.262610
0.450163 0.910413 0.283913
0.637717 0.931717 0.305217
0.825271 0.953021 0.326521
0.969391 0.969391 0.342891
0.113123 0.113123 0.279373
0.300676 0.134426 0.300676
0.488230 0.155730 0.321980
0.675784 0.177034 0.343284
0.819904 0.193404 0.359654
0.154946 0.321196 0.321196
0.342500 0.342500 0.342500
0.530054 0.363804 0.363804
0.717607 0.385108 0.385108
0.861728 0.401478 0.401478
0.196770 0.529270 0.363020
0.384324 0.550574 0.384324
0.571877 0.571877 0.405628
0.759431 0.593181 0.426931
0.903551 0.609551 0.443302
0.238594 0.737344 0.404844
0.426148 0.758648 0.426148
0.613701 0.779951 0.447451
0.801255 0.801255 0.468755
0.945375 0.817625 0.485125
0.270732 0.897232 0.436982
0.458286 0.918536 0.458286
0.645840 0.939839 0.479590
0.833393 0.961143 0.500893
0.977513 0.977513 0.517263
0.121245 0.121245 0.453745
0.308799 0.142549 0.475049
0.496352 0.163853 0.496352
0.683906 0.185156 0.517656
0.828026 0.201527 0.534026
0.163069 0.329319 0.495569
0.350623 0.350623 0.516872
0.538176 0.371926 0.538176
0.725730 0.393230 0.559480
0.869850 0.409600 0.575850
0.204893 0.537392 0.537392
0.392446 0.558696 0.558696
0.580000 0.580000 0.580000
0.767554 0.601304 0.601304
0.911674 0.617674 0.617674
0.246716 0.745466 0.579216
0.434270 0.766770 0.600520
0.621824 0.788074 0.621824
0.809377 0.809377 0.643127
0.953498 0.825748 0.659498
0.278855 0.905354 0.611355
0.466408 0.926658 0.632658
0.653962 0.947962 0.653962
0.841516 0.969266 0.675266
0.985636 0.985636 0.691636
0.129368 0.129368 0.628117
0.316921 0.150671 0.649421
0.504475 0.171975 0.670725
0.692029 0.193279 0.692029
0.836149 0.209649 0.708399
0.171191 0.337441 0.669941
0.358745 0.358745 0.691245
0.546299 0.380049 0.712549
0.733853 0.401353 0.733853
0.877973 0.417723 0.750223
0.213015 0.545515 0.711765
0.400569 0.566819 0.733069
0.588122 0.588122 0.754373
0.775676 0.609426 0.775676
0.919796 0.625796 0.792046
0.254839 0.753589 0.753589
0.442393 0.774892 0.774892
0.629946 0.796196 0.796196
0.817500 0.817500 0.817500
0.961620 0.833870 0.833870
0.286977 0.913477 0.785727
0.474531 0.934781 0.807031
0.662084 0.956085 0.828334
0.849638 0.977388 0.849638
0.993758 0.993758 0.866008
0.135609 0.135609 0.762109
0.323163 0.156913 0.783413
0.510717 0.178217 0.804716
0.698270 0.199520 0.826020
0.842391 0.215891 0.842391
0.177433 0.343683 0.803933
0.364987 0.364987 0.825236
0.552540 0.386290 0.846540
0.740094 0.407594 0.867844
0.884214 0.423964 0.884214
0.219257 0.551756 0.845757
0.406810 0.573060 0.867060
0.594364 0.594364 0.888364
0.781918 0.615668 0.909668
0.926038 0.632038 0.926038
0.261080 0.759830 0.887580
0.448634 0.781134 0.908884
0.636188 0.802438 0.930188
0.823742 0.823742 0.951491
0.967862 0.840112 0.967862
0.293219 0.919718 0.919718
0.480772 0.941022 0.941022
0.668326 0.962326 0.962326
0.855880 0.983630 0.983630
1.000000 1.000000 1.000000
