server/luts/vintage.cube
TITLE "Vintage"
LUT_3D_SIZE 17
0.105000 0.105000 0.105000
0.151888 0.110326 0.110326
0.198777 0.115652 0.115652
0.245665 0.120978 0.120978
0.292554 0.126304 0.126304
0.339442 0.131630 0.131630
0.386331 0.136956 0.136956
0.433219 0.142282 0.142282
0.480107 0.147608 0.147608
0.526996 0.152933 0.152933
0.573884 0.158259 0.158259
0.620773 0.163585 0.163585
0.667661 0.168911 0.168911
0.714550 0.174237 0.174237
0.761438 0.179563 0.179563
0.808327 0.184889 0.184889
0.811781 0.185282 0.185282
0.115456 0.157018 0.115456
0.162344 0.162344 0.120782
0.209233 0.167670 0.126108
0.256121 0.172996 0.131434
0.303010 0.178322 0.136760
0.349898 0.183648 0.142086
0.396787 0.188974 0.147412
0.443675 0.194300 0.152738
0.490563 0.199626 0.158063
0.537452 0.204952 0.163389
0.584340 0.210278 0.168715
0.631229 0.215604 0.174041
0.678117 0.220930 0.179367
0.725006 0.226256 0.184693
0.771894 0.231582 0.190019
0.818782 0.236908 0.195345
0.822237 0.237300 0.195737
0.125912 0.209037 0.125912
0.172800 0.214363 0.131238
0.219689 0.219689 0.136564
0.266577 0.225015 0.141890
0.313466 0.230341 0.147216
0.360354 0.235667 0.152542
0.407242 0.240993 0.157868
0.454131 0.246318 0.163193
0.501019 0.251644 0.168519
0.547908 0.256970 0.173845
0.594796 0.262296 0.179171
0.641685 0.267622 0.184497
0.688573 0.272948 0.189823
0.735462 0.278274 0.195149
0.782350 0.283600 0.200475
0.829238 0.288926 0.205801
0.832693 0.289318 0.206193
0.136368 0.261055 0.136368
0.183256 0.266381 0.141694
0.230145 0.271707 0.147020
0.277033 0.277033 0.152346
0.323922 0.282359 0.157672
0.370810 0.287685 0.162998
0.417698 0.293011 0.168323
0.464587 0.298337 0.173649
0.511475 0.303663 0.178975
0.558364 0.308989 0.184301
0.605252 0.314315 0.189627
0.652141 0.319641 0.194953
0.699029 0.324967 0.200279
0.745918 0.330292 0.205605
0.792806 0.335618 0.210931
0.839694 0.340944 0.216257
0.843149 0.341337 0.216649
0.146824 0.313074 0.146824
0.193712 0.318400 0.152150
0.240601 0.323726 0.157476
0.287489 0.329052 0.162802
0.334377 0.334377 0.168128
0.381266 0.339703 0.173453
0.428154 0.345029 0.178779
0.475043 0.350355 0.184105
0.521931 0.355681 0.189431
0.568820 0.361007 0.194757
0.615708 0.366333 0.200083
0.662597 0.371659 0.205409
0.709485 0.376985 0.210735
0.756373 0.382311 0.216061
0.803262 0.387637 0.221387
0.850150 0.392963 0.226713
0.853605 0.393355 0.227105
0.157280 0.365092 0.157280
0.204168 0.370418 0.162606
0.251057 0.375744 0.167932
0.297945 0.381070 0.173258
0.344833 0.386396 0.178583
0.391722 0.391722 0.183909
0.438610 0.397048 0.189235
0.485499 0.402374 0.194561
0.532387 0.407700 0.199887
0.579276 0.413026 0.205213
0.626164 0.418352 0.210539
0.673052 0.423678 0.215865
0.719941 0.429003 0.221191
0.766829 0.434329 0.226517
0.813718 0.439655 0.231843
0.860606 0.444981 0.237169
0.864061 0.445374 0.237561
0.167736 0.417111 0.167736
0.214624 0.422437 0.173062
0.261513 0.427762 0.178388
0.308401 0.433088 0.183713
0.355289 0.438414 0.189039
0.402178 0.443740 0.194365
0.449066 0.449066 0.199691
0.495955 0.454392 0.205017
0.542843 0.459718 0.210343
0.589732 0.465044 0.215669
0.636620 0.470370 0.220995
0.683508 0.475696 0.226321
0.730397 0.481022 0.231647
0.777285 0.486348 0.236973
0.824174 0.491674 0.242299
0.871062 0.497000 0.247625
0.874517 0.497392 0.248017
0.178192 0.469129 0.178192
0.225080 0.474455 0.183518
0.271968 0.479781 0.188843
0.318857 0.485107 0.194169
0.365745 0.490433 0.199495
0.412634 0.495759 0.204821
0.459522 0.501085 0.210147
0.506411 0.506411 0.215473
0.553299 0.511737 0.220799
0.600187 0.517062 0.226125
0.647076 0.522388 0.231451
0.693964 0.527714 0.236777
0.740853 0.533040 0.242103
0.787741 0.538366 0.247429
0.834630 0.543692 0.252755
0.881518 0.549018 0.258081
0.884973 0.549411 0.258473
0.188648 0.521147 0.188648
0.235536 0.526473 0.193973
0.282424 0.531799 0.199299
0.329313 0.537125 0.204625
0.376201 0.542451 0.209951
0.423090 0.547777 0.215277
0.469978 0.553103 0.220603
0.516867 0.558429 0.225929
0.563755 0.563755 0.231255
0.610643 0.569081 0.236581
0.657532 0.574407 0.241907
0.704420 0.579733 0.247233
0.751309 0.585059 0.252559
0.798197 0.590385 0.257885
0.845086 0.595711 0.263211
0.891974 0.601037 0.268537
0.895429 0.601429 0.268929
0.199103 0.573166 0.199103
0.245992 0.578492 0.204429
0.292880 0.583818 0.209755
0.339769 0.589144 0.215081
0.386657 0.594470 0.220407
0.433546 0.599796 0.225733
0.480434 0.605122 0.231059
0.527323 0.610447 0.236385
0.574211 0.615773 0.241711
0.621099 0.621099 0.247037
0.667988 0.626425 0.252363
0.714876 0.631751 0.257689
0.761765 0.637077 0.263015
0.808653 0.642403 0.268341
0.855542 0.647729 0.273667
0.902430 0.653055 0.278992
0.905885 0.653447 0.279385
0.209559 0.625184 0.209559
0.256448 0.630510 0.214885
0.303336 0.635836 0.220211
0.350225 0.641162 0.225537
0.397113 0.646488 0.230863
0.444002 0.651814 0.236189
0.490890 0.657140 0.241515
0.537778 0.662466 0.246841
0.584667 0.667792 0.252167
0.631555 0.673118 0.257493
0.678444 0.678444 0.262819
0.725332 0.683770 0.268145
0.772221 0.689096 0.273471
0.819109 0.694422 0.278797
0.865997 0.699747 0.284123
0.912886 0.705073 0.289448
0.916341 0.705466 0.289841
0.220015 0.677203 0.220015
0.266904 0.682529 0.225341
0.313792 0.687855 0.230667
0.360681 0.693181 0.235993
0.407569 0.698507 0.241319
0.454458 0.703832 0.246645
0.501346 0.709158 0.251971
0.548234 0.714484 0.257297
0.595123 0.719810 0.262623
0.642011 0.725136 0.267949
0.688900 0.730462 0.273275
0.735788 0.735788 0.278601
0.782677 0.741114 0.283927
0.829565 0.746440 0.289252
0.876453 0.751766 0.294578
0.923342 0.757092 0.299904
0.926797 0.757484 0.300297
0.230471 0.729221 0.230471
0.277360 0.734547 0.235797
0.324248 0.739873 0.241123
0.371137 0.745199 0.246449
0.418025 0.750525 0.251775
0.464913 0.755851 0.257101
0.511802 0.761177 0.262427
0.558690 0.766503 0.267753
0.605579 0.771829 0.273079
0.652467 0.777155 0.278405
0.699356 0.782481 0.283731
0.746244 0.787807 0.289057
0.793133 0.793133 0.294383
0.840021 0.798458 0.299708
0.886909 0.803784 0.305034
0.933798 0.809110 0.310360
0.937253 0.809503 0.310753
0.240927 0.781240 0.240927
0.287816 0.786566 0.246253
0.334704 0.791892 0.251579
0.381593 0.797217 0.256905
0.428481 0.802543 0.262231
0.475369 0.807869 0.267557
0.522258 0.813195 0.272883
0.569146 0.818521 0.278209
0.616035 0.823847 0.283535
0.662923 0.829173 0.288861
0.709812 0.834499 0.294187
0.756700 0.839825 0.299513
0.803588 0.845151 0.304838
0.850477 0.850477 0.310164
0.897365 0.855803 0.315490
0.944254 0.861129 0.320816
0.947709 0.861521 0.321209
0.251383 0.833258 0.251383
0.298272 0.838584 0.256709
0.345160 0.843910 0.262035
0.392048 0.849236 0.267361
0.438937 0.854562 0.272687
0.485825 0.859888 0.278013
0.532714 0.865214 0.283339
0.579602 0.870540 0.288665
0.626491 0.875866 0.293991
0.673379 0.881192 0.299317
0.720267 0.886517 0.304642
0.767156 0.891843 0.309968
0.814044 0.897169 0.315294
0.860933 0.902495 0.320620
0.907821 0.907821 0.325946
0.954710 0.913147 0.331272
0.958165 0.913540 0.331665
0.261839 0.885277 0.261839
0.308728 0.890602 0.267165
0.355616 0.895928 0.272491
0.402504 0.901254 0.277817
0.449393 0.906580 0.283143
0.496281 0.911906 0.288469
0.543170 0.917232 0.293795
0.590058 0.922558 0.299121
0.636947 0.927884 0.304447
0.683835 0.933210 0.309773
0.730723 0.938536 0.315098
0.777612 0.943862 0.320424
0.824500 0.949188 0.325750
0.871389 0.954514 0.331076
0.918277 0.959840 0.336402
0.965166 0.965166 0.341728
0.968621 0.965558 0.342121
0.262610 0.889109 0.262610
0.309498 0.894435 0.267935
0.356386 0.899761 0.273261
0.403275 0.905087 0.278587
0.450163 0.910413 0.283913
0.497052 0.915739 0.289239
0.543940 0.921065 0.294565
0.590829 0.926391 0.299891
0.637717 0.931717 0.305217
0.684605 0.937043 0.310543
0.731494 0.942369 0.315869
0.778382 0.947695 0.321195
0.825271 0.953021 0.326521
0.872159 0.958347 0.331847
0.919048 0.963673 0.337173
0.965936 0.968999 0.342499
0.969391 0.969391 0.342891
0.107031 0.107031 0.148593
0.153919 0.112357 0.153919
0.200808 0.117683 0.159245
0.247696 0.123008 0.164571
0.294584 0.128334 0.169897
0.341473 0.133660 0.175223
0.388361 0.138986 0.180549
0.435250 0.144312 0.185875
0.482138 0.149638 0.191201
0.529027 0.154964 0.196527
0.575915 0.160290 0.201853
0.622803 0.165616 0.207178
0.669692 0.170942 0.212504
0.716580 0.176268 0.217830
0.763469 0.181594 0.223156
0.810357 0.186920 0.228482
0.813812 0.187312 0.228875
0.117487 0.159049 0.159049
0.164375 0.164375 0.164375
0.211263 0.169701 0.169701
0.258152 0.175027 0.175027
0.305040 0.180353 0.180353
0.351929 0.185679 0.185679
0.398817 0.191005 0.191005
0.445706 0.196331 0.196331
0.492594 0.201657 0.201657
0.539482 0.206983 0.206983
0.586371 0.212308 0.212308
0.633259 0.217634 0.217634
0.680148 0.222960 0.222960
0.727036 0.228286 0.228286
0.773925 0.233612 0.233612
0.820813 0.238938 0.238938
0.824268 0.239331 0.239331
0.127943 0.211068 0.169505
0.174831 0.216393 0.174831
0.221719 0.221719 0.180157
0.268608 0.227045 0.185483
0.315496 0.232371 0.190809
0.362385 0.237697 0.196135
0.409273 0.243023 0.201461
0.456162 0.248349 0.206787
0.503050 0.253675 0.212113
0.549938 0.259001 0.217438
0.596827 0.264327 0.222764
0.643715 0.269653 0.228090
0.690604 0.274979 0.233416
0.737492 0.280305 0.238742
0.784381 0.285631 0.244068
0.831269 0.290957 0.249394
0.834724 0.291349 0.249787
0.138398 0.263086 0.179961
0.185287 0.268412 0.185287
0.232175 0.273738 0.190613
0.279064 0.279064 0.195939
0.325952 0.284390 0.201265
0.372841 0.289716 0.206591
0.419729 0.295042 0.211917
0.466618 0.300368 0.217243
0.513506 0.305693 0.222568
0.560394 0.311019 0.227894
0.607283 0.316345 0.233220
0.654171 0.321671 0.238546
0.701060 0.326997 0.243872
0.747948 0.332323 0.249198
0.794837 0.337649 0.254524
0.841725 0.342975 0.259850
0.845180 0.343367 0.260242
0.148854 0.315104 0.190417
0.195743 0.320430 0.195743
0.242631 0.325756 0.201069
0.289520 0.331082 0.206395
0.336408 0.336408 0.211721
0.383297 0.341734 0.217047
0.430185 0.347060 0.222373
0.477073 0.352386 0.227698
0.523962 0.357712 0.233024
0.570850 0.363038 0.238350
0.617739 0.368364 0.243676
0.664627 0.373690 0.249002
0.711516 0.379016 0.254328
0.758404 0.384342 0.259654
0.805292 0.389667 0.264980
0.852181 0.394993 0.270306
0.855636 0.395386 0.270698
0.159310 0.367123 0.200873
0.206199 0.372449 0.206199
0.253087 0.377775 0.211525
0.299976 0.383101 0.216851
0.346864 0.388427 0.222177
0.393753 0.393753 0.227503
0.440641 0.399078 0.232828
0.487529 0.404404 0.238154
0.534418 0.409730 0.243480
0.581306 0.415056 0.248806
0.628195 0.420382 0.254132
0.675083 0.425708 0.259458
0.721972 0.431034 0.264784
0.768860 0.436360 0.270110
0.815748 0.441686 0.275436
0.862637 0.447012 0.280762
0.866092 0.447404 0.281154
0.169766 0.419141 0.211329
0.216655 0.424467 0.216655
0.263543 0.429793 0.221981
0.310432 0.435119 0.227307
0.357320 0.440445 0.232633
0.404208 0.445771 0.237958
0.451097 0.451097 0.243284
0.497985 0.456423 0.248610
0.544874 0.461749 0.253936
0.591762 0.467075 0.259262
0.638651 0.472401 0.264588
0.685539 0.477727 0.269914
0.732428 0.483052 0.275240
0.779316 0.488378 0.280566
0.826204 0.493704 0.285892
0.873093 0.499030 0.291218
0.876548 0.499423 0.291610
0.180222 0.471160 0.221785
0.227111 0.476486 0.227111
0.273999 0.481812 0.232437
0.320887 0.487138 0.237763
0.367776 0.492463 0.243088
0.414664 0.497789 0.248414
0.461553 0.503115 0.253740
0.508441 0.508441 0.259066
0.555330 0.513767 0.264392
0.602218 0.519093 0.269718
0.649107 0.524419 0.275044
0.695995 0.529745 0.280370
0.742883 0.535071 0.285696
0.789772 0.540397 0.291022
0.836660 0.545723 0.296348
0.883549 0.551049 0.301674
0.887004 0.551441 0.302066
0.190678 0.523178 0.232241
0.237567 0.528504 0.237567
0.284455 0.533830 0.242893
0.331343 0.539156 0.248218
0.378232 0.544482 0.253544
0.425120 0.549808 0.258870
0.472009 0.555134 0.264196
0.518897 0.560460 0.269522
0.565786 0.565786 0.274848
0.612674 0.571112 0.280174
0.659562 0.576437 0.285500
0.706451 0.581763 0.290826
0.753339 0.587089 0.296152
0.800228 0.592415 0.301478
0.847116 0.597741 0.306804
0.894005 0.603067 0.312130
0.897460 0.603460 0.312522
0.201134 0.575197 0.242697
0.248023 0.580522 0.248023
0.294911 0.585848 0.253348
0.341799 0.591174 0.258674
0.388688 0.596500 0.264000
0.435576 0.601826 0.269326
0.482465 0.607152 0.274652
0.529353 0.612478 0.279978
0.576242 0.617804 0.285304
0.623130 0.623130 0.290630
0.670018 0.628456 0.295956
0.716907 0.633782 0.301282
0.763795 0.639108 0.306608
0.810684 0.644434 0.311934
0.857572 0.649760 0.317260
0.904461 0.655086 0.322586
0.907916 0.655478 0.322978
0.211590 0.627215 0.253153
0.258478 0.632541 0.258478
0.305367 0.637867 0.263804
0.352255 0.643193 0.269130
0.399144 0.648519 0.274456
0.446032 0.653845 0.279782
0.492921 0.659171 0.285108
0.539809 0.664497 0.290434
0.586697 0.669822 0.295760
0.633586 0.675148 0.301086
0.680474 0.680474 0.306412
0.727363 0.685800 0.311738
0.774251 0.691126 0.317064
0.821140 0.696452 0.322390
0.868028 0.701778 0.327716
0.914917 0.707104 0.333042
0.918372 0.707496 0.333434
0.222046 0.679233 0.263608
0.268934 0.684559 0.268934
0.315823 0.689885 0.274260
0.362711 0.695211 0.279586
0.409600 0.700537 0.284912
0.456488 0.705863 0.290238
0.503377 0.711189 0.295564
0.550265 0.716515 0.300890
0.597153 0.721841 0.306216
0.644042 0.727167 0.311542
0.690930 0.732493 0.316868
0.737819 0.737819 0.322194
0.784707 0.743145 0.327520
0.831596 0.748471 0.332846
0.878484 0.753797 0.338172
0.925372 0.759122 0.343498
0.928827 0.759515 0.343890
0.232502 0.731252 0.274064
0.279390 0.736578 0.279390
0.326279 0.741904 0.284716
0.373167 0.747230 0.290042
0.420056 0.752556 0.295368
0.466944 0.757882 0.300694
0.513833 0.763208 0.306020
0.560721 0.768533 0.311346
0.607609 0.773859 0.316672
0.654498 0.779185 0.321998
0.701386 0.784511 0.327324
0.748275 0.789837 0.332650
0.795163 0.795163 0.337976
0.842052 0.800489 0.343302
0.888940 0.805815 0.348628
0.935828 0.811141 0.353953
0.939283 0.811533 0.354346
0.242958 0.783270 0.284520
0.289846 0.788596 0.289846
0.336735 0.793922 0.295172
0.383623 0.799248 0.300498
0.430512 0.804574 0.305824
0.477400 0.809900 0.311150
0.524288 0.815226 0.316476
0.571177 0.820552 0.321802
0.618065 0.825878 0.327128
0.664954 0.831204 0.332454
0.711842 0.836530 0.337780
0.758731 0.841856 0.343106
0.805619 0.847182 0.348432
0.852507 0.852507 0.353758
0.899396 0.857833 0.359083
0.946284 0.863159 0.364409
0.949739 0.863552 0.364802
0.253414 0.835289 0.294976
0.300302 0.840615 0.300302
0.347191 0.845941 0.305628
0.394079 0.851267 0.310954
0.440968 0.856592 0.316280
0.487856 0.861918 0.321606
0.534744 0.867244 0.326932
0.581633 0.872570 0.332258
0.628521 0.877896 0.337584
0.675410 0.883222 0.342910
0.722298 0.888548 0.348236
0.769187 0.893874 0.353562
0.816075 0.899200 0.358888
0.862963 0.904526 0.364213
0.909852 0.909852 0.369539
0.956740 0.915178 0.374865
0.960195 0.915570 0.375258
0.263870 0.887307 0.305432
0.310758 0.892633 0.310758
0.357647 0.897959 0.316084
0.404535 0.903285 0.321410
0.451423 0.908611 0.326736
0.498312 0.913937 0.332062
0.545200 0.919263 0.337388
0.592089 0.924589 0.342714
0.638977 0.929915 0.348040
0.685866 0.935241 0.353366
0.732754 0.940567 0.358692
0.779642 0.945892 0.364018
0.826531 0.951218 0.369343
0.873419 0.956544 0.374669
0.920308 0.961870 0.379995
0.967196 0.967196 0.385321
0.970651 0.967589 0.385714
0.264640 0.891140 0.306203
0.311529 0.896466 0.311529
0.358417 0.901792 0.316855
0.405305 0.907118 0.322180
0.452194 0.912444 0.327506
0.499082 0.917770 0.332832
0.545971 0.923096 0.338158
0.592859 0.928422 0.343484
0.639748 0.933748 0.348810
0.686636 0.939074 0.354136
0.733525 0.944399 0.359462
0.780413 0.949725 0.364788
0.827301 0.955051 0.370114
0.874190 0.960377 0.375440
0.921078 0.965703 0.380766
0.967967 0.971029 0.386092
0.971422 0.971422 0.386484
0.109061 0.109061 0.192186
0.155950 0.114387 0.197512
0.202838 0.119713 0.202838
0.249727 0.125039 0.208164
0.296615 0.130365 0.213490
0.343503 0.135691 0.218816
0.390392 0.141017 0.224142
0.437280 0.146343 0.229468
0.484169 0.151669 0.234794
0.531057 0.156995 0.240120
0.577946 0.162321 0.245446
0.624834 0.167647 0.250772
0.671723 0.172973 0.256098
0.718611 0.178298 0.261423
0.765499 0.183624 0.266749
0.812388 0.188950 0.272075
0.815843 0.189343 0.272468
0.119517 0.161080 0.202642
0.166406 0.166406 0.207968
0.213294 0.171732 0.213294
0.260183 0.177058 0.218620
0.307071 0.182383 0.223946
0.353959 0.187709 0.229272
0.400848 0.193035 0.234598
0.447736 0.198361 0.239924
0.494625 0.203687 0.245250
0.541513 0.209013 0.250576
0.588402 0.214339 0.255902
0.635290 0.219665 0.261228
0.682178 0.224991 0.266553
0.729067 0.230317 0.271879
0.775955 0.235643 0.277205
0.822844 0.240969 0.282531
0.826299 0.241361 0.282924
0.129973 0.213098 0.213098
0.176862 0.218424 0.218424
0.223750 0.223750 0.223750
0.270638 0.229076 0.229076
0.317527 0.234402 0.234402
0.364415 0.239728 0.239728
0.411304 0.245054 0.245054
0.458192 0.250380 0.250380
0.505081 0.255706 0.255706
0.551969 0.261032 0.261032
0.598858 0.266358 0.266358
0.645746 0.271683 0.271683
0.692634 0.277009 0.277009
0.739523 0.282335 0.282335
0.786411 0.287661 0.287661
0.833300 0.292987 0.292987
0.836755 0.293380 0.293380
0.140429 0.265117 0.223554
0.187318 0.270443 0.228880
0.234206 0.275768 0.234206
0.281094 0.281094 0.239532
0.327983 0.286420 0.244858
0.374871 0.291746 0.250184
0.421760 0.297072 0.255510
0.468648 0.302398 0.260836
0.515537 0.307724 0.266162
0.562425 0.313050 0.271488
0.609313 0.318376 0.276813
0.656202 0.323702 0.282139
0.703090 0.329028 0.287465
0.749979 0.334354 0.292791
0.796867 0.339680 0.298117
0.843756 0.345006 0.303443
0.847211 0.345398 0.303836
0.150885 0.317135 0.234010
0.197773 0.322461 0.239336
0.244662 0.327787 0.244662
0.291550 0.333113 0.249988
0.338439 0.338439 0.255314
0.385327 0.343765 0.260640
0.432216 0.349091 0.265966
0.479104 0.354417 0.271292
0.525992 0.359743 0.276618
0.572881 0.365068 0.281943
0.619769 0.370394 0.287269
0.666658 0.375720 0.292595
0.713546 0.381046 0.297921
0.760435 0.386372 0.303247
0.807323 0.391698 0.308573
0.854212 0.397024 0.313899
0.857666 0.397417 0.314292
0.161341 0.369153 0.244466
0.208229 0.374479 0.249792
0.255118 0.379805 0.255118
0.302006 0.385131 0.260444
0.348895 0.390457 0.265770
0.395783 0.395783 0.271096
0.442672 0.401109 0.276422
0.489560 0.406435 0.281748
0.536448 0.411761 0.287073
0.583337 0.417087 0.292399
0.630225 0.422413 0.297725
0.677114 0.427739 0.303051
0.724002 0.433065 0.308377
0.770891 0.438391 0.313703
0.817779 0.443717 0.319029
0.864667 0.449043 0.324355
0.868122 0.449435 0.324747
0.171797 0.421172 0.254922
0.218685 0.426498 0.260248
0.265574 0.431824 0.265574
0.312462 0.437150 0.270900
0.359351 0.442476 0.276226
0.406239 0.447802 0.281552
0.453128 0.453128 0.286878
0.500016 0.458453 0.292203
0.546904 0.463779 0.297529
0.593793 0.469105 0.302855
0.640681 0.474431 0.308181
0.687570 0.479757 0.313507
0.734458 0.485083 0.318833
0.781347 0.490409 0.324159
0.828235 0.495735 0.329485
0.875123 0.501061 0.334811
0.878578 0.501453 0.335203
0.182253 0.473190 0.265378
0.229141 0.478516 0.270704
0.276030 0.483842 0.276030
0.322918 0.489168 0.281356
0.369807 0.494494 0.286682
0.416695 0.499820 0.292008
0.463583 0.505146 0.297333
0.510472 0.510472 0.302659
0.557360 0.515798 0.307985
0.604249 0.521124 0.313311
0.651137 0.526450 0.318637
0.698026 0.531776 0.323963
0.744914 0.537102 0.329289
0.791802 0.542427 0.334615
0.838691 0.547753 0.339941
0.885579 0.553079 0.345267
0.889034 0.553472 0.345659
0.192709 0.525209 0.275834
0.239597 0.530535 0.281160
0.286486 0.535861 0.286486
0.333374 0.541187 0.291812
0.380263 0.546512 0.297138
0.427151 0.551838 0.302463
0.474039 0.557164 0.307789
0.520928 0.562490 0.313115
0.567816 0.567816 0.318441
0.614705 0.573142 0.323767
0.661593 0.578468 0.329093
0.708482 0.583794 0.334419
0.755370 0.589120 0.339745
0.802258 0.594446 0.345071
0.849147 0.599772 0.350397
0.896035 0.605098 0.355723
0.899490 0.605490 0.356115
0.203165 0.577227 0.286290
0.250053 0.582553 0.291616
0.296942 0.587879 0.296942
0.343830 0.593205 0.302268
0.390718 0.598531 0.307593
0.437607 0.603857 0.312919
0.484495 0.609183 0.318245
0.531384 0.614509 0.323571
0.578272 0.619835 0.328897
0.625161 0.625161 0.334223
0.672049 0.630487 0.339549
0.718937 0.635812 0.344875
0.765826 0.641138 0.350201
0.812714 0.646464 0.355527
0.859603 0.651790 0.360853
0.906491 0.657116 0.366179
0.909946 0.657509 0.366571
0.213621 0.629246 0.296746
0.260509 0.634572 0.302072
0.307398 0.639898 0.307398
0.354286 0.645223 0.312723
0.401174 0.650549 0.318049
0.448063 0.655875 0.323375
0.494951 0.661201 0.328701
0.541840 0.666527 0.334027
0.588728 0.671853 0.339353
0.635617 0.677179 0.344679
0.682505 0.682505 0.350005
0.729393 0.687831 0.355331
0.776282 0.693157 0.360657
0.823170 0.698483 0.365983
0.870059 0.703809 0.371309
0.916947 0.709135 0.376635
0.920402 0.709527 0.377027
0.224077 0.681264 0.307202
0.270965 0.686590 0.312528
0.317853 0.691916 0.317853
0.364742 0.697242 0.323179
0.411630 0.702568 0.328505
0.458519 0.707894 0.333831
0.505407 0.713220 0.339157
0.552296 0.718546 0.344483
0.599184 0.723872 0.349809
0.646072 0.729197 0.355135
0.692961 0.734523 0.360461
0.739849 0.739849 0.365787
0.786738 0.745175 0.371113
0.833626 0.750501 0.376439
0.880515 0.755827 0.381765
0.927403 0.761153 0.387091
0.930858 0.761546 0.387483
0.234533 0.733283 0.317658
0.281421 0.738608 0.322983
0.328309 0.743934 0.328309
0.375198 0.749260 0.333635
0.422086 0.754586 0.338961
0.468975 0.759912 0.344287
0.515863 0.765238 0.349613
0.562752 0.770564 0.354939
0.609640 0.775890 0.360265
0.656528 0.781216 0.365591
0.703417 0.786542 0.370917
0.750305 0.791868 0.376243
0.797194 0.797194 0.381569
0.844082 0.802520 0.386895
0.890971 0.807846 0.392221
0.937859 0.813172 0.397547
0.941314 0.813564 0.397939
0.244988 0.785301 0.328113
0.291877 0.790627 0.333439
0.338765 0.795953 0.338765
0.385654 0.801279 0.344091
0.432542 0.806605 0.349417
0.479431 0.811931 0.354743
0.526319 0.817257 0.360069
0.573207 0.822582 0.365395
0.620096 0.827908 0.370721
0.666984 0.833234 0.376047
0.713873 0.838560 0.381373
0.760761 0.843886 0.386699
0.807650 0.849212 0.392025
0.854538 0.854538 0.397351
0.901427 0.859864 0.402677
0.948315 0.865190 0.408002
0.951770 0.865582 0.408395
0.255444 0.837319 0.338569
0.302333 0.842645 0.343895
0.349221 0.847971 0.349221
0.396110 0.853297 0.354547
0.442998 0.858623 0.359873
0.489887 0.863949 0.365199
0.536775 0.869275 0.370525
0.583663 0.874601 0.375851
0.630552 0.879927 0.381177
0.677440 0.885253 0.386503
0.724329 0.890579 0.391829
0.771217 0.895905 0.397155
0.818106 0.901231 0.402481
0.864994 0.906557 0.407807
0.911882 0.911882 0.413133
0.958771 0.917208 0.418458
0.962226 0.917601 0.418851
0.265900 0.889338 0.349025
0.312789 0.894664 0.354351
0.359677 0.899990 0.359677
0.406566 0.905316 0.365003
0.453454 0.910642 0.370329
0.500343 0.915967 0.375655
0.547231 0.921293 0.380981
0.594119 0.926619 0.386307
0.641008 0.931945 0.391633
0.687896 0.937271 0.396959
0.734785 0.942597 0.402285
0.781673 0.947923 0.407611
0.828562 0.953249 0.412937
0.875450 0.958575 0.418263
0.922338 0.963901 0.423588
0.969227 0.969227 0.428914
0.972682 0.969619 0.429307
0.266671 0.893171 0.349796
0.313559 0.898497 0.355122
0.360448 0.903823 0.360448
0.407336 0.909149 0.365774
0.454225 0.914474 0.371100
0.501113 0.919800 0.376425
0.548001 0.925126 0.381751
0.594890 0.930452 0.387077
0.641778 0.935778 0.392403
0.688667 0.941104 0.397729
0.735555 0.946430 0.403055
0.782444 0.951756 0.408381
0.829332 0.957082 0.413707
0.876220 0.962408 0.419033
0.923109 0.967734 0.424359
0.969997 0.973060 0.429685
0.973452 0.973452 0.430077
0.111092 0.111092 0.235779
0.157980 0.116418 0.241105
0.204869 0.121744 0.246431
0.251757 0.127070 0.251757
0.298646 0.132396 0.257083
0.345534 0.137722 0.262409
0.392423 0.143048 0.267735
0.439311 0.148373 0.273061
0.486199 0.153699 0.278387
0.533088 0.159025 0.283713
0.579976 0.164351 0.289039
0.626865 0.169677 0.294365
0.673753 0.175003 0.299691
0.720642 0.180329 0.305017
0.767530 0.185655 0.310343
0.814418 0.190981 0.315668
0.817873 0.191373 0.316061
0.121548 0.163110 0.246235
0.168436 0.168436 0.251561
0.215325 0.173762 0.256887
