server/luts/vintage.cube
TITLE "Vintage"
LUT_3D_SIZE 9
0.105000 0.105000 0.105000
0.198777 0.115652 0.115652
0.292554 0.126304 0.126304
0.386331 0.136956 0.136956
0.480107 0.147608 0.147608
0.573884 0.158259 0.158259
0.667661 0.168911 0.168911
0.761438 0.179563 0.179563
0.811781 0.185282 0.185282
0.125912 0.209037 0.125912
0.219689 0.219689 0.136564
0.313466 0.230341 0.147216
0.407242 0.240993 0.157868
0.501019 0.251644 0.168519
0.594796 0.262296 0.179171
0.688573 0.272948 0.189823
0.782350 0.283600 0.200475
0.832693 0.289318 0.206193
0.146824 0.313074 0.146824
0.240601 0.323726 0.157476
0.334377 0.334377 0.168128
0.428154 0.345029 0.178779
0.521931 0.355681 0.189431
0.615708 0.366333 0.200083
0.709485 0.376985 0.210735
0.803262 0.387637 0.221387
0.853605 0.393355 0.227105
0.167736 0.417111 0.167736
0.261513 0.427762 0.178388
0.355289 0.438414 0.189039
0.449066 0.449066 0.199691
0.542843 0.459718 0.210343
0.636620 0.470370 0.220995
0.730397 0.481022 0.231647
0.824174 0.491674 0.242299
0.874517 0.497392 0.248017
0.188648 0.521147 0.188648
0.282424 0.531799 0.199299
0.376201 0.542451 0.209951
0.469978 0.553103 0.220603
0.563755 0.563755 0.231255
0.657532 0.574407 0.241907
0.751309 0.585059 0.252559
0.845086 0.595711 0.263211
0.895429 0.601429 0.268929
0.209559 0.625184 0.209559
0.303336 0.635836 0.220211
0.397113 0.646488 0.230863
0.490890 0.657140 0.241515
0.584667 0.667792 0.252167
0.678444 0.678444 0.262819
0.772221 0.689096 0.273471
0.865997 0.699747 0.284123
0.916341 0.705466 0.289841
0.230471 0.729221 0.230471
0.324248 0.739873 0.241123
0.418025 0.750525 0.251775
0.511802 0.761177 0.262427
0.605579 0.771829 0.273079
0.699356 0.782481 0.283731
0.793133 0.793133 0.294383
0.886909 0.803784 0.305034
0.937253 0.809503 0.310753
0.251383 0.833258 0.251383
0.345160 0.843910 0.262035
0.438937 0.854562 0.272687
0.532714 0.865214 0.283339
0.626491 0.875866 0.293991
0.720267 0.886517 0.304642
0.814044 0.897169 0.315294
0.907821 0.907821 0.325946
0.958165 0.913540 0.331665
0.262610 0.889109 0.262610
0.356386 0.899761 0.273261
0.450163 0.910413 0.283913
0.543940 0.921065 0.294565
0.637717 0.931717 0.305217
0.731494 0.942369 0.315869
0.825271 0.953021 0.326521
0.919048 0.963673 0.337173
0.969391 0.969391 0.342891
0.109061 0.109061 0.192186
0.202838 0.119713 0.202838
0.296615 0.130365 0.213490
0.390392 0.141017 0.224142
0.484169 0.151669 0.234794
0.577946 0.162321 0.245446
0.671723 0.172973 0.256098
0.765499 0.183624 0.266749
0.815843 0.189343 0.272468
0.129973 0.213098 0.213098
0.223750 0.223750 0.223750
0.317527 0.234402 0.234402
0.411304 0.245054 0.245054
0.505081 0.255706 0.255706
0.598858 0.266358 0.266358
0.692634 0.277009 0.277009
0.786411 0.287661 0.287661
0.836755 0.293380 0.293380
0.150885 0.317135 0.234010
0.244662 0.327787 0.244662
0.338439 0.338439 0.255314
0.432216 0.349091 0.265966
0.525992 0.359743 0.276618
0.619769 0.370394 0.287269
0.713546 0.381046 0.297921
0.807323 0.391698 0.308573
0.857666 0.397417 0.314292
0.171797 0.421172 0.254922
0.265574 0.431824 0.265574
0.359351 0.442476 0.276226
0.453128 0.453128 0.286878
0.546904 0.463779 0.297529
0.640681 0.474431 0.308181
0.734458 0.485083 0.318833
0.828235 0.495735 0.329485
0.878578 0.501453 0.335203
0.192709 0.525209 0.275834
0.286486 0.535861 0.286486
0.380263 0.546512 0.297138
0.474039 0.557164 0.307789
0.567816 0.567816 0.318441
0.661593 0.578468 0.329093
0.755370 0.589120 0.339745
0.849147 0.599772 0.350397
0.899490 0.605490 0.356115
0.213621 0.629246 0.296746
0.307398 0.639898 0.307398
0.401174 0.650549 0.318049
0.494951 0.661201 0.328701
0.588728 0.671853 0.339353
0.682505 0.682505 0.350005
0.776282 0.693157 0.360657
0.870059 0.703809 0.371309
0.920402 0.709527 0.377027
0.234533 0.733283 0.317658
0.328309 0.743934 0.328309
0.422086 0.754586 0.338961
0.515863 0.765238 0.349613
0.609640 0.775890 0.360265
0.703417 0.786542 0.370917
0.797194 0.797194 0.381569
0.890971 0.807846 0.392221
0.941314 0.813564 0.397939
0.255444 0.837319 0.338569
0.349221 0.847971 0.349221
0.442998 0.858623 0.359873
0.536775 0.869275 0.370525
0.630552 0.879927 0.381177
0.724329 0.890579 0.391829
0.818106 0.901231 0.402481
0.911882 0.911882 0.413133
0.962226 0.917601 0.418851
0.266671 0.893171 0.349796
0.360448 0.903823 0.360448
0.454225 0.914474 0.371100
0.548001 0.925126 0.381751
0.641778 0.935778 0.392403
0.735555 0.946430 0.403055
0.829332 0.957082 0.413707
0.923109 0.967734 0.424359
0.973452 0.973452 0.430077
0.113123 0.113123 0.279373
0.206899 0.123774 0.290024
0.300676 0.134426 0.300676
0.394453 0.145078 0.311328
0.488230 0.155730 0.321980
0.582007 0.166382 0.332632
0.675784 0.177034 0.343284
0.769561 0.187686 0.353936
0.819904 0.193404 0.359654
0.134034 0.217159 0.300284
0.227811 0.227811 0.310936
0.321588 0.238463 0.321588
0.415365 0.249115 0.332240
0.509142 0.259767 0.342892
0.602919 0.270419 0.353544
0.696696 0.281071 0.364196
0.790472 0.291723 0.374848
0.840816 0.297441 0.380566
0.154946 0.321196 0.321196
0.248723 0.331848 0.331848
0.342500 0.342500 0.342500
0.436277 0.353152 0.353152
0.530054 0.363804 0.363804
0.623831 0.374456 0.374456
0.717607 0.385108 0.385108
0.811384 0.395759 0.395759
0.861728 0.401478 0.401478
0.175858 0.425233 0.342108
0.269635 0.435885 0.352760
0.363412 0.446537 0.363412
0.457189 0.457189 0.374064
0.550966 0.467841 0.384716
0.644742 0.478492 0.395368
0.738519 0.489144 0.406019
0.832296 0.499796 0.416671
0.882640 0.505515 0.422390
0.196770 0.529270 0.363020
0.290547 0.539922 0.373672
0.384324 0.550574 0.384324
0.478101 0.561226 0.394976
0.571877 0.571877 0.405628
0.665654 0.582529 0.416279
0.759431 0.593181 0.426931
0.853208 0.603833 0.437583
0.903551 0.609551 0.443302
0.217682 0.633307 0.383932
0.311459 0.643959 0.394584
0.405236 0.654611 0.405236
0.499012 0.665262 0.415887
0.592789 0.675914 0.426539
0.686566 0.686566 0.437191
0.780343 0.697218 0.447843
0.874120 0.707870 0.458495
0.924463 0.713588 0.464213
0.238594 0.737344 0.404844
0.332371 0.747996 0.415496
0.426148 0.758648 0.426148
0.519924 0.769299 0.436799
0.613701 0.779951 0.447451
0.707478 0.790603 0.458103
0.801255 0.801255 0.468755
0.895032 0.811907 0.479407
0.945375 0.817625 0.485125
0.259506 0.841381 0.425756
0.353283 0.852032 0.436408
0.447059 0.862684 0.447059
0.540836 0.873336 0.457711
0.634613 0.883988 0.468363
0.728390 0.894640 0.479015
0.822167 0.905292 0.489667
0.915944 0.915944 0.500319
0.966287 0.921662 0.506037
0.270732 0.897232 0.436982
0.364509 0.907884 0.447634
0.458286 0.918536 0.458286
0.552063 0.929188 0.468938
0.645840 0.939839 0.479590
0.739616 0.950491 0.490241
0.833393 0.961143 0.500893
0.927170 0.971795 0.511545
0.977513 0.977513 0.517263
0.117184 0.117184 0.366559
0.210961 0.127836 0.377211
0.304737 0.138488 0.387862
0.398514 0.149139 0.398514
0.492291 0.159791 0.409166
0.586068 0.170443 0.419818
0.679845 0.181095 0.430470
0.773622 0.191747 0.441122
0.823965 0.197465 0.446840
0.138096 0.221221 0.387471
0.231873 0.231873 0.398123
0.325649 0.242524 0.408774
0.419426 0.253176 0.419426
0.513203 0.263828 0.430078
0.606980 0.274480 0.440730
0.700757 0.285132 0.451382
0.794534 0.295784 0.462034
0.844877 0.301502 0.467752
0.159008 0.325258 0.408382
0.252784 0.335909 0.419034
0.346561 0.346561 0.429686
0.440338 0.357213 0.440338
0.534115 0.367865 0.450990
0.627892 0.378517 0.461642
0.721669 0.389169 0.472294
0.815446 0.399821 0.482946
0.865789 0.405539 0.488664
0.179919 0.429294 0.429294
0.273696 0.439946 0.439946
0.367473 0.450598 0.450598
0.461250 0.461250 0.461250
0.555027 0.471902 0.471902
0.648804 0.482554 0.482554
0.742581 0.493206 0.493206
0.836357 0.503857 0.503857
0.886701 0.509576 0.509576
0.200831 0.533331 0.450206
0.294608 0.543983 0.460858
0.388385 0.554635 0.471510
0.482162 0.565287 0.482162
0.575939 0.575939 0.492814
0.669716 0.586591 0.503466
0.763492 0.597242 0.514118
0.857269 0.607894 0.524769
0.907613 0.613613 0.530488
0.221743 0.637368 0.471118
0.315520 0.648020 0.481770
0.409297 0.658672 0.492422
0.503074 0.669324 0.503074
0.596851 0.679976 0.513726
0.690627 0.690627 0.524377
0.784404 0.701279 0.535029
0.878181 0.711931 0.545681
0.928525 0.717650 0.551400
0.242655 0.741405 0.492030
0.336432 0.752057 0.502682
0.430209 0.762709 0.513334
0.523986 0.773361 0.523986
0.617762 0.784013 0.534637
0.711539 0.794664 0.545289
0.805316 0.805316 0.555941
0.899093 0.815968 0.566593
0.949437 0.821686 0.572311
0.263567 0.845442 0.512942
0.357344 0.856094 0.523594
0.451121 0.866746 0.534246
0.544897 0.877397 0.544897
0.638674 0.888049 0.555549
0.732451 0.898701 0.566201
0.826228 0.909353 0.576853
0.920005 0.920005 0.587505
0.970348 0.925723 0.593223
0.274793 0.901293 0.524168
0.368570 0.911945 0.534820
0.462347 0.922597 0.545472
0.556124 0.933249 0.556124
0.649901 0.943901 0.566776
0.743678 0.954553 0.577428
0.837454 0.965205 0.588080
0.931231 0.975856 0.598731
0.981575 0.981575 0.604450
0.121245 0.121245 0.453745
0.215022 0.131897 0.464397
0.308799 0.142549 0.475049
0.402576 0.153201 0.485701
0.496352 0.163853 0.496352
0.590129 0.174504 0.507004
0.683906 0.185156 0.517656
0.777683 0.195808 0.528308
0.828026 0.201527 0.534026
0.142157 0.225282 0.474657
0.235934 0.235934 0.485309
0.329711 0.246586 0.495961
0.423488 0.257238 0.506612
0.517264 0.267889 0.517264
0.611041 0.278541 0.527916
0.704818 0.289193 0.538568
0.798595 0.299845 0.549220
0.848938 0.305563 0.554938
0.163069 0.329319 0.495569
0.256846 0.339971 0.506221
0.350623 0.350623 0.516872
0.444399 0.361274 0.527524
0.538176 0.371926 0.538176
0.631953 0.382578 0.548828
0.725730 0.393230 0.559480
0.819507 0.403882 0.570132
0.869850 0.409600 0.575850
0.183981 0.433356 0.516481
0.277758 0.444007 0.527133
0.371534 0.454659 0.537784
0.465311 0.465311 0.548436
0.559088 0.475963 0.559088
0.652865 0.486615 0.569740
0.746642 0.497267 0.580392
0.840419 0.507919 0.591044
0.890762 0.513637 0.596762
0.204893 0.537392 0.537392
0.298669 0.548044 0.548044
0.392446 0.558696 0.558696
0.486223 0.569348 0.569348
0.580000 0.580000 0.580000
0.673777 0.590652 0.590652
0.767554 0.601304 0.601304
0.861331 0.611956 0.611956
0.911674 0.617674 0.617674
0.225804 0.641429 0.558304
0.319581 0.652081 0.568956
0.413358 0.662733 0.579608
0.507135 0.673385 0.590260
0.600912 0.684037 0.600912
0.694689 0.694689 0.611564
0.788466 0.705341 0.622216
0.882242 0.715992 0.632867
0.932586 0.721711 0.638586
0.246716 0.745466 0.579216
0.340493 0.756118 0.589868
0.434270 0.766770 0.600520
0.528047 0.777422 0.611172
0.621824 0.788074 0.621824
0.715601 0.798726 0.632476
0.809377 0.809377 0.643127
0.903154 0.820029 0.653779
0.953498 0.825748 0.659498
0.267628 0.849503 0.600128
0.361405 0.860155 0.610780
0.455182 0.870807 0.621432
0.548959 0.881459 0.632084
0.642736 0.892111 0.642736
0.736512 0.902762 0.653387
0.830289 0.913414 0.664039
0.924066 0.924066 0.674691
0.974410 0.929785 0.680410
0.278855 0.905354 0.611355
0.372631 0.916006 0.622006
0.466408 0.926658 0.632658
0.560185 0.937310 0.643310
0.653962 0.947962 0.653962
0.747739 0.958614 0.664614
0.841516 0.969266 0.675266
0.935293 0.979918 0.685918
0.985636 0.985636 0.691636
0.125306 0.125306 0.540931
0.219083 0.135958 0.551583
0.312860 0.146610 0.562235
0.406637 0.157262 0.572887
0.500414 0.167914 0.583539
0.594191 0.178566 0.594191
0.687967 0.189218 0.604842
0.781744 0.199869 0.615494
0.832088 0.205588 0.621213
0.146218 0.229343 0.561843
0.239995 0.239995 0.572495
0.333772 0.250647 0.583147
0.427549 0.261299 0.593799
0.521326 0.271951 0.604451
0.615102 0.282603 0.615102
0.708879 0.293254 0.625754
0.802656 0.303906 0.636406
0.853000 0.309625 0.642125
0.167130 0.333380 0.582755
0.260907 0.344032 0.593407
0.354684 0.354684 0.604059
0.448461 0.365336 0.614711
0.542237 0.375988 0.625363
0.636014 0.386639 0.636014
0.729791 0.397291 0.646666
0.823568 0.407943 0.657318
0.873911 0.413662 0.663037
0.188042 0.437417 0.603667
0.281819 0.448069 0.614319
0.375596 0.458721 0.624971
0.469372 0.469372 0.635622
0.563149 0.480024 0.646274
0.656926 0.490676 0.656926
0.750703 0.501328 0.667578
0.844480 0.511980 0.678230
0.894823 0.517698 0.683948
0.208954 0.541454 0.624579
0.302731 0.552106 0.635231
0.396508 0.562757 0.645882
0.490284 0.573409 0.656534
0.584061 0.584061 0.667186
0.677838 0.594713 0.677838
0.771615 0.605365 0.688490
0.865392 0.616017 0.699142
0.915735 0.621735 0.704860
0.229866 0.645491 0.645491
0.323643 0.656142 0.656142
0.417419 0.666794 0.666794
0.511196 0.677446 0.677446
0.604973 0.688098 0.688098
0.698750 0.698750 0.698750
0.792527 0.709402 0.709402
0.886304 0.720054 0.720054
0.936647 0.725772 0.725772
0.250778 0.749528 0.666403
0.344554 0.760179 0.677054
0.438331 0.770831 0.687706
0.532108 0.781483 0.698358
0.625885 0.792135 0.709010
0.719662 0.802787 0.719662
0.813439 0.813439 0.730314
0.907216 0.824091 0.740966
0.957559 0.829809 0.746684
0.271689 0.853564 0.687314
0.365466 0.864216 0.697966
0.459243 0.874868 0.708618
0.553020 0.885520 0.719270
0.646797 0.896172 0.729922
0.740574 0.906824 0.740574
0.834351 0.917476 0.751226
0.928127 0.928127 0.761877
0.978471 0.933846 0.767596
0.282916 0.909416 0.698541
0.376693 0.920068 0.709193
0.470470 0.930719 0.719844
0.564246 0.941371 0.730496
0.658023 0.952023 0.741148
0.751800 0.962675 0.751800
0.845577 0.973327 0.762452
0.939354 0.983979 0.773104
0.989697 0.989697 0.778822
0.129368 0.129368 0.628117
0.223144 0.140019 0.638769
0.316921 0.150671 0.649421
0.410698 0.161323 0.660073
0.504475 0.171975 0.670725
0.598252 0.182627 0.681377
0.692029 0.193279 0.692029
0.785806 0.203931 0.702681
0.836149 0.209649 0.708399
0.150279 0.233404 0.649029
0.244056 0.244056 0.659681
0.337833 0.254708 0.670333
0.431610 0.265360 0.680985
0.525387 0.276012 0.691637
0.619164 0.286664 0.702289
0.712941 0.297316 0.712941
0.806717 0.307968 0.723592
0.857061 0.313686 0.729311
0.171191 0.337441 0.669941
0.264968 0.348093 0.680593
0.358745 0.358745 0.691245
0.452522 0.369397 0.701897
0.546299 0.380049 0.712549
0.640076 0.390701 0.723201
0.733853 0.401353 0.733853
0.827629 0.412004 0.744504
0.877973 0.417723 0.750223
0.192103 0.441478 0.690853
0.285880 0.452130 0.701505
0.379657 0.462782 0.712157
0.473434 0.473434 0.722809
0.567211 0.484086 0.733461
0.660987 0.494737 0.744112
0.754764 0.505389 0.754764
0.848541 0.516041 0.765416
0.898885 0.521760 0.771135
0.213015 0.545515 0.711765
0.306792 0.556167 0.722417
0.400569 0.566819 0.733069
0.494346 0.577471 0.743721
0.588122 0.588122 0.754373
0.681899 0.598774 0.765024
0.775676 0.609426 0.775676
0.869453 0.620078 0.786328
0.919796 0.625796 0.792046
0.233927 0.649552 0.732677
0.327704 0.660204 0.743329
0.421481 0.670856 0.753981
0.515257 0.681507 0.764632
0.609034 0.692159 0.775284
0.702811 0.702811 0.785936
0.796588 0.713463 0.796588
0.890365 0.724115 0.807240
0.940708 0.729833 0.812958
0.254839 0.753589 0.753589
0.348616 0.764241 0.764241
0.442393 0.774892 0.774892
0.536169 0.785544 0.785544
0.629946 0.796196 0.796196
0.723723 0.806848 0.806848
0.817500 0.817500 0.817500
0.911277 0.828152 0.828152
0.961620 0.833870 0.833870
0.275751 0.857626 0.774501
0.369528 0.868277 0.785152
0.463304 0.878929 0.795804
0.557081 0.889581 0.806456
0.650858 0.900233 0.817108
0.744635 0.910885 0.827760
0.838412 0.921537 0.838412
0.932189 0.932189 0.849064
0.982532 0.937907 0.854782
0.286977 0.913477 0.785727
0.380754 0.924129 0.796379
0.474531 0.934781 0.807031
0.568308 0.945433 0.817683
0.662084 0.956085 0.828334
0.755861 0.966736 0.838986
0.849638 0.977388 0.849638
0.943415 0.988040 0.860290
0.993758 0.993758 0.866008
0.133429 0.133429 0.715304
0.227206 0.144081 0.725956
0.320983 0.154733 0.736607
0.414759 0.165384 0.747259
0.508536 0.176036 0.757911
0.602313 0.186688 0.768563
0.696090 0.197340 0.779215
0.789867 0.207992 0.789867
0.840210 0.213710 0.795585
0.154341 0.237466 0.736216
0.248118 0.248118 0.746867
0.341894 0.258769 0.757519
0.435671 0.269421 0.768171
0.529448 0.280073 0.778823
0.623225 0.290725 0.789475
0.717002 0.301377 0.800127
0.810779 0.312029 0.810779
0.861122 0.317747 0.816497
0.175253 0.341503 0.757127
0.269029 0.352154 0.767779
0.362806 0.362806 0.778431
0.456583 0.373458 0.789083
0.550360 0.384110 0.799735
0.644137 0.394762 0.810387
0.737914 0.405414 0.821039
0.831691 0.416066 0.831691
0.882034 0.421784 0.837409
0.196164 0.445539 0.778039
0.289941 0.456191 0.788691
0.383718 0.466843 0.799343
0.477495 0.477495 0.809995
0.571272 0.488147 0.820647
0.665049 0.498799 0.831299
0.758826 0.509451 0.841951
0.852602 0.520103 0.852602
0.902946 0.525821 0.858321
0.217076 0.549576 0.798951
0.310853 0.560228 0.809603
0.404630 0.570880 0.820255
0.498407 0.581532 0.830907
0.592184 0.592184 0.841559
0.685961 0.602836 0.852211
0.779737 0.613487 0.862862
0.873514 0.624139 0.873514
0.923858 0.629858 0.879233
0.237988 0.653613 0.819863
0.331765 0.664265 0.830515
0.425542 0.674917 0.841167
0.519319 0.685569 0.851819
0.613096 0.696221 0.862471
0.706873 0.706873 0.873122
0.800649 0.717524 0.883774
0.894426 0.728176 0.894426
0.944770 0.733895 0.900145
0.258900 0.757650 0.840775
0.352677 0.768302 0.851427
0.446454 0.778954 0.862079
0.540231 0.789606 0.872731
0.634007 0.800257 0.883382
0.727784 0.810909 0.894034
0.821561 0.821561 0.904686
0.915338 0.832213 0.915338
0.965681 0.837932 0.921056
0.279812 0.861687 0.861687
0.373589 0.872339 0.872339
0.467366 0.882991 0.882991
0.561142 0.893642 0.893642
0.654919 0.904294 0.904294
0.748696 0.914946 0.914946
0.842473 0.925598 0.925598
0.936250 0.936250 0.936250
0.986593 0.941968 0.941968
0.291038 0.917538 0.872913
0.384815 0.928190 0.883565
0.478592 0.938842 0.894217
0.572369 0.949494 0.904869
0.666146 0.960146 0.915521
0.759923 0.970798 0.926173
0.853700 0.981449 0.936824
0.947476 0.992101 0.947476
0.997820 0.997820 0.953195
0.135609 0.135609 0.762109
0.229386 0.146261 0.772761
0.323163 0.156913 0.783413
0.416940 0.167565 0.794065
0.510717 0.178217 0.804716
0.604493 0.188868 0.815368
0.698270 0.199520 0.826020
0.792047 0.210172 0.836672
0.842391 0.215891 0.842391
0.156521 0.239646 0.783021
0.250298 0.250298 0.793673
0.344075 0.260950 0.804325
0.437852 0.271602 0.814976
0.531628 0.282253 0.825628
0.625405 0.292905 0.836280
0.719182 0.303557 0.846932
0.812959 0.314209 0.857584
0.863302 0.319927 0.863302
0.177433 0.343683 0.803933
0.271210 0.354335 0.814585
0.364987 0.364987 0.825236
0.458763 0.375638 0.835888
0.552540 0.386290 0.846540
0.646317 0.396942 0.857192
0.740094 0.407594 0.867844
0.833871 0.418246 0.878496
0.884214 0.423964 0.884214
0.198345 0.447720 0.824845
0.292122 0.458371 0.835497
0.385898 0.469023 0.846148
0.479675 0.479675 0.856800
0.573452 0.490327 0.867452
0.667229 0.500979 0.878104
0.761006 0.511631 0.888756
0.854783 0.522283 0.899408
0.905126 0.528001 0.905126
0.219257 0.551756 0.845757
0.313033 0.562408 0.856408
0.406810 0.573060 0.867060
0.500587 0.583712 0.877712
0.594364 0.594364 0.888364
0.688141 0.605016 0.899016
0.781918 0.615668 0.909668
0.875695 0.626320 0.920320
0.926038 0.632038 0.926038
0.240168 0.655793 0.866668
0.333945 0.666445 0.877320
0.427722 0.677097 0.887972
0.521499 0.687749 0.898624
0.615276 0.698401 0.909276
0.709053 0.709053 0.919928
0.802830 0.719705 0.930580
0.896606 0.730356 0.941231
0.946950 0.736075 0.946950
0.261080 0.759830 0.887580
0.354857 0.770482 0.898232
0.448634 0.781134 0.908884
0.542411 0.791786 0.919536
0.636188 0.802438 0.930188
0.729965 0.813090 0.940840
0.823742 0.823742 0.951491
0.917518 0.834393 0.962143
0.967862 0.840112 0.967862
0.281992 0.863867 0.908492
0.375769 0.874519 0.919144
0.469546 0.885171 0.929796
0.563323 0.895823 0.940448
0.657100 0.906475 0.951100
0.750876 0.917126 0.961751
0.844653 0.927778 0.972403
0.938430 0.938430 0.983055
0.988774 0.944149 0.988774
0.293219 0.919718 0.919718
0.386995 0.930370 0.930370
0.480772 0.941022 0.941022
0.574549 0.951674 0.951674
0.668326 0.962326 0.962326
0.762103 0.972978 0.972978
0.855880 0.983630 0.983630
0.949657 0.994282 0.994282
1.000000 1.000000 1.000000
