server/luts/youtube.cube
TITLE "Youtube"
LUT_3D_SIZE 5
0.050000 0.050000 0.050000
0.277396 0.043646 0.043646
0.585050 0.035050 0.035050
0.892704 0.026454 0.026454
1.000000 0.021595 0.021595
0.037526 0.271276 0.037526
0.264923 0.264923 0.031172
0.572576 0.256326 0.022576
0.880230 0.247730 0.013980
1.000000 0.242871 0.009121
0.020650 0.570650 0.020650
0.248046 0.564296 0.014296
0.555700 0.555700 0.005700
0.863354 0.547104 0.000000
1.000000 0.542245 0.000000
0.003774 0.870024 0.003774
0.231170 0.863670 0.000000
0.538824 0.855074 0.000000
0.846477 0.846477 0.000000
1.000000 0.841619 0.000000
0.000000 1.000000 0.000000
0.221631 1.000000 0.000000
0.529285 1.000000 0.000000
0.836939 1.000000 0.000000
1.000000 1.000000 0.000000
0.047578 0.047578 0.281328
0.274974 0.041224 0.274974
0.582628 0.032628 0.266377
0.890281 0.024031 0.257781
1.000000 0.019172 0.252922
0.035104 0.268854 0.268854
0.262500 0.262500 0.262500
0.570154 0.253904 0.253904
0.877808 0.245308 0.245308
1.000000 0.240449 0.240449
0.018227 0.568228 0.251978
0.245624 0.561874 0.245624
0.553278 0.553278 0.237028
0.860931 0.544681 0.228431
1.000000 0.539823 0.223572
0.001351 0.867601 0.235101
0.228747 0.861248 0.228747
0.536401 0.852651 0.220151
0.844055 0.844055 0.211555
1.000000 0.839196 0.206696
0.000000 1.000000 0.225562
0.219209 1.000000 0.219209
0.526863 1.000000 0.210612
0.834516 1.000000 0.202016
1.000000 1.000000 0.197157
0.044300 0.044300 0.594300
0.271696 0.037946 0.587946
0.579350 0.029350 0.579350
0.887004 0.020754 0.570754
1.000000 0.015895 0.565895
0.031826 0.265576 0.581826
0.259223 0.259223 0.575473
0.566876 0.250626 0.566876
0.874530 0.242030 0.558280
1.000000 0.237171 0.553421
0.014950 0.564950 0.564950
0.242346 0.558596 0.558596
0.550000 0.550000 0.550000
0.857654 0.541404 0.541404
1.000000 0.536545 0.536545
0.000000 0.864324 0.548074
0.225470 0.857970 0.541720
0.533124 0.849374 0.533124
0.840778 0.840778 0.524528
1.000000 0.835919 0.519669
0.000000 1.000000 0.538535
0.215931 1.000000 0.532181
0.523585 1.000000 0.523585
0.831239 1.000000 0.514989
1.000000 1.000000 0.510130
0.041022 0.041022 0.907273
0.268419 0.034669 0.900919
0.576072 0.026072 0.892323
0.883726 0.017476 0.883726
1.000000 0.012617 0.878868
0.028549 0.262299 0.894799
0.255945 0.255945 0.888445
0.563599 0.247349 0.879849
0.871252 0.238752 0.871252
1.000000 0.233894 0.866394
0.011672 0.561673 0.877923
0.239069 0.555319 0.871569
0.546723 0.546723 0.862973
0.854376 0.538126 0.854376
1.000000 0.533268 0.849518
0.000000 0.861046 0.861046
0.222192 0.854693 0.854693
0.529846 0.846096 0.846096
0.837500 0.837500 0.837500
1.000000 0.832641 0.832641
0.000000 1.000000 0.851508
0.212654 1.000000 0.845154
0.520308 1.000000 0.836558
0.827961 1.000000 0.827961
1.000000 1.000000 0.823103
0.039170 0.039170 1.000000
0.266566 0.032816 1.000000
0.574220 0.024220 1.000000
0.881874 0.015624 1.000000
1.000000 0.010765 1.000000
0.026696 0.260446 1.000000
0.254092 0.254092 1.000000
0.561746 0.245496 1.000000
0.869400 0.236900 1.000000
1.000000 0.232041 1.000000
0.009820 0.559820 1.000000
0.237216 0.553466 1.000000
0.544870 0.544870 1.000000
0.852524 0.536274 1.000000
1.000000 0.531415 1.000000
0.000000 0.859194 1.000000
0.220340 0.852840 1.000000
0.527994 0.844244 1.000000
0.835647 0.835647 1.000000
1.000000 0.830789 1.000000
0.000000 1.000000 1.000000
0.210801 1.000000 1.000000
0.518455 1.000000 1.000000
0.826109 1.000000 1.000000
1.000000 1.000000 1.000000
