server/luts/youtube.cube
TITLE "Youtube"
LUT_3D_SIZE 9
0.050000 0.050000 0.050000
0.123569 0.047944 0.047944
0.277396 0.043646 0.043646
0.431223 0.039348 0.039348
0.585050 0.035050 0.035050
0.738877 0.030752 0.030752
0.892704 0.026454 0.026454
1.000000 0.022156 0.022156
1.000000 0.021595 0.021595
0.045964 0.121589 0.045964
0.119534 0.119534 0.043909
0.273361 0.115236 0.039611
0.427188 0.110938 0.035312
0.581014 0.106639 0.031014
0.734841 0.102341 0.026716
0.888668 0.098043 0.022418
1.000000 0.093745 0.018120
1.000000 0.093184 0.017559
0.037526 0.271276 0.037526
0.111096 0.269221 0.035471
0.264923 0.264923 0.031172
0.418749 0.260624 0.026874
0.572576 0.256326 0.022576
0.726403 0.252028 0.018278
0.880230 0.247730 0.013980
1.000000 0.243432 0.009682
1.000000 0.242871 0.009121
0.029088 0.420963 0.029088
0.102658 0.418907 0.027032
0.256484 0.414609 0.022734
0.410311 0.410311 0.018436
0.564138 0.406013 0.014138
0.717965 0.401715 0.009840
0.871792 0.397417 0.005542
1.000000 0.393119 0.001244
1.000000 0.392558 0.000683
0.020650 0.570650 0.020650
0.094219 0.568594 0.018594
0.248046 0.564296 0.014296
0.401873 0.559998 0.009998
0.555700 0.555700 0.005700
0.709527 0.551402 0.001402
0.863354 0.547104 0.000000
1.000000 0.542806 0.000000
1.000000 0.542245 0.000000
0.012212 0.720337 0.012212
0.085781 0.718281 0.010156
0.239608 0.713983 0.005858
0.393435 0.709685 0.001560
0.547262 0.705387 0.000000
0.701089 0.701089 0.000000
0.854916 0.696791 0.000000
1.000000 0.692493 0.000000
1.000000 0.691932 0.000000
0.003774 0.870024 0.003774
0.077343 0.867968 0.001718
0.231170 0.863670 0.000000
0.384997 0.859372 0.000000
0.538824 0.855074 0.000000
0.692651 0.850776 0.000000
0.846477 0.846477 0.000000
1.000000 0.842179 0.000000
1.000000 0.841619 0.000000
0.000000 1.000000 0.000000
0.068905 1.000000 0.000000
0.222732 1.000000 0.000000
0.376559 1.000000 0.000000
0.530386 1.000000 0.000000
0.684213 1.000000 0.000000
0.838039 0.996164 0.000000
0.991866 0.991866 0.000000
1.000000 0.991306 0.000000
0.000000 1.000000 0.000000
0.067804 1.000000 0.000000
0.221631 1.000000 0.000000
0.375458 1.000000 0.000000
0.529285 1.000000 0.000000
0.683112 1.000000 0.000000
0.836939 1.000000 0.000000
0.990766 1.000000 0.000000
1.000000 1.000000 0.000000
0.049216 0.049216 0.124841
0.122786 0.047161 0.122786
0.276613 0.042862 0.118488
0.430439 0.038564 0.114189
0.584266 0.034266 0.109891
0.738093 0.029968 0.105593
0.891920 0.025670 0.101295
1.000000 0.021372 0.096997
1.000000 0.020811 0.096436
0.045181 0.120806 0.120806
0.118750 0.118750 0.118750
0.272577 0.114452 0.114452
0.426404 0.110154 0.110154
0.580231 0.105856 0.105856
0.734058 0.101557 0.101557
0.887884 0.097259 0.097259
1.000000 0.092961 0.092961
1.000000 0.092401 0.092401
0.036742 0.270493 0.112368
0.110312 0.268437 0.110312
0.264139 0.264139 0.106014
0.417966 0.259841 0.101716
0.571793 0.255543 0.097418
0.725619 0.251244 0.093119
0.879446 0.246946 0.088821
1.000000 0.242648 0.084523
1.000000 0.242088 0.083962
0.028304 0.420179 0.103929
0.101874 0.418124 0.101874
0.255701 0.413826 0.097576
0.409527 0.409527 0.093278
0.563354 0.405229 0.088979
0.717181 0.400931 0.084681
0.871008 0.396633 0.080383
1.000000 0.392335 0.076085
1.000000 0.391774 0.075524
0.019866 0.569866 0.095491
0.093436 0.567811 0.093436
0.247262 0.563513 0.089137
0.401089 0.559214 0.084839
0.554916 0.554916 0.080541
0.708743 0.550618 0.076243
0.862570 0.546320 0.071945
1.000000 0.542022 0.067647
1.000000 0.541461 0.067086
0.011428 0.719553 0.087053
0.084998 0.717498 0.084998
0.238824 0.713199 0.080699
0.392651 0.708901 0.076401
0.546478 0.704603 0.072103
0.700305 0.700305 0.067805
0.854132 0.696007 0.063507
1.000000 0.691709 0.059209
1.000000 0.691148 0.058648
0.002990 0.869240 0.078615
0.076559 0.867184 0.076559
0.230386 0.862886 0.072261
0.384213 0.858588 0.067963
0.538040 0.854290 0.063665
0.691867 0.849992 0.059367
0.845694 0.845694 0.055069
0.999521 0.841396 0.050771
1.000000 0.840835 0.050210
0.000000 1.000000 0.070177
0.068121 1.000000 0.068121
0.221948 1.000000 0.063823
0.375775 1.000000 0.059525
0.529602 1.000000 0.055227
0.683429 0.999679 0.050929
0.837256 0.995381 0.046631
0.991082 0.991082 0.042332
1.000000 0.990522 0.041772
0.000000 1.000000 0.069076
0.067021 1.000000 0.067021
0.220847 1.000000 0.062723
0.374674 1.000000 0.058424
0.528501 1.000000 0.054126
0.682328 1.000000 0.049828
0.836155 1.000000 0.045530
0.989982 1.000000 0.041232
1.000000 1.000000 0.040671
0.047578 0.047578 0.281328
0.121147 0.045522 0.279272
0.274974 0.041224 0.274974
0.428801 0.036926 0.270676
0.582628 0.032628 0.266377
0.736454 0.028329 0.262079
0.890281 0.024031 0.257781
1.000000 0.019733 0.253483
1.000000 0.019172 0.252922
0.043542 0.119167 0.277292
0.117111 0.117111 0.275236
0.270938 0.112813 0.270938
0.424765 0.108515 0.266640
0.578592 0.104217 0.262342
0.732419 0.099919 0.258044
0.886246 0.095621 0.253746
1.000000 0.091323 0.249448
1.000000 0.090762 0.248887
0.035104 0.268854 0.268854
0.108673 0.266798 0.266798
0.262500 0.262500 0.262500
0.416327 0.258202 0.258202
0.570154 0.253904 0.253904
0.723981 0.249606 0.249606
0.877808 0.245308 0.245308
1.000000 0.241009 0.241009
1.000000 0.240449 0.240449
0.026666 0.418541 0.260416
0.100235 0.416485 0.258360
0.254062 0.412187 0.254062
0.407889 0.407889 0.249764
0.561716 0.403591 0.245466
0.715543 0.399292 0.241168
0.869369 0.394994 0.236869
1.000000 0.390696 0.232571
1.000000 0.390136 0.232011
0.018227 0.568228 0.251978
0.091797 0.566172 0.249922
0.245624 0.561874 0.245624
0.399451 0.557576 0.241326
0.553278 0.553278 0.237028
0.707104 0.548979 0.232729
0.860931 0.544681 0.228431
1.000000 0.540383 0.224133
1.000000 0.539823 0.223572
0.009789 0.717914 0.243539
0.083359 0.715859 0.241484
0.237186 0.711561 0.237186
0.391012 0.707263 0.232887
0.544839 0.702964 0.228589
0.698666 0.698666 0.224291
0.852493 0.694368 0.219993
1.000000 0.690070 0.215695
1.000000 0.689509 0.215134
0.001351 0.867601 0.235101
0.074921 0.865546 0.233046
0.228747 0.861248 0.228747
0.382574 0.856949 0.224449
0.536401 0.852651 0.220151
0.690228 0.848353 0.215853
0.844055 0.844055 0.211555
0.997882 0.839757 0.207257
1.000000 0.839196 0.206696
0.000000 1.000000 0.226663
0.066482 1.000000 0.224607
0.220309 1.000000 0.220309
0.374136 1.000000 0.216011
0.527963 1.000000 0.211713
0.681790 0.998040 0.207415
0.835617 0.993742 0.203117
0.989444 0.989444 0.198819
1.000000 0.988883 0.198258
0.000000 1.000000 0.225562
0.065382 1.000000 0.223507
0.219209 1.000000 0.219209
0.373036 1.000000 0.214911
0.526863 1.000000 0.210612
0.680689 1.000000 0.206314
0.834516 1.000000 0.202016
0.988343 1.000000 0.197718
1.000000 1.000000 0.197157
0.045939 0.045939 0.437814
0.119508 0.043883 0.435758
0.273335 0.039585 0.431460
0.427162 0.035287 0.427162
0.580989 0.030989 0.422864
0.734816 0.026691 0.418566
0.888643 0.022392 0.414268
1.000000 0.018094 0.409969
1.000000 0.017534 0.409409
0.041903 0.117528 0.433778
0.115473 0.115473 0.431723
0.269299 0.111174 0.427424
0.423126 0.106876 0.423126
0.576953 0.102578 0.418828
0.730780 0.098280 0.414530
0.884607 0.093982 0.410232
1.000000 0.089684 0.405934
1.000000 0.089123 0.405373
0.033465 0.267215 0.425340
0.107034 0.265159 0.423284
0.260861 0.260861 0.418986
0.414688 0.256563 0.414688
0.568515 0.252265 0.410390
0.722342 0.247967 0.406092
0.876169 0.243669 0.401794
1.000000 0.239371 0.397496
1.000000 0.238810 0.396935
0.025027 0.416902 0.416902
0.098596 0.414846 0.414846
0.252423 0.410548 0.410548
0.406250 0.406250 0.406250
0.560077 0.401952 0.401952
0.713904 0.397654 0.397654
0.867731 0.393356 0.393356
1.000000 0.389058 0.389058
1.000000 0.388497 0.388497
0.016589 0.566589 0.408464
0.090158 0.564533 0.406408
0.243985 0.560235 0.402110
0.397812 0.555937 0.397812
0.551639 0.551639 0.393514
0.705466 0.547341 0.389216
0.859293 0.543043 0.384918
1.000000 0.538744 0.380619
1.000000 0.538184 0.380059
0.008151 0.716276 0.400026
0.081720 0.714220 0.397970
0.235547 0.709922 0.393672
0.389374 0.705624 0.389374
0.543201 0.701326 0.385076
0.697028 0.697028 0.380777
0.850854 0.692729 0.376479
1.000000 0.688431 0.372181
1.000000 0.687871 0.371621
0.000000 0.865962 0.391587
0.073282 0.863907 0.389532
0.227109 0.859609 0.385234
0.380936 0.855311 0.380936
0.534763 0.851013 0.376637
0.688589 0.846714 0.372339
0.842416 0.842416 0.368041
0.996243 0.838118 0.363743
1.000000 0.837558 0.363182
0.000000 1.000000 0.383149
0.064844 1.000000 0.381094
0.218671 1.000000 0.376796
0.372497 1.000000 0.372497
0.526324 1.000000 0.368199
0.680151 0.996401 0.363901
0.833978 0.992103 0.359603
0.987805 0.987805 0.355305
1.000000 0.987244 0.354744
0.000000 1.000000 0.382049
0.063743 1.000000 0.379993
0.217570 1.000000 0.375695
0.371397 1.000000 0.371397
0.525224 1.000000 0.367099
0.679051 1.000000 0.362801
0.832878 1.000000 0.358502
0.986704 1.000000 0.354204
1.000000 1.000000 0.353644
0.044300 0.044300 0.594300
0.117869 0.042244 0.592244
0.271696 0.037946 0.587946
0.425523 0.033648 0.583648
0.579350 0.029350 0.579350
0.733177 0.025052 0.575052
0.887004 0.020754 0.570754
1.000000 0.016456 0.566456
1.000000 0.015895 0.565895
0.040264 0.115889 0.590264
0.113834 0.113834 0.588209
0.267661 0.109536 0.583911
0.421488 0.105238 0.579613
0.575314 0.100939 0.575314
0.729141 0.096641 0.571016
0.882968 0.092343 0.566718
1.000000 0.088045 0.562420
1.000000 0.087484 0.561859
0.031826 0.265576 0.581826
0.105396 0.263521 0.579771
0.259223 0.259223 0.575473
0.413049 0.254924 0.571174
0.566876 0.250626 0.566876
0.720703 0.246328 0.562578
0.874530 0.242030 0.558280
1.000000 0.237732 0.553982
1.000000 0.237171 0.553421
0.023388 0.415263 0.573388
0.096958 0.413208 0.571333
0.250784 0.408909 0.567034
0.404611 0.404611 0.562736
0.558438 0.400313 0.558438
0.712265 0.396015 0.554140
0.866092 0.391717 0.549842
1.000000 0.387419 0.545544
1.000000 0.386858 0.544983
0.014950 0.564950 0.564950
0.088519 0.562894 0.562894
0.242346 0.558596 0.558596
0.396173 0.554298 0.554298
0.550000 0.550000 0.550000
0.703827 0.545702 0.545702
0.857654 0.541404 0.541404
1.000000 0.537106 0.537106
1.000000 0.536545 0.536545
0.006512 0.714637 0.556512
0.080081 0.712581 0.554456
0.233908 0.708283 0.550158
0.387735 0.703985 0.545860
0.541562 0.699687 0.541562
0.695389 0.695389 0.537264
0.849216 0.691091 0.532966
1.000000 0.686793 0.528668
1.000000 0.686232 0.528107
0.000000 0.864324 0.548074
0.071643 0.862268 0.546018
0.225470 0.857970 0.541720
0.379297 0.853672 0.537422
0.533124 0.849374 0.533124
0.686951 0.845076 0.528826
0.840778 0.840778 0.524528
0.994604 0.836479 0.520229
1.000000 0.835919 0.519669
0.000000 1.000000 0.539636
0.063205 1.000000 0.537580
0.217032 1.000000 0.533282
0.370859 1.000000 0.528984
0.524686 0.999061 0.524686
0.678513 0.994762 0.520388
0.832339 0.990464 0.516089
0.986166 0.986166 0.511791
1.000000 0.985606 0.511231
0.000000 1.000000 0.538535
0.062104 1.000000 0.536479
0.215931 1.000000 0.532181
0.369758 1.000000 0.527883
0.523585 1.000000 0.523585
0.677412 1.000000 0.519287
0.831239 1.000000 0.514989
0.985066 1.000000 0.510691
1.000000 1.000000 0.510130
0.042661 0.042661 0.750786
0.116231 0.040606 0.748731
0.270058 0.036307 0.744433
0.423884 0.032009 0.740134
0.577711 0.027711 0.735836
0.731538 0.023413 0.731538
0.885365 0.019115 0.727240
1.000000 0.014817 0.722942
1.000000 0.014256 0.722381
0.038626 0.114251 0.746751
0.112195 0.112195 0.744695
0.266022 0.107897 0.740397
0.419849 0.103599 0.736099
0.573676 0.099301 0.731801
0.727503 0.095002 0.727503
0.881329 0.090704 0.723204
1.000000 0.086406 0.718906
1.000000 0.085846 0.718346
0.030187 0.263937 0.738313
0.103757 0.261882 0.736257
0.257584 0.257584 0.731959
0.411411 0.253286 0.727661
0.565238 0.248988 0.723363
0.719064 0.244689 0.719064
0.872891 0.240391 0.714766
1.000000 0.236093 0.710468
1.000000 0.235532 0.709908
0.021749 0.413624 0.729874
0.095319 0.411569 0.727819
0.249146 0.407271 0.723521
0.402973 0.402973 0.719223
0.556799 0.398674 0.714924
0.710626 0.394376 0.710626
0.864453 0.390078 0.706328
1.000000 0.385780 0.702030
1.000000 0.385219 0.701469
0.013311 0.563311 0.721436
0.086881 0.561256 0.719381
0.240707 0.556957 0.715083
0.394534 0.552659 0.710784
0.548361 0.548361 0.706486
0.702188 0.544063 0.702188
0.856015 0.539765 0.697890
1.000000 0.535467 0.693592
1.000000 0.534906 0.693031
0.004873 0.712998 0.712998
0.078442 0.710943 0.710943
0.232269 0.706644 0.706644
0.386096 0.702346 0.702346
0.539923 0.698048 0.698048
0.693750 0.693750 0.693750
0.847577 0.689452 0.689452
1.000000 0.685154 0.685154
1.000000 0.684593 0.684593
0.000000 0.862685 0.704560
0.070004 0.860629 0.702504
0.223831 0.856331 0.698206
0.377658 0.852033 0.693908
0.531485 0.847735 0.689610
0.685312 0.843437 0.685312
0.839139 0.839139 0.681014
0.992966 0.834841 0.676716
1.000000 0.834280 0.676155
0.000000 1.000000 0.696122
0.061566 1.000000 0.694066
0.215393 1.000000 0.689768
0.369220 1.000000 0.685470
0.523047 0.997422 0.681172
0.676874 0.993124 0.676874
0.830701 0.988826 0.672576
0.984527 0.984527 0.668278
1.000000 0.983967 0.667717
0.000000 1.000000 0.695021
0.060466 1.000000 0.692966
0.214292 1.000000 0.688668
0.368119 1.000000 0.684369
0.521946 1.000000 0.680071
0.675773 1.000000 0.675773
0.829600 1.000000 0.671475
0.983427 1.000000 0.667177
1.000000 1.000000 0.666616
0.041022 0.041022 0.907273
0.114592 0.038967 0.905217
0.268419 0.034669 0.900919
0.422246 0.030371 0.896621
0.576072 0.026072 0.892323
0.729899 0.021774 0.888024
0.883726 0.017476 0.883726
1.000000 0.013178 0.879428
1.000000 0.012617 0.878868
0.036987 0.112612 0.903237
0.110556 0.110556 0.901181
0.264383 0.106258 0.896883
0.418210 0.101960 0.892585
0.572037 0.097662 0.888287
0.725864 0.093364 0.883989
0.879691 0.089066 0.879691
1.000000 0.084767 0.875393
1.000000 0.084207 0.874832
0.028549 0.262299 0.894799
0.102118 0.260243 0.892743
0.255945 0.255945 0.888445
0.409772 0.251647 0.884147
0.563599 0.247349 0.879849
0.717426 0.243051 0.875551
0.871252 0.238752 0.871252
1.000000 0.234454 0.866954
1.000000 0.233894 0.866394
0.020111 0.411986 0.886361
0.093680 0.409930 0.884305
0.247507 0.405632 0.880007
0.401334 0.401334 0.875709
0.555161 0.397036 0.871411
0.708988 0.392737 0.867113
0.862814 0.388439 0.862814
1.000000 0.384141 0.858516
1.000000 0.383581 0.857956
0.011672 0.561673 0.877923
0.085242 0.559617 0.875867
0.239069 0.555319 0.871569
0.392896 0.551021 0.867271
0.546723 0.546723 0.862973
0.700549 0.542424 0.858674
0.854376 0.538126 0.854376
1.000000 0.533828 0.850078
1.000000 0.533268 0.849518
0.003234 0.711359 0.869484
0.076804 0.709304 0.867429
0.230631 0.705006 0.863131
0.384458 0.700708 0.858832
0.538284 0.696409 0.854534
0.692111 0.692111 0.850236
0.845938 0.687813 0.845938
0.999765 0.683515 0.841640
1.000000 0.682954 0.841079
0.000000 0.861046 0.861046
0.068366 0.858991 0.858991
0.222192 0.854693 0.854693
0.376019 0.850394 0.850394
0.529846 0.846096 0.846096
0.683673 0.841798 0.841798
0.837500 0.837500 0.837500
0.991327 0.833202 0.833202
1.000000 0.832641 0.832641
0.000000 1.000000 0.852608
0.059928 1.000000 0.850553
0.213754 1.000000 0.846254
0.367581 1.000000 0.841956
0.521408 0.995783 0.837658
0.675235 0.991485 0.833360
0.829062 0.987187 0.829062
0.982889 0.982889 0.824764
1.000000 0.982328 0.824203
0.000000 1.000000 0.851508
0.058827 1.000000 0.849452
0.212654 1.000000 0.845154
0.366481 1.000000 0.840856
0.520308 1.000000 0.836558
0.674134 1.000000 0.832259
0.827961 1.000000 0.827961
0.981788 1.000000 0.823663
1.000000 1.000000 0.823103
0.039384 0.039384 1.000000
0.112953 0.037328 1.000000
0.266780 0.033030 1.000000
0.420607 0.028732 1.000000
0.574434 0.024434 1.000000
0.728261 0.020136 1.000000
0.882088 0.015837 1.000000
1.000000 0.011539 1.000000
1.000000 0.010979 1.000000
0.035348 0.110973 1.000000
0.108918 0.108918 1.000000
0.262744 0.104619 1.000000
0.416571 0.100321 1.000000
0.570398 0.096023 1.000000
0.724225 0.091725 1.000000
0.878052 0.087427 1.000000
1.000000 0.083129 1.000000
1.000000 0.082568 1.000000
0.026910 0.260660 1.000000
0.100479 0.258604 1.000000
0.254306 0.254306 1.000000
0.408133 0.250008 1.000000
0.561960 0.245710 1.000000
0.715787 0.241412 1.000000
0.869614 0.237114 1.000000
1.000000 0.232816 1.000000
1.000000 0.232255 1.000000
0.018472 0.410347 1.000000
0.092041 0.408291 1.000000
0.245868 0.403993 1.000000
0.399695 0.399695 1.000000
0.553522 0.395397 1.000000
0.707349 0.391099 1.000000
0.861176 0.386801 1.000000
1.000000 0.382502 1.000000
1.000000 0.381942 1.000000
0.010034 0.560034 1.000000
0.083603 0.557978 1.000000
0.237430 0.553680 1.000000
0.391257 0.549382 1.000000
0.545084 0.545084 1.000000
0.698911 0.540786 1.000000
0.852738 0.536488 1.000000
1.000000 0.532189 1.000000
1.000000 0.531629 1.000000
0.001596 0.709721 1.000000
0.075165 0.707665 1.000000
0.228992 0.703367 1.000000
0.382819 0.699069 1.000000
0.536646 0.694771 1.000000
0.690473 0.690473 1.000000
0.844299 0.686174 1.000000
0.998126 0.681876 0.998126
1.000000 0.681316 0.997566
0.000000 0.859408 1.000000
0.066727 0.857352 1.000000
0.220554 0.853054 1.000000
0.374381 0.848756 1.000000
0.528208 0.844458 1.000000
0.682034 0.840159 0.998284
0.835861 0.835861 0.993986
0.989688 0.831563 0.989688
1.000000 0.831003 0.989127
0.000000 1.000000 1.000000
0.058289 1.000000 1.000000
0.212116 1.000000 1.000000
0.365942 0.998443 0.998443
0.519769 0.994144 0.994144
0.673596 0.989846 0.989846
0.827423 0.985548 0.985548
0.981250 0.981250 0.981250
1.000000 0.980689 0.980689
0.000000 1.000000 1.000000
0.057188 1.000000 1.000000
0.211015 1.000000 1.000000
0.364842 1.000000 0.997342
0.518669 1.000000 0.993044
0.672496 1.000000 0.988746
0.826323 1.000000 0.984447
0.980149 1.000000 0.980149
1.000000 1.000000 0.979589
0.039170 0.039170 1.000000
0.112739 0.037114 1.000000
0.266566 0.032816 1.000000
0.420393 0.028518 1.000000
0.574220 0.024220 1.000000
0.728047 0.019922 1.000000
0.881874 0.015624 1.000000
1.000000 0.011326 1.000000
1.000000 0.010765 1.000000
0.035134 0.110759 1.000000
0.108704 0.108704 1.000000
0.262531 0.104406 1.000000
0.416357 0.100108 1.000000
0.570184 0.095809 1.000000
0.724011 0.091511 1.000000
0.877838 0.087213 1.000000
1.000000 0.082915 1.000000
1.000000 0.082354 1.000000
0.026696 0.260446 1.000000
0.100266 0.258391 1.000000
0.254092 0.254092 1.000000
0.407919 0.249794 1.000000
0.561746 0.245496 1.000000
0.715573 0.241198 1.000000
0.869400 0.236900 1.000000
1.000000 0.232602 1.000000
1.000000 0.232041 1.000000
0.018258 0.410133 1.000000
0.091828 0.408077 1.000000
0.245654 0.403779 1.000000
0.399481 0.399481 1.000000
0.553308 0.395183 1.000000
0.707135 0.390885 1.000000
0.860962 0.386587 1.000000
1.000000 0.382289 1.000000
1.000000 0.381728 1.000000
0.009820 0.559820 1.000000
0.083389 0.557764 1.000000
0.237216 0.553466 1.000000
0.391043 0.549168 1.000000
0.544870 0.544870 1.000000
0.698697 0.540572 1.000000
0.852524 0.536274 1.000000
1.000000 0.531976 1.000000
1.000000 0.531415 1.000000
0.001382 0.709507 1.000000
0.074951 0.707451 1.000000
0.228778 0.703153 1.000000
0.382605 0.698855 1.000000
0.536432 0.694557 1.000000
0.690259 0.690259 1.000000
0.844086 0.685961 1.000000
0.997912 0.681663 1.000000
1.000000 0.681102 1.000000
0.000000 0.859194 1.000000
0.066513 0.857138 1.000000
0.220340 0.852840 1.000000
0.374167 0.848542 1.000000
0.527994 0.844244 1.000000
0.681821 0.839946 1.000000
0.835647 0.835647 1.000000
0.989474 0.831349 1.000000
1.000000 0.830789 1.000000
0.000000 1.000000 1.000000
0.058075 1.000000 1.000000
0.211902 1.000000 1.000000
0.365729 0.998229 1.000000
0.519556 0.993931 1.000000
0.673383 0.989632 1.000000
0.827209 0.985334 1.000000
0.981036 0.981036 1.000000
1.000000 0.980476 1.000000
0.000000 1.000000 1.000000
0.056974 1.000000 1.000000
0.210801 1.000000 1.000000
0.364628 1.000000 1.000000
0.518455 1.000000 1.000000
0.672282 1.000000 1.000000
0.826109 1.000000 1.000000
0.979936 1.000000 1.000000
1.000000 1.000000 1.000000
