server/luts/youtube.cube
TITLE "Youtube"
LUT_3D_SIZE 17
0.050000 0.050000 0.050000
0.050000 0.050000 0.050000
0.123569 0.047944 0.047944
0.200483 0.045795 0.045795
0.277396 0.043646 0.043646
0.354310 0.041497 0.041497
0.431223 0.039348 0.039348
0.508137 0.037199 0.037199
0.585050 0.035050 0.035050
0.661963 0.032901 0.032901
0.738877 0.030752 0.030752
0.815790 0.028603 0.028603
0.892704 0.026454 0.026454
0.969617 0.024305 0.024305
1.000000 0.022156 0.022156
1.000000 0.021595 0.021595
1.000000 0.021595 0.021595
0.050000 0.050000 0.050000
0.050000 0.050000 0.050000
0.123569 0.047944 0.047944
0.200483 0.045795 0.045795
0.277396 0.043646 0.043646
0.354310 0.041497 0.041497
0.431223 0.039348 0.039348
0.508137 0.037199 0.037199
0.585050 0.035050 0.035050
0.661963 0.032901 0.032901
0.738877 0.030752 0.030752
0.815790 0.028603 0.028603
0.892704 0.026454 0.026454
0.969617 0.024305 0.024305
1.000000 0.022156 0.022156
1.000000 0.021595 0.021595
1.000000 0.021595 0.021595
0.045964 0.121589 0.045964
0.045964 0.121589 0.045964
0.119534 0.119534 0.043909
0.196447 0.117385 0.041760
0.273361 0.115236 0.039611
0.350274 0.113087 0.037462
0.427188 0.110938 0.035312
0.504101 0.108788 0.033163
0.581014 0.106639 0.031014
0.657928 0.104490 0.028865
0.734841 0.102341 0.026716
0.811755 0.100192 0.024567
0.888668 0.098043 0.022418
0.965582 0.095894 0.020269
1.000000 0.093745 0.018120
1.000000 0.093184 0.017559
1.000000 0.093184 0.017559
0.041745 0.196433 0.041745
0.041745 0.196433 0.041745
0.115315 0.194377 0.039690
0.192228 0.192228 0.037541
0.269142 0.190079 0.035392
0.346055 0.187930 0.033243
0.422968 0.185781 0.031093
0.499882 0.183632 0.028944
0.576795 0.181483 0.026795
0.653709 0.179334 0.024646
0.730622 0.177185 0.022497
0.807536 0.175036 0.020348
0.884449 0.172887 0.018199
0.961363 0.170737 0.016050
1.000000 0.168588 0.013901
1.000000 0.168028 0.013340
1.000000 0.168028 0.013340
0.037526 0.271276 0.037526
0.037526 0.271276 0.037526
0.111096 0.269221 0.035471
0.188009 0.267072 0.033322
0.264923 0.264923 0.031172
0.341836 0.262773 0.029023
0.418749 0.260624 0.026874
0.495663 0.258475 0.024725
0.572576 0.256326 0.022576
0.649490 0.254177 0.020427
0.726403 0.252028 0.018278
0.803317 0.249879 0.016129
0.880230 0.247730 0.013980
0.957143 0.245581 0.011831
1.000000 0.243432 0.009682
1.000000 0.242871 0.009121
1.000000 0.242871 0.009121
0.033307 0.346120 0.033307
0.033307 0.346120 0.033307
0.106877 0.344064 0.031252
0.183790 0.341915 0.029102
0.260703 0.339766 0.026953
0.337617 0.337617 0.024804
0.414530 0.335468 0.022655
0.491444 0.333319 0.020506
0.568357 0.331170 0.018357
0.645271 0.329021 0.016208
0.722184 0.326872 0.014059
0.799098 0.324723 0.011910
0.876011 0.322573 0.009761
0.952924 0.320424 0.007612
1.000000 0.318275 0.005463
1.000000 0.317715 0.004902
1.000000 0.317715 0.004902
0.029088 0.420963 0.029088
0.029088 0.420963 0.029088
0.102658 0.418907 0.027032
0.179571 0.416758 0.024883
0.256484 0.414609 0.022734
0.333398 0.412460 0.020585
0.410311 0.410311 0.018436
0.487225 0.408162 0.016287
0.564138 0.406013 0.014138
0.641052 0.403864 0.011989
0.717965 0.401715 0.009840
0.794878 0.399566 0.007691
0.871792 0.397417 0.005542
0.948705 0.395268 0.003393
1.000000 0.393119 0.001244
1.000000 0.392558 0.000683
1.000000 0.392558 0.000683
0.024869 0.495807 0.024869
0.024869 0.495807 0.024869
0.098438 0.493751 0.022813
0.175352 0.491602 0.020664
0.252265 0.489453 0.018515
0.329179 0.487304 0.016366
0.406092 0.485155 0.014217
0.483006 0.483006 0.012068
0.559919 0.480857 0.009919
0.636833 0.478707 0.007770
0.713746 0.476558 0.005621
0.790659 0.474409 0.003472
0.867573 0.472260 0.001323
0.944486 0.470111 0.000000
1.000000 0.467962 0.000000
1.000000 0.467402 0.000000
1.000000 0.467402 0.000000
0.020650 0.570650 0.020650
0.020650 0.570650 0.020650
0.094219 0.568594 0.018594
0.171133 0.566445 0.016445
0.248046 0.564296 0.014296
0.324960 0.562147 0.012147
0.401873 0.559998 0.009998
0.478787 0.557849 0.007849
0.555700 0.555700 0.005700
0.632613 0.553551 0.003551
0.709527 0.551402 0.001402
0.786440 0.549253 0.000000
0.863354 0.547104 0.000000
0.940267 0.544955 0.000000
1.000000 0.542806 0.000000
1.000000 0.542245 0.000000
1.000000 0.542245 0.000000
0.016431 0.645493 0.016431
0.016431 0.645493 0.016431
0.090000 0.643438 0.014375
0.166914 0.641289 0.012226
0.243827 0.639140 0.010077
0.320741 0.636991 0.007928
0.397654 0.634842 0.005779
0.474567 0.632693 0.003630
0.551481 0.630543 0.001481
0.628394 0.628394 0.000000
0.705308 0.626245 0.000000
0.782221 0.624096 0.000000
0.859135 0.621947 0.000000
0.936048 0.619798 0.000000
1.000000 0.617649 0.000000
1.000000 0.617088 0.000000
1.000000 0.617088 0.000000
0.012212 0.720337 0.012212
0.012212 0.720337 0.012212
0.085781 0.718281 0.010156
0.162695 0.716132 0.008007
0.239608 0.713983 0.005858
0.316522 0.711834 0.003709
0.393435 0.709685 0.001560
0.470348 0.707536 0.000000
0.547262 0.705387 0.000000
0.624175 0.703238 0.000000
0.701089 0.701089 0.000000
0.778002 0.698940 0.000000
0.854916 0.696791 0.000000
0.931829 0.694642 0.000000
1.000000 0.692493 0.000000
1.000000 0.691932 0.000000
1.000000 0.691932 0.000000
0.007993 0.795180 0.007993
0.007993 0.795180 0.007993
0.081562 0.793125 0.005937
0.158476 0.790976 0.003788
0.235389 0.788827 0.001639
0.312303 0.786678 0.000000
0.389216 0.784528 0.000000
0.466129 0.782379 0.000000
0.543043 0.780230 0.000000
0.619956 0.778081 0.000000
0.696870 0.775932 0.000000
0.773783 0.773783 0.000000
0.850697 0.771634 0.000000
0.927610 0.769485 0.000000
1.000000 0.767336 0.000000
1.000000 0.766775 0.000000
1.000000 0.766775 0.000000
0.003774 0.870024 0.003774
0.003774 0.870024 0.003774
0.077343 0.867968 0.001718
0.154257 0.865819 0.000000
0.231170 0.863670 0.000000
0.308083 0.861521 0.000000
0.384997 0.859372 0.000000
0.461910 0.857223 0.000000
0.538824 0.855074 0.000000
0.615737 0.852925 0.000000
0.692651 0.850776 0.000000
0.769564 0.848627 0.000000
0.846477 0.846477 0.000000
0.923391 0.844328 0.000000
1.000000 0.842179 0.000000
1.000000 0.841619 0.000000
1.000000 0.841619 0.000000
0.000000 0.944867 0.000000
0.000000 0.944867 0.000000
0.073124 0.942812 0.000000
0.150037 0.940663 0.000000
0.226951 0.938513 0.000000
0.303864 0.936364 0.000000
0.380778 0.934215 0.000000
0.457691 0.932066 0.000000
0.534605 0.929917 0.000000
0.611518 0.927768 0.000000
0.688432 0.925619 0.000000
0.765345 0.923470 0.000000
0.842258 0.921321 0.000000
0.919172 0.919172 0.000000
0.996085 0.917023 0.000000
1.000000 0.916462 0.000000
1.000000 0.916462 0.000000
0.000000 1.000000 0.000000
0.000000 1.000000 0.000000
0.068905 1.000000 0.000000
0.145818 1.000000 0.000000
0.222732 1.000000 0.000000
0.299645 1.000000 0.000000
0.376559 1.000000 0.000000
0.453472 1.000000 0.000000
0.530386 1.000000 0.000000
0.607299 1.000000 0.000000
0.684213 1.000000 0.000000
0.761126 0.998313 0.000000
0.838039 0.996164 0.000000
0.914953 0.994015 0.000000
0.991866 0.991866 0.000000
1.000000 0.991306 0.000000
1.000000 0.991306 0.000000
0.000000 1.000000 0.000000
0.000000 1.000000 0.000000
0.067804 1.000000 0.000000
0.144718 1.000000 0.000000
0.221631 1.000000 0.000000
0.298545 1.000000 0.000000
0.375458 1.000000 0.000000
0.452372 1.000000 0.000000
0.529285 1.000000 0.000000
0.606198 1.000000 0.000000
0.683112 1.000000 0.000000
0.760025 1.000000 0.000000
0.836939 1.000000 0.000000
0.913852 1.000000 0.000000
0.990766 1.000000 0.000000
1.000000 1.000000 0.000000
1.000000 1.000000 0.000000
0.000000 1.000000 0.000000
0.000000 1.000000 0.000000
0.067804 1.000000 0.000000
0.144718 1.000000 0.000000
0.221631 1.000000 0.000000
0.298545 1.000000 0.000000
0.375458 1.000000 0.000000
0.452372 1.000000 0.000000
0.529285 1.000000 0.000000
0.606198 1.000000 0.000000
0.683112 1.000000 0.000000
0.760025 1.000000 0.000000
0.836939 1.000000 0.000000
0.913852 1.000000 0.000000
0.990766 1.000000 0.000000
1.000000 1.000000 0.000000
1.000000 1.000000 0.000000
0.050000 0.050000 0.050000
0.050000 0.050000 0.050000
0.123569 0.047944 0.047944
0.200483 0.045795 0.045795
0.277396 0.043646 0.043646
0.354310 0.041497 0.041497
0.431223 0.039348 0.039348
0.508137 0.037199 0.037199
0.585050 0.035050 0.035050
0.661963 0.032901 0.032901
0.738877 0.030752 0.030752
0.815790 0.028603 0.028603
0.892704 0.026454 0.026454
0.969617 0.024305 0.024305
1.000000 0.022156 0.022156
1.000000 0.021595 0.021595
1.000000 0.021595 0.021595
0.050000 0.050000 0.050000
0.050000 0.050000 0.050000
0.123569 0.047944 0.047944
0.200483 0.045795 0.045795
0.277396 0.043646 0.043646
0.354310 0.041497 0.041497
0.431223 0.039348 0.039348
0.508137 0.037199 0.037199
0.585050 0.035050 0.035050
0.661963 0.032901 0.032901
0.738877 0.030752 0.030752
0.815790 0.028603 0.028603
0.892704 0.026454 0.026454
0.969617 0.024305 0.024305
1.000000 0.022156 0.022156
1.000000 0.021595 0.021595
1.000000 0.021595 0.021595
0.045964 0.121589 0.045964
0.045964 0.121589 0.045964
0.119534 0.119534 0.043909
0.196447 0.117385 0.041760
0.273361 0.115236 0.039611
0.350274 0.113087 0.037462
0.427188 0.110938 0.035312
0.504101 0.108788 0.033163
0.581014 0.106639 0.031014
0.657928 0.104490 0.028865
0.734841 0.102341 0.026716
0.811755 0.100192 0.024567
0.888668 0.098043 0.022418
0.965582 0.095894 0.020269
1.000000 0.093745 0.018120
1.000000 0.093184 0.017559
1.000000 0.093184 0.017559
0.041745 0.196433 0.041745
0.041745 0.196433 0.041745
0.115315 0.194377 0.039690
0.192228 0.192228 0.037541
0.269142 0.190079 0.035392
0.346055 0.187930 0.033243
0.422968 0.185781 0.031093
0.499882 0.183632 0.028944
0.576795 0.181483 0.026795
0.653709 0.179334 0.024646
0.730622 0.177185 0.022497
0.807536 0.175036 0.020348
0.884449 0.172887 0.018199
0.961363 0.170737 0.016050
1.000000 0.168588 0.013901
1.000000 0.168028 0.013340
1.000000 0.168028 0.013340
0.037526 0.271276 0.037526
0.037526 0.271276 0.037526
0.111096 0.269221 0.035471
0.188009 0.267072 0.033322
0.264923 0.264923 0.031172
0.341836 0.262773 0.029023
0.418749 0.260624 0.026874
0.495663 0.258475 0.024725
0.572576 0.256326 0.022576
0.649490 0.254177 0.020427
0.726403 0.252028 0.018278
0.803317 0.249879 0.016129
0.880230 0.247730 0.013980
0.957143 0.245581 0.011831
1.000000 0.243432 0.009682
1.000000 0.242871 0.009121
1.000000 0.242871 0.009121
0.033307 0.346120 0.033307
0.033307 0.346120 0.033307
0.106877 0.344064 0.031252
0.183790 0.341915 0.029102
0.260703 0.339766 0.026953
0.337617 0.337617 0.024804
0.414530 0.335468 0.022655
0.491444 0.333319 0.020506
0.568357 0.331170 0.018357
0.645271 0.329021 0.016208
0.722184 0.326872 0.014059
0.799098 0.324723 0.011910
0.876011 0.322573 0.009761
0.952924 0.320424 0.007612
1.000000 0.318275 0.005463
1.000000 0.317715 0.004902
1.000000 0.317715 0.004902
0.029088 0.420963 0.029088
0.029088 0.420963 0.029088
0.102658 0.418907 0.027032
0.179571 0.416758 0.024883
0.256484 0.414609 0.022734
0.333398 0.412460 0.020585
0.410311 0.410311 0.018436
0.487225 0.408162 0.016287
0.564138 0.406013 0.014138
0.641052 0.403864 0.011989
0.717965 0.401715 0.009840
0.794878 0.399566 0.007691
0.871792 0.397417 0.005542
0.948705 0.395268 0.003393
1.000000 0.393119 0.001244
1.000000 0.392558 0.000683
1.000000 0.392558 0.000683
0.024869 0.495807 0.024869
0.024869 0.495807 0.024869
0.098438 0.493751 0.022813
0.175352 0.491602 0.020664
0.252265 0.489453 0.018515
0.329179 0.487304 0.016366
0.406092 0.485155 0.014217
0.483006 0.483006 0.012068
0.559919 0.480857 0.009919
0.636833 0.478707 0.007770
0.713746 0.476558 0.005621
0.790659 0.474409 0.003472
0.867573 0.472260 0.001323
0.944486 0.470111 0.000000
1.000000 0.467962 0.000000
1.000000 0.467402 0.000000
1.000000 0.467402 0.000000
0.020650 0.570650 0.020650
0.020650 0.570650 0.020650
0.094219 0.568594 0.018594
0.171133 0.566445 0.016445
0.248046 0.564296 0.014296
0.324960 0.562147 0.012147
0.401873 0.559998 0.009998
0.478787 0.557849 0.007849
0.555700 0.555700 0.005700
0.632613 0.553551 0.003551
0.709527 0.551402 0.001402
0.786440 0.549253 0.000000
0.863354 0.547104 0.000000
0.940267 0.544955 0.000000
1.000000 0.542806 0.000000
1.000000 0.542245 0.000000
1.000000 0.542245 0.000000
0.016431 0.645493 0.016431
0.016431 0.645493 0.016431
0.090000 0.643438 0.014375
0.166914 0.641289 0.012226
0.243827 0.639140 0.010077
0.320741 0.636991 0.007928
0.397654 0.634842 0.005779
0.474567 0.632693 0.003630
0.551481 0.630543 0.001481
0.628394 0.628394 0.000000
0.705308 0.626245 0.000000
0.782221 0.624096 0.000000
0.859135 0.621947 0.000000
0.936048 0.619798 0.000000
1.000000 0.617649 0.000000
1.000000 0.617088 0.000000
1.000000 0.617088 0.000000
0.012212 0.720337 0.012212
0.012212 0.720337 0.012212
0.085781 0.718281 0.010156
0.162695 0.716132 0.008007
0.239608 0.713983 0.005858
0.316522 0.711834 0.003709
0.393435 0.709685 0.001560
0.470348 0.707536 0.000000
0.547262 0.705387 0.000000
0.624175 0.703238 0.000000
0.701089 0.701089 0.000000
0.778002 0.698940 0.000000
0.854916 0.696791 0.000000
0.931829 0.694642 0.000000
1.000000 0.692493 0.000000
1.000000 0.691932 0.000000
1.000000 0.691932 0.000000
0.007993 0.795180 0.007993
0.007993 0.795180 0.007993
0.081562 0.793125 0.005937
0.158476 0.790976 0.003788
0.235389 0.788827 0.001639
0.312303 0.786678 0.000000
0.389216 0.784528 0.000000
0.466129 0.782379 0.000000
0.543043 0.780230 0.000000
0.619956 0.778081 0.000000
0.696870 0.775932 0.000000
0.773783 0.773783 0.000000
0.850697 0.771634 0.000000
0.927610 0.769485 0.000000
1.000000 0.767336 0.000000
1.000000 0.766775 0.000000
1.000000 0.766775 0.000000
0.003774 0.870024 0.003774
0.003774 0.870024 0.003774
0.077343 0.867968 0.001718
0.154257 0.865819 0.000000
0.231170 0.863670 0.000000
0.308083 0.861521 0.000000
0.384997 0.859372 0.000000
0.461910 0.857223 0.000000
0.538824 0.855074 0.000000
0.615737 0.852925 0.000000
0.692651 0.850776 0.000000
0.769564 0.848627 0.000000
0.846477 0.846477 0.000000
0.923391 0.844328 0.000000
1.000000 0.842179 0.000000
1.000000 0.841619 0.000000
1.000000 0.841619 0.000000
0.000000 0.944867 0.000000
0.000000 0.944867 0.000000
0.073124 0.942812 0.000000
0.150037 0.940663 0.000000
0.226951 0.938513 0.000000
0.303864 0.936364 0.000000
0.380778 0.934215 0.000000
0.457691 0.932066 0.000000
0.534605 0.929917 0.000000
0.611518 0.927768 0.000000
0.688432 0.925619 0.000000
0.765345 0.923470 0.000000
0.842258 0.921321 0.000000
0.919172 0.919172 0.000000
0.996085 0.917023 0.000000
1.000000 0.916462 0.000000
1.000000 0.916462 0.000000
0.000000 1.000000 0.000000
0.000000 1.000000 0.000000
0.068905 1.000000 0.000000
0.145818 1.000000 0.000000
0.222732 1.000000 0.000000
0.299645 1.000000 0.000000
0.376559 1.000000 0.000000
0.453472 1.000000 0.000000
0.530386 1.000000 0.000000
0.607299 1.000000 0.000000
0.684213 1.000000 0.000000
0.761126 0.998313 0.000000
0.838039 0.996164 0.000000
0.914953 0.994015 0.000000
0.991866 0.991866 0.000000
1.000000 0.991306 0.000000
1.000000 0.991306 0.000000
0.000000 1.000000 0.000000
0.000000 1.000000 0.000000
0.067804 1.000000 0.000000
0.144718 1.000000 0.000000
0.221631 1.000000 0.000000
0.298545 1.000000 0.000000
0.375458 1.000000 0.000000
0.452372 1.000000 0.000000
0.529285 1.000000 0.000000
0.606198 1.000000 0.000000
0.683112 1.000000 0.000000
0.760025 1.000000 0.000000
0.836939 1.000000 0.000000
0.913852 1.000000 0.000000
0.990766 1.000000 0.000000
1.000000 1.000000 0.000000
1.000000 1.000000 0.000000
0.000000 1.000000 0.000000
0.000000 1.000000 0.000000
0.067804 1.000000 0.000000
0.144718 1.000000 0.000000
0.221631 1.000000 0.000000
0.298545 1.000000 0.000000
0.375458 1.000000 0.000000
0.452372 1.000000 0.000000
0.529285 1.000000 0.000000
0.606198 1.000000 0.000000
0.683112 1.000000 0.000000
0.760025 1.000000 0.000000
0.836939 1.000000 0.000000
0.913852 1.000000 0.000000
0.990766 1.000000 0.000000
1.000000 1.000000 0.000000
1.000000 1.000000 0.000000
0.049216 0.049216 0.124841
0.049216 0.049216 0.124841
0.122786 0.047161 0.122786
0.199699 0.045012 0.120637
0.276613 0.042862 0.118488
0.353526 0.040713 0.116338
0.430439 0.038564 0.114189
0.507353 0.036415 0.112040
0.584266 0.034266 0.109891
0.661180 0.032117 0.107742
0.738093 0.029968 0.105593
0.815007 0.027819 0.103444
0.891920 0.025670 0.101295
0.968833 0.023521 0.099146
1.000000 0.021372 0.096997
1.000000 0.020811 0.096436
1.000000 0.020811 0.096436
0.049216 0.049216 0.124841
0.049216 0.049216 0.124841
0.122786 0.047161 0.122786
0.199699 0.045012 0.120637
0.276613 0.042862 0.118488
0.353526 0.040713 0.116338
0.430439 0.038564 0.114189
0.507353 0.036415 0.112040
0.584266 0.034266 0.109891
0.661180 0.032117 0.107742
0.738093 0.029968 0.105593
0.815007 0.027819 0.103444
0.891920 0.025670 0.101295
0.968833 0.023521 0.099146
1.000000 0.021372 0.096997
1.000000 0.020811 0.096436
1.000000 0.020811 0.096436
0.045181 0.120806 0.120806
0.045181 0.120806 0.120806
0.118750 0.118750 0.118750
0.195663 0.116601 0.116601
0.272577 0.114452 0.114452
0.349490 0.112303 0.112303
0.426404 0.110154 0.110154
0.503317 0.108005 0.108005
0.580231 0.105856 0.105856
0.657144 0.103707 0.103707
0.734058 0.101557 0.101557
0.810971 0.099408 0.099408
0.887884 0.097259 0.097259
0.964798 0.095110 0.095110
1.000000 0.092961 0.092961
1.000000 0.092401 0.092401
1.000000 0.092401 0.092401
0.040962 0.195649 0.116587
0.040962 0.195649 0.116587
0.114531 0.193593 0.114531
0.191444 0.191444 0.112382
0.268358 0.189295 0.110233
0.345271 0.187146 0.108084
0.422185 0.184997 0.105935
0.499098 0.182848 0.103786
0.576012 0.180699 0.101637
0.652925 0.178550 0.099488
0.729838 0.176401 0.097338
0.806752 0.174252 0.095189
0.883665 0.172103 0.093040
0.960579 0.169954 0.090891
1.000000 0.167805 0.088742
1.000000 0.167244 0.088182
1.000000 0.167244 0.088182
0.036742 0.270493 0.112368
0.036742 0.270493 0.112368
0.110312 0.268437 0.110312
0.187225 0.266288 0.108163
0.264139 0.264139 0.106014
0.341052 0.261990 0.103865
0.417966 0.259841 0.101716
0.494879 0.257692 0.099567
0.571793 0.255543 0.097418
0.648706 0.253393 0.095268
0.725619 0.251244 0.093119
0.802533 0.249095 0.090970
0.879446 0.246946 0.088821
0.956360 0.244797 0.086672
1.000000 0.242648 0.084523
1.000000 0.242088 0.083962
1.000000 0.242088 0.083962
0.032523 0.345336 0.108148
0.032523 0.345336 0.108148
0.106093 0.343280 0.106093
0.183006 0.341131 0.103944
0.259920 0.338982 0.101795
0.336833 0.336833 0.099646
0.413747 0.334684 0.097497
0.490660 0.332535 0.095348
0.567573 0.330386 0.093198
0.644487 0.328237 0.091049
0.721400 0.326088 0.088900
0.798314 0.323939 0.086751
0.875227 0.321790 0.084602
0.952141 0.319641 0.082453
1.000000 0.317492 0.080304
1.000000 0.316931 0.079743
1.000000 0.316931 0.079743
0.028304 0.420179 0.103929
0.028304 0.420179 0.103929
0.101874 0.418124 0.101874
0.178787 0.415975 0.099725
0.255701 0.413826 0.097576
0.332614 0.411677 0.095427
0.409527 0.409527 0.093278
0.486441 0.407378 0.091128
0.563354 0.405229 0.088979
0.640268 0.403080 0.086830
0.717181 0.400931 0.084681
0.794095 0.398782 0.082532
0.871008 0.396633 0.080383
0.947922 0.394484 0.078234
1.000000 0.392335 0.076085
1.000000 0.391774 0.075524
1.000000 0.391774 0.075524
0.024085 0.495023 0.099710
0.024085 0.495023 0.099710
0.097655 0.492967 0.097655
0.174568 0.490818 0.095506
0.251482 0.488669 0.093357
0.328395 0.486520 0.091207
0.405308 0.484371 0.089058
0.482222 0.482222 0.086909
0.559135 0.480073 0.084760
0.636049 0.477924 0.082611
0.712962 0.475775 0.080462
0.789876 0.473626 0.078313
0.866789 0.471477 0.076164
0.943703 0.469327 0.074015
1.000000 0.467178 0.071866
1.000000 0.466618 0.071305
1.000000 0.466618 0.071305
0.019866 0.569866 0.095491
0.019866 0.569866 0.095491
0.093436 0.567811 0.093436
0.170349 0.565662 0.091287
0.247262 0.563513 0.089137
0.324176 0.561363 0.086988
0.401089 0.559214 0.084839
0.478003 0.557065 0.082690
0.554916 0.554916 0.080541
0.631830 0.552767 0.078392
0.708743 0.550618 0.076243
0.785657 0.548469 0.074094
0.862570 0.546320 0.071945
0.939483 0.544171 0.069796
1.000000 0.542022 0.067647
1.000000 0.541461 0.067086
1.000000 0.541461 0.067086
0.015647 0.644710 0.091272
0.015647 0.644710 0.091272
0.089217 0.642654 0.089217
0.166130 0.640505 0.087068
0.243043 0.638356 0.084918
0.319957 0.636207 0.082769
0.396870 0.634058 0.080620
0.473784 0.631909 0.078471
0.550697 0.629760 0.076322
0.627611 0.627611 0.074173
0.704524 0.625462 0.072024
0.781438 0.623313 0.069875
0.858351 0.621163 0.067726
0.935264 0.619014 0.065577
1.000000 0.616865 0.063428
1.000000 0.616305 0.062867
1.000000 0.616305 0.062867
0.011428 0.719553 0.087053
0.011428 0.719553 0.087053
0.084998 0.717498 0.084998
0.161911 0.715348 0.082848
0.238824 0.713199 0.080699
0.315738 0.711050 0.078550
0.392651 0.708901 0.076401
0.469565 0.706752 0.074252
0.546478 0.704603 0.072103
0.623392 0.702454 0.069954
0.700305 0.700305 0.067805
0.777218 0.698156 0.065656
0.854132 0.696007 0.063507
0.931045 0.693858 0.061358
1.000000 0.691709 0.059209
1.000000 0.691148 0.058648
1.000000 0.691148 0.058648
0.007209 0.794397 0.082834
0.007209 0.794397 0.082834
0.080778 0.792341 0.080778
0.157692 0.790192 0.078629
0.234605 0.788043 0.076480
0.311519 0.785894 0.074331
0.388432 0.783745 0.072182
0.465346 0.781596 0.070033
0.542259 0.779447 0.067884
0.619173 0.777297 0.065735
0.696086 0.775148 0.063586
0.772999 0.772999 0.061437
0.849913 0.770850 0.059288
0.926826 0.768701 0.057139
1.000000 0.766552 0.054990
1.000000 0.765992 0.054429
1.000000 0.765992 0.054429
0.002990 0.869240 0.078615
0.002990 0.869240 0.078615
0.076559 0.867184 0.076559
0.153473 0.865035 0.074410
0.230386 0.862886 0.072261
0.307300 0.860737 0.070112
0.384213 0.858588 0.067963
0.461127 0.856439 0.065814
0.538040 0.854290 0.063665
0.614953 0.852141 0.061516
0.691867 0.849992 0.059367
0.768780 0.847843 0.057218
0.845694 0.845694 0.055069
0.922607 0.843545 0.052920
0.999521 0.841396 0.050771
1.000000 0.840835 0.050210
1.000000 0.840835 0.050210
0.000000 0.944083 0.074396
0.000000 0.944083 0.074396
0.072340 0.942028 0.072340
0.149254 0.939879 0.070191
0.226167 0.937730 0.068042
0.303081 0.935581 0.065893
0.379994 0.933432 0.063744
0.456907 0.931283 0.061595
0.533821 0.929133 0.059446
0.610734 0.926984 0.057297
0.687648 0.924835 0.055148
0.764561 0.922686 0.052999
0.841475 0.920537 0.050850
0.918388 0.918388 0.048701
0.995302 0.916239 0.046552
1.000000 0.915678 0.045991
1.000000 0.915678 0.045991
0.000000 1.000000 0.070177
0.000000 1.000000 0.070177
0.068121 1.000000 0.068121
0.145035 1.000000 0.065972
0.221948 1.000000 0.063823
0.298862 1.000000 0.061674
0.375775 1.000000 0.059525
0.452688 1.000000 0.057376
0.529602 1.000000 0.055227
0.606515 1.000000 0.053078
0.683429 0.999679 0.050929
0.760342 0.997530 0.048780
0.837256 0.995381 0.046631
0.914169 0.993232 0.044482
0.991082 0.991082 0.042332
1.000000 0.990522 0.041772
1.000000 0.990522 0.041772
0.000000 1.000000 0.069076
0.000000 1.000000 0.069076
0.067021 1.000000 0.067021
0.143934 1.000000 0.064872
0.220847 1.000000 0.062723
0.297761 1.000000 0.060573
0.374674 1.000000 0.058424
0.451588 1.000000 0.056275
0.528501 1.000000 0.054126
0.605415 1.000000 0.051977
0.682328 1.000000 0.049828
0.759242 1.000000 0.047679
0.836155 1.000000 0.045530
0.913068 1.000000 0.043381
0.989982 1.000000 0.041232
1.000000 1.000000 0.040671
1.000000 1.000000 0.040671
0.000000 1.000000 0.069076
0.000000 1.000000 0.069076
0.067021 1.000000 0.067021
0.143934 1.000000 0.064872
0.220847 1.000000 0.062723
0.297761 1.000000 0.060573
0.374674 1.000000 0.058424
0.451588 1.000000 0.056275
0.528501 1.000000 0.054126
0.605415 1.000000 0.051977
0.682328 1.000000 0.049828
0.759242 1.000000 0.047679
0.836155 1.000000 0.045530
0.913068 1.000000 0.043381
0.989982 1.000000 0.041232
1.000000 1.000000 0.040671
1.000000 1.000000 0.040671
0.048397 0.048397 0.203084
0.048397 0.048397 0.203084
0.121966 0.046341 0.201029
0.198880 0.044192 0.198880
0.275793 0.042043 0.196731
0.352707 0.039894 0.194582
0.429620 0.037745 0.192432
0.506533 0.035596 0.190283
0.583447 0.033447 0.188134
0.660360 0.031298 0.185985
0.737274 0.029149 0.183836
0.814187 0.027000 0.181687
0.891101 0.024851 0.179538
0.968014 0.022702 0.177389
1.000000 0.020552 0.175240
1.000000 0.019992 0.174679
1.000000 0.019992 0.174679
0.048397 0.048397 0.203084
0.048397 0.048397 0.203084
0.121966 0.046341 0.201029
